; generated by PrusaSlicer 2.4.0+win64 on 2022-05-22 at 13:54:29 UTC

; 

; external perimeters extrusion width = 0.45mm
; perimeters extrusion width = 0.45mm
; infill extrusion width = 0.45mm
; solid infill extrusion width = 0.45mm
; top infill extrusion width = 0.45mm
; first layer extrusion width = 0.42mm

M201 X500 Y500 Z100 E5000 ; sets maximum accelerations, mm/sec^2
M203 X500 Y500 Z10 E60 ; sets maximum feedrates, mm/sec
M204 P500 R1000 T500 ; sets acceleration (P, T) and retract acceleration (R), mm/sec^2
M205 X8.00 Y8.00 Z0.40 E5.00 ; sets the jerk limits, mm/sec
M205 S0 T0 ; sets the minimum extruding and travel feed rate, mm/sec
M107
;TYPE:Custom
G90 ; use absolute coordinates
M83 ; extruder relative mode
M140 S80 ; set final bed temp
M104 S150 ; set temporary nozzle temp to prevent oozing during homing
G4 S10 ; allow partial nozzle warmup
G28 ; home all axis
G1 Z50 F240
G1 X2 Y10 F3000
M104 S235 ; set final nozzle temp
M190 S80 ; wait for bed temp to stabilize
M109 S235 ; wait for nozzle temp to stabilize
G1 Z0.28 F240
G92 E0
G1 Y140 E10 F1500 ; prime the nozzle
G1 X2.3 F5000
G92 E0
G1 Y10 E10 F1200 ; prime the nozzle
G92 E0
G21 ; set units to millimeters
G90 ; use absolute coordinates
M83 ; use relative distances for extrusion
; Filament gcode
M107
;LAYER_CHANGE
;Z:0.2
;HEIGHT:0.2
;BEFORE_LAYER_CHANGE
G92 E0
;0.2


G1 E-5 F3600
G1 Z.1 F9000
;AFTER_LAYER_CHANGE
;0.2
G1 X67.126 Y60.702
G1 E5 F2400
M204 S500
;TYPE:Skirt/Brim
;WIDTH:0.42
G1 F1200
G1 X67.863 Y59.888 E.03272
G1 X70.792 Y56.959 E.12338
G1 X72.19 Y56.118 E.0486
G1 X73.18 Y55.97 E.02981
G1 X146.822 Y55.97 E2.19355
G1 X148.405 Y56.364 E.0486
G1 X149.21 Y56.959 E.02981
G1 X152.257 Y60.012 E.12848
G1 X157.973 Y66.339 E.25399
G1 X158.392 Y66.915 E.0212
G1 X167.679 Y83.003 E.55335
G1 X167.968 Y83.653 E.02118
G1 X170.592 Y91.77 E.25409
G1 X171.712 Y95.936 E.1285
G1 X171.741 Y97.567 E.0486
G1 X171.374 Y98.498 E.0298
G1 X134.554 Y162.271 E2.19347
G1 X133.421 Y163.445 E.0486
G1 X132.503 Y163.844 E.0298
G1 X128.336 Y164.957 E.12849
G1 X119.997 Y166.742 E.25402
G1 X119.29 Y166.817 E.02117
G1 X100.71 Y166.817 E.55342
G1 X100.003 Y166.742 E.02118
G1 X91.499 Y164.917 E.25906
G1 X87.499 Y163.845 E.12337
G1 X86.072 Y163.054 E.0486
G1 X85.449 Y162.272 E.0298
G1 X48.628 Y98.498 E2.19348
G1 X48.177 Y96.93 E.0486
G1 X48.29 Y95.936 E.02979
G1 X49.41 Y91.771 E.12848
G1 X52.032 Y83.654 E.25409
G1 X52.321 Y83.003 E.02121
G1 X61.611 Y66.913 E.55342
G1 X62.03 Y66.338 E.02119
G1 X67.086 Y60.747 E.22454
G1 E-3.5 F3600
;WIPE_START
G1 F7200
G1 X67.863 Y59.888 E-.5503
G1 X69.165 Y58.585 E-.8747
;WIPE_END
G1 E-.075 F3600
G1 X70.961 Y62.311 F9000
G1 E5 F2400
G1 F1200
G1 X71.606 Y61.327 E.03504
G1 X72.519 Y60.472 E.03725
G1 X73.607 Y59.893 E.03672
G1 X74.825 Y59.633 E.03711
G1 X85.324 Y59.642 E.31272
G1 X86.519 Y59.943 E.03672
G1 X87.527 Y60.505 E.03436
G1 X88.503 Y61.453 E.04054
G1 X89.111 Y62.473 E.03537
G1 X89.447 Y63.71 E.03819
G1 X89.458 Y67.548 E.11432
G1 X90.545 Y67.548 E.03239
G1 X90.57 Y63.599 E.11763
G1 X90.882 Y62.488 E.03438
G1 X91.451 Y61.519 E.03347
G1 X92.398 Y60.562 E.0401
G1 X93.439 Y59.959 E.03584
G1 X94.558 Y59.661 E.03448
G1 X105.203 Y59.636 E.3171
G1 X106.301 Y59.859 E.03337
G1 X107.32 Y60.36 E.03383
G1 X108.563 Y61.535 E.05093
G1 X109.09 Y62.423 E.03078
G1 X109.401 Y63.412 E.03086
G1 X109.449 Y67.548 E.12322
G1 X110.544 Y67.548 E.03261
G1 X110.569 Y63.61 E.11733
G1 X110.873 Y62.513 E.03389
G1 X111.449 Y61.519 E.03424
G1 X112.486 Y60.496 E.04337
G1 X113.374 Y59.987 E.0305
G1 X114.343 Y59.69 E.03018
G1 X125.322 Y59.641 E.32704
G1 X126.856 Y60.089 E.04761
G1 X127.732 Y60.668 E.03125
G1 X128.503 Y61.458 E.0329
G1 X128.979 Y62.185 E.02589
G1 X129.373 Y63.265 E.03424
G1 X129.447 Y67.548 E.1276
G1 X130.54 Y67.548 E.03256
G1 X130.543 Y63.855 E.11001
G1 X130.726 Y62.908 E.02874
G1 X131.486 Y61.463 E.04863
G1 X132.331 Y60.622 E.0355
G1 X133.277 Y60.03 E.03325
G1 X134.645 Y59.644 E.04236
G1 X145.323 Y59.642 E.31804
G1 X146.6 Y59.974 E.03931
G1 X147.804 Y60.729 E.04234
G1 X148.595 Y61.571 E.03441
G1 X149.151 Y62.568 E.034
G1 X149.44 Y63.657 E.03356
G1 X149.457 Y67.559 E.11623
G1 X152.583 Y67.601 E.09312
G1 X153.838 Y67.992 E.03916
G1 X154.608 Y68.458 E.02681
G1 X155.278 Y69.044 E.02651
G1 X164.044 Y84.049 E.51764
G1 X164.396 Y85.127 E.03378
G1 X164.475 Y86.289 E.03469
G1 X164.212 Y87.604 E.03993
G1 X162.647 Y90.42 E.09597
G1 X166.089 Y92.437 E.11883
G1 X166.9 Y93.279 E.0348
G1 X167.418 Y94.181 E.031
G1 X167.801 Y95.62 E.04435
G1 X167.772 Y96.852 E.0367
G1 X167.412 Y98.024 E.03652
G1 X162.161 Y107.125 E.31298
G1 X161.255 Y108.065 E.03888
G1 X160.451 Y108.576 E.02839
G1 X158.681 Y109.059 E.05463
G1 X157.668 Y109.025 E.03019
G1 X156.683 Y108.772 E.03031
G1 X153.208 Y106.801 E.11899
G1 X152.656 Y107.756 E.03286
G1 X156.255 Y109.893 E.12465
G1 X157.202 Y111.05 E.04454
G1 X157.525 Y111.791 E.02409
G1 X157.781 Y112.82 E.03158
G1 X157.792 Y114.029 E.03599
G1 X157.422 Y115.335 E.04044
G1 X152.132 Y124.486 E.31483
G1 X151.289 Y125.36 E.03617
G1 X150.453 Y125.897 E.02959
G1 X148.682 Y126.381 E.05468
G1 X147.707 Y126.353 E.02906
G1 X146.683 Y126.094 E.03147
G1 X143.208 Y124.122 E.11903
G1 X142.661 Y125.069 E.03257
G1 X146.094 Y127.079 E.11851
G1 X146.839 Y127.841 E.03174
G1 X147.502 Y129.03 E.04055
G1 X147.811 Y130.364 E.0408
G1 X147.662 Y132.02 E.04951
G1 X147.366 Y132.753 E.02356
G1 X142.162 Y141.767 E.31002
G1 X141.219 Y142.736 E.04026
G1 X140.324 Y143.274 E.03111
G1 X138.532 Y143.71 E.05494
G1 X137.575 Y143.657 E.02853
G1 X136.637 Y143.394 E.02902
G1 X133.208 Y141.441 E.11756
G1 X132.659 Y142.391 E.03268
G1 X136.148 Y144.441 E.12052
G1 X136.847 Y145.172 E.03011
G1 X137.508 Y146.36 E.04052
G1 X137.796 Y147.538 E.03611
G1 X137.781 Y148.753 E.03619
G1 X137.394 Y150.024 E.03957
G1 X132.191 Y159.036 E.30998
G1 X131.362 Y159.946 E.03668
G1 X130.331 Y160.59 E.0362
G1 X128.853 Y160.999 E.04566
G1 X127.83 Y161.01 E.03049
G1 X126.819 Y160.785 E.03085
G1 X123.202 Y158.754 E.12354
G1 X121.629 Y161.404 E.09181
G1 X120.579 Y162.367 E.04242
G1 X119.364 Y162.955 E.0402
G1 X118.332 Y163.15 E.03128
G1 X101.631 Y163.149 E.49748
G1 X100.388 Y162.864 E.03797
G1 X99.278 Y162.268 E.03753
G1 X98.329 Y161.353 E.03925
G1 X96.803 Y158.759 E.08966
G1 X93.459 Y160.674 E.11478
G1 X92.518 Y160.961 E.02929
G1 X91.211 Y161.008 E.03897
G1 X89.965 Y160.707 E.03817
G1 X88.728 Y160.015 E.04222
G1 X87.841 Y159.087 E.03824
G1 X82.608 Y150.024 E.31172
G1 X82.206 Y148.651 E.04263
G1 X82.217 Y147.455 E.03561
G1 X82.502 Y146.355 E.03388
G1 X82.983 Y145.405 E.0317
G1 X83.745 Y144.534 E.03447
G1 X87.344 Y142.396 E.12469
G1 X86.792 Y141.441 E.03285
G1 X83.315 Y143.414 E.11908
G1 X82.331 Y143.667 E.03029
G1 X81.294 Y143.699 E.03088
G1 X79.272 Y143.077 E.06302
G1 X78.444 Y142.457 E.03082
G1 X77.796 Y141.694 E.02981
G1 X72.33 Y131.995 E.33164
G1 X72.186 Y131.134 E.02598
G1 X72.195 Y130.312 E.0245
G1 X72.475 Y129.114 E.03665
G1 X73.014 Y128.038 E.03584
G1 X73.844 Y127.132 E.03661
G1 X77.342 Y125.073 E.12089
G1 X76.792 Y124.121 E.03275
G1 X73.269 Y126.114 E.12058
G1 X72.332 Y126.347 E.02875
G1 X71.381 Y126.388 E.02835
G1 X69.492 Y125.872 E.05832
G1 X68.711 Y125.358 E.02786
G1 X67.84 Y124.447 E.03752
G1 X62.521 Y115.197 E.31782
G1 X62.208 Y114.029 E.03603
G1 X62.218 Y112.825 E.03586
G1 X62.652 Y111.344 E.046
G1 X63.238 Y110.417 E.03265
G1 X63.978 Y109.703 E.03064
G1 X67.336 Y107.743 E.1158
G1 X66.792 Y106.801 E.03241
G1 X63.317 Y108.772 E.11901
G1 X62.333 Y109.025 E.03028
G1 X61.297 Y109.057 E.03087
G1 X59.275 Y108.436 E.063
G1 X58.448 Y107.816 E.03077
G1 X57.805 Y107.063 E.02949
G1 X52.595 Y98.034 E.31052
G1 X52.242 Y96.929 E.03455
G1 X52.181 Y95.839 E.03251
G1 X52.444 Y94.568 E.03866
G1 X52.985 Y93.443 E.03721
G1 X53.896 Y92.45 E.04012
G1 X57.352 Y90.424 E.11935
G1 X55.828 Y87.716 E.09256
G1 X55.566 Y86.701 E.03122
G1 X55.533 Y85.655 E.03118
G1 X55.857 Y84.281 E.04204
G1 X64.473 Y69.352 E.51343
G1 X65.222 Y68.587 E.03189
G1 X66.129 Y68.012 E.032
G1 X67.41 Y67.603 E.04003
G1 X70.557 Y67.559 E.09376
G1 X70.609 Y63.364 E.12499
G1 X70.942 Y62.368 E.03127
G1 X71.298 Y62.49 F9000
G1 F1200
G1 X71.88 Y61.587 E.03201
G1 X72.758 Y60.765 E.03582
G1 X73.758 Y60.239 E.03367
G1 X74.844 Y60.01 E.03306
G1 X85.3 Y60.019 E.31143
G1 X86.401 Y60.301 E.03386
G1 X87.319 Y60.82 E.03142
G1 X88.22 Y61.705 E.03761
G1 X88.774 Y62.642 E.03243
G1 X89.07 Y63.736 E.03376
G1 X89.082 Y67.926 E.12479
G1 X90.921 Y67.926 E.05478
G1 X90.941 Y63.675 E.12663
G1 X91.22 Y62.657 E.03143
G1 X91.764 Y61.73 E.03202
G1 X92.61 Y60.874 E.03583
G1 X93.563 Y60.316 E.03291
G1 X94.584 Y60.038 E.03151
G1 X105.185 Y60.013 E.31579
G1 X106.157 Y60.208 E.02952
G1 X107.128 Y60.686 E.03224
G1 X108.253 Y61.751 E.04614
G1 X108.737 Y62.558 E.02803
G1 X109.032 Y63.498 E.02935
G1 X109.075 Y67.926 E.13188
G1 X110.92 Y67.926 E.05494
G1 X110.939 Y63.686 E.12628
G1 X111.23 Y62.638 E.03239
G1 X111.762 Y61.731 E.03133
G1 X112.695 Y60.81 E.03907
G1 X113.506 Y60.341 E.02788
G1 X114.427 Y60.058 E.0287
G1 X125.296 Y60.018 E.32376
G1 X126.673 Y60.42 E.04273
G1 X127.477 Y60.947 E.02863
G1 X128.199 Y61.682 E.0307
G1 X128.633 Y62.336 E.02337
G1 X129.008 Y63.365 E.03261
G1 X129.074 Y67.926 E.13587
G1 X130.916 Y67.926 E.05487
G1 X130.92 Y63.872 E.12073
G1 X131.073 Y63.056 E.02474
G1 X131.774 Y61.708 E.04524
G1 X132.551 Y60.929 E.03279
G1 X133.408 Y60.385 E.03023
G1 X134.672 Y60.021 E.03919
G1 X145.298 Y60.019 E.3165
G1 X146.475 Y60.331 E.03627
G1 X147.547 Y61.006 E.03773
G1 X148.278 Y61.777 E.03167
G1 X148.793 Y62.69 E.03123
G1 X149.063 Y63.684 E.03066
G1 X149.081 Y67.933 E.12656
G1 X152.499 Y67.97 E.1018
G1 X153.664 Y68.327 E.03632
G1 X154.373 Y68.753 E.02462
G1 X155.007 Y69.307 E.02508
G1 X163.692 Y84.185 E.51315
G1 X164.03 Y85.221 E.03245
G1 X164.097 Y86.287 E.03181
G1 X163.849 Y87.499 E.03685
G1 X162.137 Y90.559 E.10443
G1 X165.876 Y92.749 E.12908
G1 X166.585 Y93.488 E.0305
G1 X167.061 Y94.305 E.02815
G1 X167.423 Y95.641 E.04124
G1 X167.403 Y96.768 E.03359
G1 X167.075 Y97.855 E.0338
G1 X161.847 Y106.916 E.31161
G1 X161.001 Y107.785 E.03612
G1 X160.275 Y108.242 E.02555
G1 X158.612 Y108.687 E.05129
G1 X157.741 Y108.655 E.02597
G1 X156.846 Y108.431 E.02747
G1 X153.069 Y106.288 E.12936
G1 X152.144 Y107.89 E.0551
G1 X156.033 Y110.2 E.13475
G1 X156.867 Y111.225 E.03936
G1 X157.164 Y111.899 E.02195
G1 X157.404 Y112.849 E.02918
G1 X157.421 Y113.954 E.03293
G1 X157.083 Y115.167 E.0375
G1 X151.818 Y124.276 E.3134
G1 X151.035 Y125.08 E.03342
G1 X150.276 Y125.563 E.02679
G1 X148.612 Y126.009 E.05131
G1 X147.778 Y125.982 E.02487
G1 X146.846 Y125.753 E.02859
G1 X143.068 Y123.609 E.12939
G1 X142.147 Y125.205 E.05488
G1 X145.882 Y127.392 E.12892
G1 X146.523 Y128.049 E.02734
G1 X147.141 Y129.141 E.03741
G1 X147.437 Y130.42 E.03908
G1 X147.302 Y131.905 E.04442
G1 X147.033 Y132.577 E.02155
G1 X141.847 Y141.558 E.30892
G1 X141.001 Y142.427 E.03611
G1 X140.205 Y142.914 E.0278
G1 X138.471 Y143.337 E.05317
G1 X137.62 Y143.282 E.02541
G1 X136.804 Y143.055 E.02523
G1 X133.069 Y140.927 E.12803
G1 X132.146 Y142.526 E.055
G1 X135.934 Y144.753 E.13088
G1 X136.53 Y145.377 E.02571
G1 X137.149 Y146.477 E.03758
G1 X137.419 Y147.56 E.03326
G1 X137.412 Y148.671 E.03309
G1 X137.057 Y149.855 E.0368
G1 X131.874 Y158.83 E.30872
G1 X131.138 Y159.642 E.03264
G1 X130.201 Y160.235 E.03302
G1 X128.822 Y160.622 E.04268
G1 X127.889 Y160.637 E.02778
G1 X126.928 Y160.423 E.02934
G1 X123.065 Y158.244 E.1321
G1 X121.352 Y161.147 E.10042
G1 X120.388 Y162.041 E.03916
G1 X119.267 Y162.589 E.03715
G1 X118.314 Y162.773 E.02892
G1 X101.652 Y162.772 E.49632
G1 X100.542 Y162.519 E.03389
G1 X99.519 Y161.976 E.03451
G1 X98.641 Y161.139 E.03614
G1 X96.939 Y158.247 E.09996
G1 X93.289 Y160.337 E.12526
G1 X92.478 Y160.585 E.02528
G1 X91.273 Y160.635 E.03591
G1 X90.078 Y160.347 E.03661
G1 X88.98 Y159.733 E.03748
G1 X88.155 Y158.878 E.03537
G1 X82.946 Y149.855 E.31036
G1 X82.583 Y148.624 E.03822
G1 X82.588 Y147.525 E.03273
G1 X82.849 Y146.504 E.03139
G1 X83.285 Y145.632 E.02904
G1 X83.964 Y144.842 E.03104
G1 X87.856 Y142.53 E.13484
G1 X86.932 Y140.928 E.05509
G1 X83.152 Y143.073 E.12945
G1 X82.258 Y143.297 E.02744
G1 X81.372 Y143.329 E.02641
G1 X79.47 Y142.755 E.0592
G1 X78.716 Y142.195 E.02796
G1 X78.115 Y141.493 E.02754
G1 X72.696 Y131.899 E.32821
G1 X72.563 Y131.119 E.02355
G1 X72.567 Y130.377 E.02212
G1 X72.837 Y129.222 E.03532
G1 X73.339 Y128.232 E.03307
G1 X74.06 Y127.443 E.03185
G1 X77.856 Y125.209 E.13119
G1 X76.932 Y123.609 E.05502
G1 X73.106 Y125.772 E.13091
G1 X72.261 Y125.977 E.02591
G1 X71.449 Y126.016 E.0242
G1 X69.672 Y125.539 E.05481
G1 X68.967 Y125.08 E.02507
G1 X68.155 Y124.238 E.03482
G1 X62.879 Y115.076 E.31494
G1 X62.579 Y113.957 E.0345
G1 X62.594 Y112.857 E.03278
G1 X62.985 Y111.523 E.0414
G1 X63.544 Y110.639 E.03116
G1 X64.222 Y109.991 E.02793
G1 X67.851 Y107.88 E.12504
G1 X66.932 Y106.288 E.05476
G1 X63.154 Y108.431 E.12938
G1 X62.26 Y108.655 E.02743
G1 X61.375 Y108.687 E.0264
G1 X59.472 Y108.113 E.05918
G1 X58.72 Y107.554 E.02793
G1 X58.123 Y106.86 E.02728
G1 X52.931 Y97.863 E.30939
G1 X52.616 Y96.882 E.03069
G1 X52.555 Y95.891 E.02958
G1 X52.808 Y94.668 E.03718
G1 X53.312 Y93.632 E.03431
G1 X54.111 Y92.761 E.03521
G1 X57.863 Y90.562 E.12955
G1 X56.169 Y87.553 E.10283
G1 X55.937 Y86.629 E.02839
G1 X55.906 Y85.714 E.02726
G1 X56.198 Y84.444 E.03882
G1 X64.76 Y69.597 E.51052
G1 X65.443 Y68.893 E.02922
G1 X66.31 Y68.344 E.03058
G1 X67.495 Y67.971 E.03701
G1 X70.93 Y67.933 E.1023
G1 X70.986 Y63.399 E.13506
G1 X71.278 Y62.547 E.02683
G1 X71.633 Y62.673 F9000
G1 F1200
G1 X71.657 Y62.605 E.00214
G1 X72.155 Y61.847 E.02701
G1 X72.996 Y61.058 E.03436
G1 X73.908 Y60.586 E.03059
G1 X74.863 Y60.387 E.02906
G1 X85.275 Y60.396 E.31012
G1 X86.28 Y60.659 E.03096
G1 X87.109 Y61.135 E.02848
G1 X87.937 Y61.954 E.03469
G1 X88.435 Y62.81 E.0295
G1 X88.693 Y63.762 E.02937
G1 X88.706 Y68.303 E.13525
G1 X91.297 Y68.303 E.07718
G1 X91.311 Y63.75 E.13561
G1 X91.577 Y62.782 E.02991
G1 X92.076 Y61.943 E.02908
G1 X92.822 Y61.187 E.03162
G1 X93.731 Y60.655 E.03139
G1 X94.657 Y60.408 E.02852
G1 X105.168 Y60.391 E.31309
G1 X106.013 Y60.558 E.02567
G1 X106.936 Y61.011 E.03064
G1 X107.944 Y61.969 E.0414
G1 X108.385 Y62.693 E.02526
G1 X108.664 Y63.584 E.02781
G1 X108.701 Y68.303 E.14055
G1 X111.296 Y68.303 E.0773
G1 X111.309 Y63.763 E.13523
G1 X111.586 Y62.764 E.03087
G1 X112.073 Y61.945 E.02838
G1 X112.906 Y61.123 E.03486
G1 X113.638 Y60.695 E.02524
G1 X114.511 Y60.427 E.02721
G1 X125.27 Y60.395 E.32048
G1 X126.492 Y60.752 E.0379
G1 X127.224 Y61.227 E.026
G1 X127.897 Y61.908 E.02853
G1 X128.287 Y62.487 E.02079
G1 X128.643 Y63.463 E.03095
G1 X128.701 Y68.303 E.14415
G1 X131.293 Y68.303 E.0772
G1 X131.297 Y63.889 E.13147
G1 X131.422 Y63.202 E.02079
G1 X132.063 Y61.952 E.04184
G1 X132.774 Y61.234 E.0301
G1 X133.541 Y60.738 E.02721
G1 X134.7 Y60.398 E.03597
G1 X145.273 Y60.396 E.31492
G1 X146.349 Y60.687 E.0332
G1 X147.289 Y61.282 E.03316
G1 X147.989 Y62.02 E.03028
G1 X148.436 Y62.814 E.02715
G1 X148.686 Y63.711 E.02774
G1 X148.706 Y68.307 E.13689
G1 X152.416 Y68.339 E.11052
G1 X153.492 Y68.664 E.03347
G1 X154.138 Y69.048 E.02239
G1 X154.735 Y69.571 E.02365
G1 X163.356 Y84.357 E.50982
G1 X163.664 Y85.313 E.02991
G1 X163.719 Y86.282 E.02892
G1 X163.486 Y87.392 E.03379
G1 X161.626 Y90.696 E.11293
G1 X165.663 Y93.061 E.13934
G1 X166.272 Y93.699 E.02626
G1 X166.704 Y94.431 E.02532
G1 X167.046 Y95.664 E.03813
G1 X167.034 Y96.687 E.03047
G1 X166.737 Y97.686 E.03104
G1 X161.532 Y106.707 E.31022
G1 X160.749 Y107.504 E.0333
G1 X160.1 Y107.906 E.02273
G1 X158.596 Y108.31 E.04639
G1 X157.812 Y108.284 E.02335
G1 X156.963 Y108.071 E.02609
G1 X152.93 Y105.775 E.13824
G1 X151.631 Y108.024 E.07737
G1 X155.812 Y110.507 E.14483
G1 X156.533 Y111.4 E.0342
G1 X156.803 Y112.01 E.01986
G1 X157.028 Y112.88 E.02679
G1 X157.05 Y113.882 E.02985
G1 X156.744 Y115 E.03451
G1 X151.503 Y124.067 E.31194
G1 X150.782 Y124.8 E.03063
G1 X150.1 Y125.229 E.02401
G1 X148.595 Y125.632 E.0464
G1 X147.848 Y125.611 E.02226
G1 X146.962 Y125.393 E.02719
G1 X142.929 Y123.095 E.13824
G1 X141.633 Y125.341 E.07722
G1 X145.669 Y127.704 E.13932
G1 X146.208 Y128.257 E.023
G1 X146.78 Y129.254 E.03424
