; generated by PrusaSlicer 2.4.0+win64 on 2022-05-22 at 13:56:26 UTC

; 

; external perimeters extrusion width = 0.45mm
; perimeters extrusion width = 0.45mm
; infill extrusion width = 0.45mm
; solid infill extrusion width = 0.45mm
; top infill extrusion width = 0.45mm
; first layer extrusion width = 0.42mm

M201 X500 Y500 Z100 E5000 ; sets maximum accelerations, mm/sec^2
M203 X500 Y500 Z10 E60 ; sets maximum feedrates, mm/sec
M204 P500 R1000 T500 ; sets acceleration (P, T) and retract acceleration (R), mm/sec^2
M205 X8.00 Y8.00 Z0.40 E5.00 ; sets the jerk limits, mm/sec
M205 S0 T0 ; sets the minimum extruding and travel feed rate, mm/sec
M107
;TYPE:Custom
G90 ; use absolute coordinates
M83 ; extruder relative mode
M140 S80 ; set final bed temp
M104 S150 ; set temporary nozzle temp to prevent oozing during homing
G4 S10 ; allow partial nozzle warmup
G28 ; home all axis
G1 Z50 F240
G1 X2 Y10 F3000
M104 S235 ; set final nozzle temp
M190 S80 ; wait for bed temp to stabilize
M109 S235 ; wait for nozzle temp to stabilize
G1 Z0.28 F240
G92 E0
G1 Y140 E10 F1500 ; prime the nozzle
G1 X2.3 F5000
G92 E0
G1 Y10 E10 F1200 ; prime the nozzle
G92 E0
G21 ; set units to millimeters
G90 ; use absolute coordinates
M83 ; use relative distances for extrusion
; Filament gcode
M107
;LAYER_CHANGE
;Z:0.2
;HEIGHT:0.2
;BEFORE_LAYER_CHANGE
G92 E0
;0.2


G1 E-5 F3600
G1 Z.1 F9000
;AFTER_LAYER_CHANGE
;0.2
G1 X54.316 Y49.496
G1 E5 F2400
M204 S500
;TYPE:Skirt/Brim
;WIDTH:0.42
G1 F1200
G1 X55.081 Y48.85 E.02981
G1 X58.608 Y46.678 E.12338
G1 X60.379 Y46.176 E.05483
G1 X112.995 Y46.176 E1.56724
G1 X113.776 Y46.268 E.02342
G1 X145.123 Y53.742 E.9599
G1 X193.519 Y71.496 E1.5355
G1 X195.231 Y72.895 E.06587
G1 X197.404 Y76.422 E.12338
G1 X197.899 Y77.977 E.0486
G1 X197.814 Y78.974 E.02981
G1 X176.38 Y169.163 E2.76124
G1 X175.63 Y170.612 E.0486
G1 X174.865 Y171.257 E.02981
G1 X171.339 Y173.429 E.12338
G1 X168.983 Y173.88 E.07144
G1 X67.775 Y156.086 E3.06088
G1 X36.81 Y148.727 E.94802
G1 X35.361 Y147.977 E.0486
G1 X34.716 Y147.212 E.02981
G1 X32.543 Y143.685 E.12338
G1 X32.048 Y142.131 E.0486
G1 X32.133 Y141.133 E.02981
G1 X53.567 Y50.945 E2.76124
G1 X54.289 Y49.549 E.04681
G1 E-3.5 F3600
;WIPE_START
G1 F7200
G1 X55.081 Y48.85 E-.50187
G1 X56.736 Y47.831 E-.92313
;WIPE_END
G1 E-.075 F3600
G1 X57.755 Y51.71 F9000
G1 E5 F2400
G1 F1200
G1 X57.847 Y51.562 E.00519
G1 X58.427 Y51.092 E.02223
G1 X59.154 Y50.644 E.02544
G1 X60.474 Y50.212 E.04137
G1 X61.832 Y50.193 E.04045
G1 X89.76 Y56.83 E.85505
G1 X90.968 Y57.461 E.04059
G1 X91.957 Y58.456 E.0418
G1 X92.639 Y59.702 E.04231
G1 X92.919 Y61.086 E.04206
G1 X92.853 Y61.993 E.02709
G1 X90.553 Y71.668 E.29621
G1 X89.98 Y72.79 E.03751
G1 X89.368 Y73.517 E.02833
G1 X87.571 Y74.592 E.06237
G1 X86.605 Y74.803 E.02944
G1 X85.708 Y74.806 E.02673
G1 X81.464 Y73.821 E.12975
G1 X81.212 Y74.885 E.03257
G1 X85.498 Y75.93 E.13141
G1 X86.476 Y76.479 E.03339
G1 X87.189 Y77.132 E.02881
G1 X88.034 Y78.474 E.04725
G1 X88.364 Y79.679 E.03722
G1 X88.348 Y80.946 E.03774
G1 X85.929 Y91.126 E.31168
G1 X85.356 Y92.248 E.03751
G1 X84.744 Y92.975 E.02833
G1 X82.946 Y94.05 E.06237
G1 X81.981 Y94.261 E.02944
G1 X81.083 Y94.264 E.02673
G1 X76.84 Y93.28 E.12975
G1 X76.586 Y94.349 E.03273
G1 X80.999 Y95.444 E.13544
G1 X81.287 Y95.58 E.00949
G1 X82.348 Y96.35 E.03905
G1 X82.839 Y96.947 E.02303
G1 X83.343 Y97.797 E.02942
G1 X83.728 Y99.049 E.03903
G1 X83.737 Y100.35 E.03874
G1 X81.305 Y110.584 E.31334
G1 X80.731 Y111.706 E.03751
G1 X80.119 Y112.434 E.02833
G1 X78.322 Y113.508 E.06237
G1 X77.357 Y113.719 E.02944
G1 X76.459 Y113.722 E.02673
G1 X72.216 Y112.738 E.12975
G1 X71.962 Y113.804 E.03265
G1 X76.322 Y114.876 E.13372
G1 X77.466 Y115.582 E.04006
G1 X78.261 Y116.471 E.0355
G1 X78.891 Y117.657 E.04003
G1 X79.114 Y118.576 E.02816
G1 X79.143 Y119.497 E.02743
G1 X76.697 Y129.973 E.32044
G1 X76.245 Y130.963 E.03242
G1 X75.567 Y131.823 E.03262
G1 X73.705 Y132.963 E.06504
G1 X72.732 Y133.177 E.02966
G1 X71.835 Y133.18 E.02673
G1 X67.591 Y132.196 E.12975
G1 X67.339 Y133.258 E.03254
G1 X71.628 Y134.304 E.13149
G1 X72.517 Y134.792 E.03021
G1 X73.483 Y135.708 E.03964
G1 X74.158 Y136.842 E.03931
G1 X74.529 Y138.414 E.04814
G1 X74.47 Y139.345 E.02776
G1 X72.013 Y149.425 E.30906
G1 X71.372 Y150.462 E.03629
G1 X70.492 Y151.274 E.03567
G1 X69.293 Y151.922 E.04061
G1 X67.909 Y152.203 E.04207
G1 X67.002 Y152.136 E.02709
G1 X39.228 Y145.536 E.85032
G1 X37.983 Y144.904 E.04157
G1 X37.012 Y143.953 E.0405
G1 X36.3 Y142.661 E.04393
G1 X36.016 Y141.267 E.04237
G1 X36.083 Y140.359 E.02712
G1 X56.779 Y53.275 E2.66619
G1 X57.723 Y51.76 E.05316
G1 X58.034 Y51.954 F9000
G1 F1200
G1 X58.109 Y51.834 E.00421
G1 X58.635 Y51.407 E.0202
G1 X59.334 Y50.977 E.02442
G1 X60.51 Y50.588 E.03691
G1 X61.768 Y50.565 E.03748
G1 X89.649 Y57.192 E.85361
G1 X90.765 Y57.78 E.03759
G1 X91.669 Y58.7 E.03842
G1 X92.293 Y59.855 E.03911
G1 X92.544 Y61.133 E.03877
G1 X92.483 Y61.92 E.02352
G1 X90.192 Y71.558 E.29509
G1 X89.655 Y72.597 E.03482
G1 X89.102 Y73.249 E.02548
G1 X87.406 Y74.251 E.05867
G1 X86.583 Y74.426 E.02507
G1 X85.771 Y74.434 E.0242
G1 X81.184 Y73.369 E.14024
G1 X80.758 Y75.163 E.05491
G1 X85.382 Y76.29 E.14178
G1 X86.27 Y76.795 E.0304
G1 X86.915 Y77.391 E.02617
G1 X87.677 Y78.601 E.0426
G1 X87.994 Y79.753 E.03558
G1 X87.977 Y80.879 E.03353
G1 X85.568 Y91.016 E.31037
G1 X85.031 Y92.055 E.03482
G1 X84.477 Y92.707 E.02548
G1 X82.782 Y93.709 E.05867
G1 X81.959 Y93.884 E.02507
G1 X81.146 Y93.892 E.0242
G1 X76.56 Y92.827 E.14024
G1 X76.133 Y94.625 E.05503
G1 X80.859 Y95.795 E.14503
G1 X81.083 Y95.897 E.00734
G1 X82.073 Y96.61 E.03633
G1 X82.523 Y97.154 E.02104
G1 X82.99 Y97.932 E.02702
G1 X83.351 Y99.082 E.03591
G1 X83.365 Y100.285 E.03585
G1 X80.943 Y110.474 E.31195
G1 X80.407 Y111.513 E.03482
G1 X79.853 Y112.165 E.02548
G1 X78.157 Y113.167 E.05867
G1 X77.334 Y113.342 E.02507
G1 X76.522 Y113.35 E.0242
G1 X71.936 Y112.285 E.14024
G1 X71.509 Y114.081 E.05496
G1 X76.203 Y115.235 E.14398
G1 X77.205 Y115.854 E.03508
G1 X77.939 Y116.668 E.03265
G1 X78.547 Y117.813 E.03861
G1 X78.738 Y118.61 E.0244
G1 X78.77 Y119.436 E.02464
G1 X76.334 Y129.868 E.31909
G1 X75.912 Y130.784 E.03003
G1 X75.293 Y131.561 E.0296
G1 X73.537 Y132.624 E.06114
G1 X72.71 Y132.8 E.0252
G1 X71.898 Y132.808 E.0242
G1 X67.311 Y131.744 E.14024
G1 X66.885 Y133.536 E.05488
G1 X71.514 Y134.664 E.14192
G1 X72.277 Y135.083 E.02591
G1 X73.172 Y135.924 E.03659
G1 X73.819 Y137.01 E.03765
G1 X74.151 Y138.419 E.04314
G1 X74.099 Y139.272 E.02545
G1 X71.676 Y149.254 E.30597
G1 X71.095 Y150.204 E.03316
G1 X70.292 Y150.954 E.03275
G1 X69.139 Y151.577 E.03901
G1 X67.862 Y151.828 E.03877
G1 X67.075 Y151.766 E.02352
G1 X39.337 Y145.174 E.84922
G1 X38.182 Y144.582 E.03867
G1 X37.298 Y143.705 E.03709
G1 X36.645 Y142.507 E.04065
G1 X36.391 Y141.221 E.03906
G1 X36.453 Y140.433 E.02354
G1 X57.139 Y53.392 E2.66485
G1 X58.002 Y52.005 E.04866
G1 X58.314 Y52.199 F9000
G1 F1200
G1 X58.372 Y52.107 E.00325
G1 X58.844 Y51.721 E.01816
G1 X59.512 Y51.31 E.02337
G1 X60.599 Y50.955 E.03407
G1 X61.704 Y50.938 E.0329
G1 X89.538 Y57.553 E.85218
G1 X90.562 Y58.099 E.03457
G1 X91.351 Y58.905 E.0336
G1 X91.93 Y59.959 E.03582
G1 X92.166 Y61.131 E.03561
G1 X92.112 Y61.847 E.0214
G1 X89.831 Y71.448 E.29393
G1 X89.332 Y72.402 E.03208
G1 X88.837 Y72.979 E.02264
G1 X87.244 Y73.91 E.05496
G1 X86.56 Y74.05 E.02079
G1 X85.833 Y74.061 E.02165
G1 X80.904 Y72.917 E.15071
G1 X80.305 Y75.44 E.07725
G1 X85.266 Y76.65 E.15212
G1 X86.061 Y77.11 E.02736
G1 X86.64 Y77.65 E.02356
G1 X87.322 Y78.73 E.03806
G1 X87.616 Y79.777 E.03239
G1 X87.605 Y80.812 E.03085
G1 X85.206 Y90.906 E.30902
G1 X84.707 Y91.86 E.03208
G1 X84.212 Y92.437 E.02264
G1 X82.619 Y93.368 E.05496
G1 X81.935 Y93.508 E.02079
G1 X81.209 Y93.519 E.02165
G1 X76.28 Y92.375 E.15071
G1 X75.68 Y94.901 E.07734
G1 X80.751 Y96.156 E.15563
G1 X80.879 Y96.215 E.00419
G1 X81.799 Y96.87 E.03364
G1 X82.209 Y97.362 E.01907
G1 X82.638 Y98.069 E.02463
G1 X82.975 Y99.117 E.03278
G1 X82.992 Y100.222 E.03291
G1 X80.582 Y110.364 E.31052
G1 X80.083 Y111.318 E.03208
G1 X79.588 Y111.895 E.02264
G1 X77.995 Y112.826 E.05496
G1 X77.311 Y112.966 E.02079
G1 X76.584 Y112.977 E.02165
G1 X71.655 Y111.833 E.15071
G1 X71.056 Y114.358 E.07728
G1 X76.084 Y115.594 E.15424
G1 X76.944 Y116.128 E.03015
G1 X77.617 Y116.867 E.02978
G1 X78.202 Y117.968 E.03714
G1 X78.367 Y118.678 E.02171
G1 X78.397 Y119.376 E.02082
G1 X75.971 Y129.764 E.31775
G1 X75.603 Y130.567 E.02631
G1 X75.02 Y131.299 E.02788
G1 X73.372 Y132.283 E.05717
G1 X72.687 Y132.424 E.02085
G1 X71.96 Y132.435 E.02165
G1 X67.031 Y131.291 E.15071
G1 X66.432 Y133.813 E.07722
G1 X71.399 Y135.024 E.1523
G1 X72.071 Y135.4 E.02292
G1 X72.893 Y136.179 E.03372
G1 X73.479 Y137.176 E.03446
G1 X73.773 Y138.425 E.03823
G1 X73.729 Y139.2 E.02313
G1 X71.338 Y149.085 E.30292
G1 X70.817 Y149.948 E.03003
G1 X70.088 Y150.636 E.02985
G1 X69.036 Y151.213 E.03576
G1 X67.864 Y151.45 E.03561
G1 X67.147 Y151.396 E.0214
G1 X39.446 Y144.812 E.8481
G1 X38.425 Y144.292 E.03414
G1 X37.614 Y143.498 E.03381
G1 X37.009 Y142.403 E.03728
G1 X36.769 Y141.222 E.03588
G1 X36.823 Y140.505 E.02142
G1 X57.498 Y53.509 E2.66349
G1 X58.282 Y52.25 E.04417
G1 X58.594 Y52.444 F9000
G1 F1200
G1 X58.635 Y52.378 E.00231
G1 X59.053 Y52.035 E.0161
G1 X59.691 Y51.642 E.02233
G1 X60.636 Y51.331 E.02963
G1 X61.64 Y51.31 E.02992
G1 X89.428 Y57.914 E.85074
G1 X90.315 Y58.385 E.02992
G1 X91.035 Y59.112 E.03048
G1 X91.567 Y60.065 E.03251
G1 X91.788 Y61.131 E.03242
G1 X91.742 Y61.775 E.01925
G1 X89.469 Y71.337 E.29274
G1 X89.009 Y72.206 E.02929
G1 X88.573 Y72.708 E.01981
G1 X87.138 Y73.546 E.04951
G1 X86.502 Y73.677 E.01933
G1 X85.852 Y73.684 E.01937
G1 X80.624 Y72.465 E.1599
G1 X79.851 Y75.718 E.09961
G1 X85.15 Y77.01 E.16247
G1 X85.821 Y77.401 E.02314
G1 X86.336 Y77.875 E.02082
G1 X86.968 Y78.862 E.03491
G1 X87.239 Y79.803 E.02916
G1 X87.233 Y80.746 E.02811
G1 X84.845 Y90.795 E.30764
G1 X84.385 Y91.664 E.02929
G1 X83.948 Y92.166 E.01981
G1 X82.513 Y93.004 E.04951
G1 X81.878 Y93.135 E.01933
G1 X81.228 Y93.142 E.01937
G1 X76 Y91.923 E.15989
G1 X75.226 Y95.178 E.09965
G1 X80.675 Y96.533 E.16725
G1 X81.56 Y97.162 E.03234
G1 X81.895 Y97.571 E.01573
G1 X82.288 Y98.209 E.02233
G1 X82.598 Y99.154 E.02963
G1 X82.62 Y100.158 E.02992
G1 X80.221 Y110.253 E.30906
G1 X79.76 Y111.122 E.02929
G1 X79.324 Y111.624 E.01981
G1 X77.889 Y112.462 E.04951
G1 X77.253 Y112.593 E.01933
G1 X76.603 Y112.6 E.01937
G1 X71.376 Y111.381 E.15989
G1 X70.602 Y114.634 E.09962
G1 X75.963 Y115.952 E.16444
G1 X76.72 Y116.432 E.02668
G1 X77.295 Y117.064 E.02547
G1 X77.857 Y118.121 E.03565
G1 X77.995 Y118.744 E.01899
G1 X78.023 Y119.316 E.01708
G1 X75.609 Y129.659 E.31636
G1 X75.271 Y130.386 E.02388
G1 X74.748 Y131.036 E.02485
G1 X73.266 Y131.92 E.05141
G1 X72.629 Y132.051 E.01936
G1 X71.979 Y132.058 E.01937
G1 X66.751 Y130.839 E.15989
G1 X65.978 Y134.091 E.09957
G1 X71.284 Y135.384 E.16266
G1 X71.863 Y135.715 E.01988
G1 X72.613 Y136.432 E.03089
G1 X73.139 Y137.34 E.03127
G1 X73.395 Y138.432 E.03341
G1 X73.358 Y139.129 E.0208
G1 X70.999 Y148.918 E.2999
G1 X70.538 Y149.694 E.02691
G1 X69.883 Y150.319 E.02695
G1 X68.93 Y150.85 E.0325
G1 X67.864 Y151.072 E.03242
G1 X67.219 Y151.025 E.01925
G1 X39.555 Y144.451 E.84699
G1 X38.666 Y144.001 E.02967
G1 X37.929 Y143.288 E.03054
G1 X37.372 Y142.298 E.03383
G1 X37.144 Y141.174 E.03416
G1 X37.193 Y140.579 E.01778
G1 X57.858 Y53.626 E2.66218
G1 X58.562 Y52.495 E.03967
G1 X58.874 Y52.689 F9000
G1 F1200
G1 X58.899 Y52.649 E.0014
G1 X59.262 Y52.349 E.01403
G1 X59.87 Y51.975 E.02129
G1 X60.675 Y51.707 E.02525
G1 X61.578 Y51.683 E.0269
G1 X89.316 Y58.275 E.84924
G1 X90.111 Y58.703 E.0269
G1 X90.718 Y59.318 E.02573
G1 X91.223 Y60.222 E.03085
G1 X91.413 Y61.177 E.02901
G1 X91.372 Y61.702 E.01566
G1 X89.108 Y71.225 E.29157
G1 X88.688 Y72.007 E.02644
G1 X88.31 Y72.436 E.01701
G1 X87.032 Y73.183 E.04412
G1 X86.445 Y73.303 E.01784
G1 X85.873 Y73.307 E.01705
G1 X80.344 Y72.012 E.16913
G1 X79.397 Y75.996 E.12197
G1 X85.032 Y77.37 E.17276
G1 X85.611 Y77.715 E.02008
G1 X86.033 Y78.101 E.01704
G1 X86.615 Y78.996 E.0318
G1 X86.862 Y79.831 E.02592
G1 X86.861 Y80.681 E.02533
G1 X84.484 Y90.683 E.30623
G1 X84.064 Y91.465 E.02644
G1 X83.686 Y91.894 E.01701
G1 X82.407 Y92.641 E.04412
G1 X81.821 Y92.761 E.01784
G1 X81.248 Y92.765 E.01705
G1 X75.72 Y91.47 E.16913
G1 X74.773 Y95.454 E.12198
G1 X80.502 Y96.872 E.1758
G1 X81.286 Y97.422 E.02852
G1 X81.58 Y97.78 E.0138
G1 X81.955 Y98.388 E.02129
G1 X82.222 Y99.193 E.02525
G1 X82.247 Y100.096 E.0269
G1 X79.86 Y110.141 E.30756
G1 X79.439 Y110.923 E.02644
G1 X79.062 Y111.352 E.01701
G1 X77.783 Y112.099 E.04412
G1 X77.196 Y112.219 E.01784
G1 X76.624 Y112.223 E.01705
G1 X71.096 Y110.928 E.16913
G1 X70.149 Y114.911 E.12197
G1 X75.841 Y116.311 E.17461
G1 X76.493 Y116.734 E.02315
G1 X76.973 Y117.262 E.02125
G1 X77.511 Y118.274 E.03413
G1 X77.623 Y118.805 E.01616
G1 X77.646 Y119.307 E.01497
G1 X75.246 Y129.553 E.31346
G1 X74.94 Y130.204 E.02141
G1 X74.477 Y130.771 E.02182
G1 X73.159 Y131.557 E.04571
G1 X72.572 Y131.678 E.01785
G1 X72 Y131.681 E.01705
G1 X66.471 Y130.386 E.16913
G1 X65.525 Y134.369 E.12194
G1 X71.167 Y135.744 E.17297
G1 X71.653 Y136.029 E.0168
G1 X72.3 Y136.645 E.0266
G1 X72.799 Y137.505 E.02962
G1 X73.017 Y138.44 E.02861
G1 X72.987 Y139.059 E.01845
G1 X70.659 Y148.752 E.29693
G1 X70.256 Y149.442 E.02381
G1 X69.677 Y150.002 E.02398
G1 X68.772 Y150.506 E.03085
G1 X67.817 Y150.697 E.02901
G1 X67.293 Y150.655 E.01566
G1 X39.663 Y144.089 E.84593
G1 X38.905 Y143.708 E.02526
G1 X38.241 Y143.076 E.02729
G1 X37.735 Y142.19 E.0304
G1 X37.522 Y141.176 E.03087
G1 X37.563 Y140.652 E.01566
G1 X58.218 Y53.743 E2.66083
G1 X58.842 Y52.74 E.03517
G1 X59.154 Y52.935 F9000
G1 F1200
G1 X59.471 Y52.663 E.01243
G1 X60.05 Y52.307 E.02025
G1 X60.716 Y52.083 E.02092
G1 X61.516 Y52.056 E.02383
G1 X89.203 Y58.636 E.84769
G1 X89.905 Y59.02 E.02383
G1 X90.403 Y59.526 E.02114
G1 X90.86 Y60.329 E.02752
G1 X91.035 Y61.177 E.02578
G1 X91.001 Y61.629 E.01353
G1 X88.747 Y71.113 E.29035
G1 X88.368 Y71.806 E.02353
G1 X88.05 Y72.162 E.01423
G1 X86.924 Y72.821 E.03887
G1 X86.423 Y72.926 E.01523
G1 X85.893 Y72.929 E.01579
G1 X80.064 Y71.558 E.17835
G1 X78.944 Y76.273 E.14435
G1 X84.913 Y77.729 E.18302
G1 X85.399 Y78.026 E.01696
G1 X85.732 Y78.329 E.01342
G1 X86.261 Y79.131 E.02861
G1 X86.493 Y79.911 E.02423
G1 X86.489 Y80.615 E.02095
G1 X84.123 Y90.571 E.30482
G1 X83.744 Y91.264 E.02353
G1 X83.425 Y91.62 E.01423
G1 X82.299 Y92.279 E.03887
G1 X81.799 Y92.384 E.01523
G1 X81.269 Y92.387 E.01579
G1 X75.44 Y91.016 E.17835
G1 X74.32 Y95.731 E.14436
G1 X80.317 Y97.202 E.18392
G1 X81.013 Y97.684 E.02523
G1 X81.267 Y97.989 E.01183
G1 X81.623 Y98.568 E.02025
G1 X81.847 Y99.234 E.02092
G1 X81.874 Y100.034 E.02383
G1 X79.499 Y110.029 E.30602
G1 X79.12 Y110.722 E.02353
G1 X78.801 Y111.078 E.01423
G1 X77.675 Y111.737 E.03887
G1 X77.175 Y111.843 E.01523
G1 X76.644 Y111.846 E.01579
G1 X70.816 Y110.474 E.17835
G1 X69.695 Y115.189 E.14435
G1 X75.665 Y116.645 E.18305
G1 X76.234 Y117.009 E.02009
G1 X76.653 Y117.463 E.01842
G1 X77.148 Y118.379 E.031
G1 X77.251 Y118.867 E.01485
G1 X77.268 Y119.296 E.01279
G1 X74.884 Y129.447 E.31059
G1 X74.611 Y130.02 E.0189
G1 X74.208 Y130.506 E.0188
G1 X73.05 Y131.195 E.04014
G1 X72.55 Y131.301 E.01522
G1 X72.02 Y131.304 E.01579
G1 X66.191 Y129.932 E.17835
G1 X65.071 Y134.647 E.14435
G1 X71.003 Y136.084 E.1818
G1 X71.412 Y136.32 E.01408
G1 X71.99 Y136.861 E.02356
G1 X72.439 Y137.622 E.02634
G1 X72.64 Y138.451 E.02541
G1 X72.616 Y138.989 E.01604
G1 X70.32 Y148.586 E.29392
G1 X69.944 Y149.229 E.0222
G1 X69.47 Y149.686 E.0196
G1 X68.666 Y150.143 E.02755
G1 X67.818 Y150.319 E.02578
G1 X67.365 Y150.285 E.01353
G1 X39.771 Y143.727 E.84485
G1 X39.142 Y143.414 E.02093
G1 X38.552 Y142.861 E.02406
G1 X38.097 Y142.08 E.02695
G1 X37.9 Y141.176 E.02755
G1 X37.934 Y140.724 E.0135
G1 X58.578 Y53.86 E2.65946
G1 X59.122 Y52.985 E.03068
G1 X59.429 Y53.189 F9000
G1 F1200
G1 X59.681 Y52.977 E.00982
G1 X60.23 Y52.639 E.01921
G1 X60.76 Y52.458 E.01668
G1 X61.455 Y52.429 E.0207
G1 X89.09 Y58.997 E.84609
G1 X89.697 Y59.335 E.0207
G1 X90.09 Y59.736 E.01672
