; generated by PrusaSlicer 2.4.0+win64 on 2022-05-22 at 13:55:08 UTC

; 

; external perimeters extrusion width = 0.45mm
; perimeters extrusion width = 0.45mm
; infill extrusion width = 0.45mm
; solid infill extrusion width = 0.45mm
; top infill extrusion width = 0.45mm
; first layer extrusion width = 0.42mm

M201 X500 Y500 Z100 E5000 ; sets maximum accelerations, mm/sec^2
M203 X500 Y500 Z10 E60 ; sets maximum feedrates, mm/sec
M204 P500 R1000 T500 ; sets acceleration (P, T) and retract acceleration (R), mm/sec^2
M205 X8.00 Y8.00 Z0.40 E5.00 ; sets the jerk limits, mm/sec
M205 S0 T0 ; sets the minimum extruding and travel feed rate, mm/sec
M107
;TYPE:Custom
G90 ; use absolute coordinates
M83 ; extruder relative mode
M140 S80 ; set final bed temp
M104 S150 ; set temporary nozzle temp to prevent oozing during homing
G4 S10 ; allow partial nozzle warmup
G28 ; home all axis
G1 Z50 F240
G1 X2 Y10 F3000
M104 S235 ; set final nozzle temp
M190 S80 ; wait for bed temp to stabilize
M109 S235 ; wait for nozzle temp to stabilize
G1 Z0.28 F240
G92 E0
G1 Y140 E10 F1500 ; prime the nozzle
G1 X2.3 F5000
G92 E0
G1 Y10 E10 F1200 ; prime the nozzle
G92 E0
G21 ; set units to millimeters
G90 ; use absolute coordinates
M83 ; use relative distances for extrusion
; Filament gcode
M107
;LAYER_CHANGE
;Z:0.2
;HEIGHT:0.2
;BEFORE_LAYER_CHANGE
G92 E0
;0.2


G1 E-5 F3600
G1 Z.1 F9000
;AFTER_LAYER_CHANGE
;0.2
G1 X67.153 Y60.666
G1 E5 F2400
M204 S500
;TYPE:Skirt/Brim
;WIDTH:0.42
G1 F1200
G1 X67.745 Y60.011 E.0263
G1 X70.792 Y56.958 E.12848
G1 X72.19 Y56.117 E.0486
G1 X73.18 Y55.969 E.02981
G1 X146.822 Y55.969 E2.19355
G1 X148.405 Y56.363 E.0486
G1 X149.21 Y56.958 E.02981
G1 X152.257 Y60.011 E.12848
G1 X157.973 Y66.338 E.25399
G1 X158.392 Y66.914 E.0212
G1 X167.679 Y83.002 E.55335
G1 X167.968 Y83.652 E.02118
G1 X170.64 Y91.933 E.25918
G1 X171.712 Y95.934 E.12339
G1 X171.741 Y97.565 E.0486
G1 X171.375 Y98.497 E.02981
G1 X134.554 Y162.27 E2.19348
G1 X133.421 Y163.444 E.0486
G1 X132.503 Y163.843 E.0298
G1 X128.336 Y164.956 E.12849
G1 X119.997 Y166.741 E.25402
G1 X119.29 Y166.816 E.02117
G1 X100.71 Y166.816 E.55342
G1 X100.003 Y166.741 E.02118
G1 X91.499 Y164.916 E.25906
G1 X87.499 Y163.844 E.12337
G1 X86.072 Y163.053 E.0486
G1 X85.449 Y162.271 E.0298
G1 X48.628 Y98.497 E2.19348
G1 X48.177 Y96.929 E.0486
G1 X48.29 Y95.935 E.02979
G1 X49.41 Y91.77 E.12848
G1 X52.032 Y83.653 E.25409
G1 X52.321 Y83.002 E.02121
G1 X61.611 Y66.912 E.55342
G1 X62.03 Y66.337 E.02119
G1 X67.113 Y60.71 E.22586
G1 E-3.5 F3600
;WIPE_START
G1 F7200
G1 X67.745 Y60.011 E-.44788
G1 X69.198 Y58.555 E-.97712
;WIPE_END
G1 E-.075 F3600
G1 X70.903 Y62.44 F9000
G1 E5 F2400
G1 F1200
G1 X71.482 Y61.474 E.03354
G1 X72.269 Y60.67 E.03351
G1 X73.181 Y60.072 E.03248
G1 X74.733 Y59.632 E.04805
G1 X85.24 Y59.636 E.31296
G1 X86.374 Y59.883 E.03455
G1 X87.348 Y60.375 E.03252
G1 X88.317 Y61.239 E.03866
G1 X89.021 Y62.27 E.03721
G1 X89.425 Y63.556 E.04013
G1 X89.45 Y67.547 E.11891
G1 X90.551 Y67.547 E.03279
G1 X90.584 Y63.513 E.12018
G1 X90.89 Y62.469 E.03239
G1 X91.404 Y61.576 E.03071
G1 X92.312 Y60.635 E.03895
G1 X93.291 Y60.022 E.03438
G1 X94.629 Y59.646 E.04142
G1 X105.258 Y59.632 E.31659
G1 X106.482 Y59.931 E.03752
G1 X107.318 Y60.35 E.02786
G1 X108.709 Y61.728 E.05832
G1 X109.15 Y62.571 E.02835
G1 X109.416 Y63.499 E.02875
G1 X109.453 Y67.547 E.12059
G1 X110.554 Y67.547 E.03281
G1 X110.588 Y63.49 E.12087
G1 X110.98 Y62.272 E.03811
G1 X111.649 Y61.277 E.03571
G1 X112.571 Y60.433 E.03721
G1 X114.13 Y59.725 E.05101
G1 X114.853 Y59.632 E.02171
G1 X125.26 Y59.632 E.31
G1 X126.522 Y59.945 E.03873
G1 X127.367 Y60.384 E.02834
G1 X128.711 Y61.727 E.05662
G1 X129.139 Y62.539 E.02731
G1 X129.418 Y63.5 E.02981
G1 X129.455 Y67.547 E.12058
G1 X130.557 Y67.547 E.03284
G1 X130.609 Y63.362 E.12468
G1 X130.982 Y62.267 E.03447
G1 X131.564 Y61.376 E.0317
G1 X132.375 Y60.578 E.03388
G1 X133.405 Y59.971 E.03561
G1 X134.795 Y59.632 E.04264
G1 X145.157 Y59.632 E.30865
G1 X146.059 Y59.779 E.02722
G1 X147.436 Y60.437 E.04544
G1 X148.38 Y61.31 E.03831
G1 X149.04 Y62.309 E.03566
G1 X149.404 Y63.423 E.03492
G1 X149.446 Y67.553 E.12301
G1 X152.42 Y67.577 E.0886
G1 X153.854 Y68.003 E.04454
G1 X155.078 Y68.842 E.04421
G1 X155.701 Y69.587 E.02892
G1 X164.037 Y84.021 E.49649
G1 X164.46 Y85.578 E.04806
G1 X164.427 Y86.743 E.0347
G1 X164.153 Y87.761 E.03142
G1 X162.652 Y90.415 E.09082
G1 X165.987 Y92.358 E.11496
G1 X166.763 Y93.101 E.032
G1 X167.372 Y94.078 E.03428
G1 X167.791 Y95.567 E.04609
G1 X167.783 Y96.774 E.03594
G1 X167.421 Y98.017 E.03857
G1 X162.161 Y107.125 E.31328
G1 X161.291 Y108.034 E.0375
G1 X160.51 Y108.548 E.02785
G1 X158.622 Y109.065 E.05831
G1 X157.671 Y109.025 E.02835
G1 X156.735 Y108.791 E.02875
G1 X153.209 Y106.799 E.12063
G1 X152.657 Y107.754 E.03284
G1 X156.202 Y109.846 E.1226
G1 X157.202 Y111.049 E.04661
G1 X157.535 Y111.819 E.02497
G1 X157.781 Y112.823 E.03079
G1 X157.784 Y114.086 E.03764
G1 X157.439 Y115.292 E.03735
G1 X152.162 Y124.446 E.31474
G1 X151.292 Y125.356 E.03751
G1 X150.51 Y125.87 E.02786
G1 X148.621 Y126.387 E.05832
G1 X147.67 Y126.347 E.02835
G1 X146.734 Y126.113 E.02875
G1 X143.208 Y124.12 E.12064
G1 X142.662 Y125.065 E.03251
G1 X146.004 Y127.01 E.11518
G1 X146.794 Y127.781 E.03287
G1 X147.455 Y128.908 E.03891
G1 X147.791 Y130.187 E.03939
G1 X147.821 Y131.073 E.02639
G1 X147.674 Y131.989 E.02763
G1 X142.169 Y141.755 E.33395
G1 X141.224 Y142.731 E.04044
G1 X140.382 Y143.248 E.02945
G1 X138.47 Y143.714 E.05863
G1 X137.572 Y143.656 E.02679
G1 X136.683 Y143.412 E.02745
G1 X133.208 Y141.439 E.11903
G1 X132.659 Y142.39 E.03271
G1 X136.148 Y144.44 E.12052
G1 X136.847 Y145.171 E.03011
G1 X137.508 Y146.358 E.04049
G1 X137.79 Y147.488 E.03469
G1 X137.789 Y148.697 E.036
G1 X137.394 Y150.023 E.04121
G1 X132.161 Y159.086 E.31174
G1 X131.291 Y159.996 E.0375
G1 X130.51 Y160.51 E.02785
G1 X128.622 Y161.027 E.05831
G1 X127.671 Y160.987 E.02835
G1 X126.735 Y160.753 E.02875
G1 X123.197 Y158.754 E.12104
G1 X121.616 Y161.423 E.09238
G1 X120.868 Y162.157 E.03121
G1 X119.97 Y162.714 E.03147
G1 X118.67 Y163.108 E.04048
G1 X101.705 Y163.153 E.50532
G1 X100.455 Y162.891 E.03806
G1 X99.389 Y162.344 E.03567
G1 X98.309 Y161.325 E.04424
G1 X96.798 Y158.754 E.08882
G1 X93.326 Y160.73 E.11899
G1 X92.392 Y160.979 E.0288
G1 X90.924 Y160.97 E.04372
G1 X89.793 Y160.642 E.03509
G1 X88.747 Y160.031 E.03607
G1 X87.812 Y159.036 E.04067
G1 X82.608 Y150.023 E.31
G1 X82.206 Y148.65 E.04263
G1 X82.217 Y147.454 E.03561
G1 X82.502 Y146.354 E.03388
G1 X82.983 Y145.404 E.0317
G1 X83.745 Y144.533 E.03447
G1 X87.344 Y142.395 E.12469
G1 X86.792 Y141.44 E.03285
G1 X83.315 Y143.413 E.11908
G1 X82.331 Y143.666 E.03029
G1 X81.294 Y143.698 E.03088
G1 X79.272 Y143.076 E.06302
G1 X78.445 Y142.457 E.03077
G1 X77.803 Y141.704 E.02947
G1 X72.636 Y132.753 E.30786
G1 X72.356 Y132.08 E.0217
G1 X72.189 Y130.376 E.051
G1 X72.459 Y129.157 E.03721
G1 X72.986 Y128.08 E.03571
G1 X73.845 Y127.131 E.03811
G1 X77.342 Y125.072 E.12089
G1 X76.792 Y124.12 E.03275
G1 X73.269 Y126.113 E.12058
G1 X72.332 Y126.346 E.02875
G1 X71.381 Y126.387 E.02835
G1 X69.492 Y125.871 E.05832
G1 X68.711 Y125.357 E.02786
G1 X67.84 Y124.446 E.03752
G1 X62.521 Y115.196 E.31782
G1 X62.208 Y114.028 E.03603
G1 X62.218 Y112.824 E.03586
G1 X62.652 Y111.343 E.046
G1 X63.238 Y110.416 E.03265
G1 X63.978 Y109.702 E.03064
G1 X67.336 Y107.742 E.1158
G1 X66.792 Y106.8 E.03241
G1 X63.317 Y108.771 E.11901
G1 X62.333 Y109.024 E.03028
G1 X61.297 Y109.056 E.03087
G1 X59.275 Y108.435 E.063
G1 X58.448 Y107.815 E.03077
G1 X57.805 Y107.063 E.02947
G1 X52.609 Y98.066 E.30948
G1 X52.241 Y96.918 E.0359
G1 X52.194 Y95.683 E.03682
G1 X52.563 Y94.232 E.04459
G1 X53.072 Y93.318 E.03116
G1 X53.955 Y92.403 E.03787
G1 X57.344 Y90.424 E.11691
G1 X55.9 Y87.891 E.08686
G1 X55.539 Y86.45 E.04423
G1 X55.614 Y85.073 E.04109
G1 X55.936 Y84.095 E.03068
G1 X64.769 Y68.989 E.52123
G1 X65.424 Y68.434 E.02558
G1 X66.164 Y67.991 E.02569
G1 X67.419 Y67.6 E.03914
G1 X70.551 Y67.558 E.09331
G1 X70.59 Y63.468 E.12183
G1 X70.886 Y62.497 E.03024
G1 X71.245 Y62.609 F9000
G1 F1200
G1 X71.768 Y61.72 E.03072
G1 X72.493 Y60.973 E.03101
G1 X73.364 Y60.403 E.031
G1 X74.759 Y60.009 E.04319
G1 X85.22 Y60.013 E.3116
G1 X86.227 Y60.231 E.03069
G1 X87.116 Y60.674 E.02958
G1 X88.048 Y61.504 E.03719
G1 X88.693 Y62.459 E.03431
G1 X89.048 Y63.586 E.03521
G1 X89.076 Y67.925 E.12923
G1 X90.926 Y67.925 E.05512
G1 X90.953 Y63.594 E.12901
G1 X91.245 Y62.598 E.03091
G1 X91.718 Y61.787 E.02797
G1 X92.566 Y60.915 E.03622
G1 X93.466 Y60.357 E.03155
G1 X94.656 Y60.023 E.0368
G1 X105.235 Y60.009 E.31513
G1 X106.369 Y60.291 E.03481
G1 X107.12 Y60.672 E.02507
G1 X108.421 Y61.973 E.05481
G1 X108.793 Y62.695 E.0242
G1 X109.039 Y63.53 E.02591
G1 X109.079 Y67.925 E.13092
G1 X110.928 Y67.925 E.05508
G1 X110.965 Y63.522 E.13115
G1 X111.308 Y62.459 E.03327
G1 X111.921 Y61.539 E.03292
G1 X112.803 Y60.731 E.03563
G1 X114.207 Y60.095 E.04589
G1 X114.865 Y60.009 E.01978
G1 X125.237 Y60.009 E.30895
G1 X126.371 Y60.291 E.03481
G1 X127.122 Y60.672 E.02507
G1 X128.423 Y61.973 E.05481
G1 X128.795 Y62.695 E.0242
G1 X129.041 Y63.53 E.02591
G1 X129.081 Y67.925 E.13092
G1 X130.93 Y67.925 E.05506
G1 X130.986 Y63.398 E.13484
G1 X131.33 Y62.415 E.03104
G1 X131.867 Y61.601 E.02904
G1 X132.621 Y60.864 E.0314
G1 X133.57 Y60.311 E.03273
G1 X134.818 Y60.009 E.03822
G1 X145.142 Y60.009 E.30752
G1 X145.971 Y60.146 E.02505
G1 X147.202 Y60.734 E.04062
G1 X148.08 Y61.539 E.03548
G1 X148.691 Y62.453 E.03276
G1 X149.027 Y63.458 E.03154
G1 X149.073 Y67.927 E.13314
G1 X152.39 Y67.953 E.09881
G1 X153.715 Y68.355 E.04125
G1 X154.841 Y69.137 E.04082
G1 X155.4 Y69.814 E.02617
G1 X163.698 Y84.188 E.49437
G1 X164.088 Y85.648 E.04503
G1 X164.057 Y86.668 E.03038
G1 X163.813 Y87.598 E.02863
G1 X162.14 Y90.555 E.10119
G1 X165.744 Y92.647 E.12413
G1 X166.456 Y93.321 E.02919
G1 X167.037 Y94.254 E.03275
G1 X167.414 Y95.593 E.04143
G1 X167.413 Y96.696 E.03285
G1 X167.083 Y97.849 E.03572
G1 X161.846 Y106.916 E.31188
G1 X161.035 Y107.757 E.0348
G1 X160.33 Y108.216 E.02506
G1 X158.553 Y108.693 E.0548
G1 X157.742 Y108.654 E.02419
G1 X156.897 Y108.45 E.02591
G1 X153.069 Y106.287 E.13096
G1 X152.144 Y107.889 E.05509
G1 X155.982 Y110.154 E.13274
G1 X156.867 Y111.224 E.04138
G1 X157.173 Y111.926 E.0228
G1 X157.404 Y112.849 E.02835
G1 X157.414 Y114.009 E.03455
G1 X157.083 Y115.166 E.03584
G1 X151.847 Y124.237 E.31199
G1 X151.036 Y125.079 E.03481
G1 X150.33 Y125.538 E.02507
G1 X148.553 Y126.015 E.05481
G1 X147.742 Y125.976 E.0242
G1 X146.896 Y125.771 E.02591
G1 X143.068 Y123.608 E.13097
G1 X142.148 Y125.202 E.05484
G1 X145.795 Y127.324 E.12569
G1 X146.482 Y127.994 E.02857
G1 X147.116 Y129.075 E.03735
G1 X147.42 Y130.259 E.03641
G1 X147.443 Y131.065 E.02399
G1 X147.307 Y131.894 E.02505
G1 X141.852 Y141.549 E.3303
G1 X141.004 Y142.424 E.03631
G1 X140.262 Y142.889 E.02608
G1 X138.41 Y143.34 E.05679
G1 X137.619 Y143.281 E.02364
G1 X136.849 Y143.073 E.02377
G1 X133.069 Y140.926 E.12946
G1 X132.146 Y142.525 E.055
G1 X135.934 Y144.752 E.13088
G1 X136.53 Y145.376 E.02571
G1 X137.149 Y146.476 E.03759
G1 X137.413 Y147.514 E.03191
G1 X137.419 Y148.618 E.03288
G1 X137.056 Y149.854 E.03837
G1 X131.847 Y158.877 E.31036
G1 X131.036 Y159.719 E.0348
G1 X130.33 Y160.178 E.02506
G1 X128.554 Y160.655 E.0548
G1 X127.742 Y160.616 E.02419
G1 X126.897 Y160.412 E.02591
G1 X123.06 Y158.244 E.13125
G1 X121.305 Y161.208 E.10262
G1 X120.621 Y161.872 E.02839
G1 X119.837 Y162.36 E.0275
G1 X118.587 Y162.739 E.03891
G1 X101.724 Y162.775 E.50229
G1 X100.602 Y162.543 E.03413
G1 X99.626 Y162.05 E.03256
G1 X98.62 Y161.11 E.04101
G1 X96.935 Y158.243 E.09907
G1 X93.162 Y160.39 E.12931
G1 X92.321 Y160.608 E.02587
G1 X91.004 Y160.6 E.03924
G1 X89.921 Y160.287 E.03359
G1 X88.962 Y159.721 E.03315
G1 X88.128 Y158.829 E.03638
G1 X82.946 Y149.854 E.3087
G1 X82.583 Y148.623 E.03822
G1 X82.588 Y147.524 E.03273
G1 X82.849 Y146.503 E.03139
G1 X83.285 Y145.631 E.02904
G1 X83.964 Y144.841 E.03104
G1 X87.856 Y142.529 E.13484
G1 X86.932 Y140.927 E.05509
G1 X83.152 Y143.072 E.12945
G1 X82.258 Y143.296 E.02744
G1 X81.372 Y143.328 E.02641
G1 X79.47 Y142.754 E.05919
G1 X78.717 Y142.195 E.02793
G1 X78.12 Y141.5 E.02727
G1 X72.969 Y132.575 E.30696
G1 X72.715 Y131.962 E.01978
G1 X72.564 Y130.428 E.04589
G1 X72.823 Y129.261 E.03563
G1 X73.312 Y128.27 E.03291
G1 X74.061 Y127.441 E.03326
G1 X77.856 Y125.208 E.13117
G1 X76.932 Y123.608 E.05502
G1 X73.106 Y125.771 E.13091
G1 X72.261 Y125.976 E.02591
G1 X71.449 Y126.015 E.0242
G1 X69.672 Y125.538 E.05481
G1 X68.967 Y125.079 E.02507
G1 X68.155 Y124.237 E.03482
G1 X62.879 Y115.075 E.31494
G1 X62.579 Y113.956 E.0345
G1 X62.594 Y112.856 E.03278
G1 X62.985 Y111.522 E.0414
G1 X63.544 Y110.638 E.03116
G1 X64.222 Y109.99 E.02793
G1 X67.851 Y107.879 E.12504
G1 X66.932 Y106.287 E.05476
G1 X63.154 Y108.43 E.12938
G1 X62.26 Y108.654 E.02743
G1 X61.375 Y108.686 E.0264
G1 X59.472 Y108.112 E.05918
G1 X58.72 Y107.553 E.02792
G1 X58.123 Y106.859 E.02726
G1 X52.946 Y97.895 E.30833
G1 X52.609 Y96.83 E.03329
G1 X52.572 Y95.699 E.03371
G1 X52.922 Y94.352 E.04145
G1 X53.389 Y93.525 E.02829
G1 X54.167 Y92.716 E.03345
G1 X57.857 Y90.562 E.12724
G1 X56.241 Y87.727 E.09718
G1 X55.912 Y86.389 E.04105
G1 X55.988 Y85.122 E.03782
G1 X56.287 Y84.233 E.02791
G1 X65.037 Y69.256 E.51669
G1 X65.656 Y68.732 E.02415
G1 X66.337 Y68.327 E.02361
G1 X67.503 Y67.969 E.03632
G1 X70.925 Y67.931 E.10193
G1 X70.967 Y63.5 E.132
G1 X71.227 Y62.667 E.02601
G1 X71.585 Y62.782 F9000
G1 F1200
G1 X71.608 Y62.711 E.00222
G1 X72.054 Y61.967 E.02581
G1 X72.749 Y61.252 E.02972
G1 X73.545 Y60.735 E.02826
G1 X74.785 Y60.386 E.03837
G1 X85.2 Y60.39 E.31023
G1 X86.083 Y60.58 E.02689
G1 X86.885 Y60.973 E.02661
G1 X87.779 Y61.77 E.03568
G1 X88.365 Y62.645 E.03139
G1 X88.671 Y63.617 E.03034
G1 X88.701 Y68.302 E.13955
G1 X91.301 Y68.302 E.07745
G1 X91.33 Y63.624 E.13934
G1 X91.599 Y62.729 E.02782
G1 X92.031 Y61.999 E.02527
G1 X92.818 Y61.196 E.0335
G1 X93.64 Y60.693 E.02869
G1 X94.731 Y60.393 E.0337
G1 X105.211 Y60.386 E.31219
G1 X106.255 Y60.651 E.03207
G1 X106.921 Y60.994 E.0223
G1 X108.1 Y62.173 E.04968
G1 X108.437 Y62.819 E.02171
G1 X108.67 Y63.611 E.02457
G1 X108.704 Y68.302 E.13974
G1 X111.302 Y68.302 E.07738
G1 X111.341 Y63.554 E.14143
G1 X111.637 Y62.645 E.02846
G1 X112.193 Y61.801 E.0301
G1 X113.036 Y61.03 E.03403
G1 X114.284 Y60.465 E.0408
G1 X114.878 Y60.386 E.01785
G1 X125.213 Y60.386 E.30786
G1 X126.257 Y60.651 E.03207
G1 X126.923 Y60.994 E.0223
G1 X128.102 Y62.173 E.04968
G1 X128.439 Y62.819 E.02171
G1 X128.672 Y63.611 E.02457
G1 X128.706 Y68.302 E.13974
G1 X131.302 Y68.302 E.07732
G1 X131.362 Y63.435 E.14496
G1 X131.676 Y62.565 E.02755
G1 X132.169 Y61.828 E.02642
G1 X132.866 Y61.152 E.02893
G1 X133.734 Y60.651 E.02985
G1 X134.84 Y60.386 E.03386
G1 X145.127 Y60.386 E.30643
G1 X145.836 Y60.499 E.02138
G1 X146.969 Y61.032 E.03728
G1 X147.809 Y61.802 E.03394
G1 X148.343 Y62.6 E.02861
G1 X148.65 Y63.493 E.02813
G1 X148.699 Y68.303 E.14328
G1 X152.309 Y68.323 E.10753
G1 X153.527 Y68.683 E.03783
G1 X154.568 Y69.398 E.03761
G1 X155.081 Y70.017 E.02395
G1 X163.358 Y84.354 E.49312
G1 X163.716 Y85.717 E.04197
G1 X163.687 Y86.594 E.02616
G1 X163.472 Y87.434 E.02582
G1 X161.629 Y90.694 E.11153
G1 X165.536 Y92.962 E.13459
G1 X166.151 Y93.543 E.02517
G1 X166.683 Y94.385 E.02968
G1 X167.037 Y95.622 E.03834
G1 X167.043 Y96.62 E.02973
G1 X166.744 Y97.681 E.03282
G1 X161.532 Y106.706 E.31045
G1 X160.781 Y107.478 E.03206
G1 X160.151 Y107.883 E.0223
G1 X158.541 Y108.315 E.04967
G1 X157.813 Y108.283 E.0217
G1 X157.011 Y108.089 E.02456
G1 X152.929 Y105.774 E.13978
G1 X151.631 Y108.024 E.07737
G1 X155.761 Y110.462 E.14288
G1 X156.533 Y111.4 E.03617
G1 X156.812 Y112.035 E.02067
G1 X157.028 Y112.878 E.02593
G1 X157.044 Y113.935 E.03146
G1 X156.745 Y114.998 E.03291
G1 X151.532 Y124.028 E.31056
G1 X150.781 Y124.8 E.03207
G1 X150.151 Y125.205 E.0223
G1 X148.54 Y125.637 E.04968
G1 X147.812 Y125.605 E.02171
G1 X147.011 Y125.411 E.02457
G1 X142.929 Y123.095 E.13979
G1 X141.633 Y125.339 E.07719
G1 X145.585 Y127.639 E.1362
G1 X146.171 Y128.208 E.02432
G1 X146.757 Y129.196 E.03422
