; generated by PrusaSlicer 2.4.0+win64 on 2022-05-22 at 13:55:52 UTC

; 

; external perimeters extrusion width = 0.45mm
; perimeters extrusion width = 0.45mm
; infill extrusion width = 0.45mm
; solid infill extrusion width = 0.45mm
; top infill extrusion width = 0.45mm
; first layer extrusion width = 0.42mm

M201 X500 Y500 Z100 E5000 ; sets maximum accelerations, mm/sec^2
M203 X500 Y500 Z10 E60 ; sets maximum feedrates, mm/sec
M204 P500 R1000 T500 ; sets acceleration (P, T) and retract acceleration (R), mm/sec^2
M205 X8.00 Y8.00 Z0.40 E5.00 ; sets the jerk limits, mm/sec
M205 S0 T0 ; sets the minimum extruding and travel feed rate, mm/sec
M107
;TYPE:Custom
G90 ; use absolute coordinates
M83 ; extruder relative mode
M140 S80 ; set final bed temp
M104 S150 ; set temporary nozzle temp to prevent oozing during homing
G4 S10 ; allow partial nozzle warmup
G28 ; home all axis
G1 Z50 F240
G1 X2 Y10 F3000
M104 S235 ; set final nozzle temp
M190 S80 ; wait for bed temp to stabilize
M109 S235 ; wait for nozzle temp to stabilize
G1 Z0.28 F240
G92 E0
G1 Y140 E10 F1500 ; prime the nozzle
G1 X2.3 F5000
G92 E0
G1 Y10 E10 F1200 ; prime the nozzle
G92 E0
G21 ; set units to millimeters
G90 ; use absolute coordinates
M83 ; use relative distances for extrusion
; Filament gcode
M107
;LAYER_CHANGE
;Z:0.2
;HEIGHT:0.2
;BEFORE_LAYER_CHANGE
G92 E0
;0.2


G1 E-5 F3600
G1 Z.1 F9000
;AFTER_LAYER_CHANGE
;0.2
G1 X58.333 Y46.821
G1 E5 F2400
M204 S500
;TYPE:Skirt/Brim
;WIDTH:0.42
G1 F1200
G1 X61.262 Y43.892 E.12338
G1 X62.66 Y43.051 E.0486
G1 X63.65 Y42.903 E.02981
G1 X156.35 Y42.903 E2.76124
G1 X157.933 Y43.297 E.0486
G1 X158.738 Y43.892 E.02981
G1 X161.667 Y46.821 E.12338
G1 X162.508 Y48.219 E.0486
G1 X162.656 Y49.209 E.02981
G1 X162.656 Y183.416 E3.99757
G1 X162.262 Y184.999 E.0486
G1 X161.667 Y185.804 E.02981
G1 X158.738 Y188.733 E.12338
G1 X157.34 Y189.574 E.0486
G1 X156.35 Y189.722 E.02981
G1 X63.65 Y189.722 E2.76124
G1 X62.067 Y189.328 E.0486
G1 X61.262 Y188.733 E.02981
G1 X58.333 Y185.804 E.12338
G1 X57.492 Y184.406 E.0486
G1 X57.344 Y183.416 E.02981
G1 X57.344 Y49.209 E3.99757
G1 X57.738 Y47.626 E.0486
G1 X58.297 Y46.869 E.02803
G1 E-3.5 F3600
;WIPE_START
G1 F7200
G1 X60.414 Y44.743 E-1.425
;WIPE_END
G1 E-.075 F3600
G1 X65.291 Y148.946 F9000
G1 E5 F2400
G1 F1200
G1 X154.766 Y148.95 E2.66514
G1 X155.714 Y149.134 E.02878
G1 X156.622 Y149.525 E.02946
G1 X157.841 Y150.548 E.04741
G1 X158.632 Y151.765 E.04324
G1 X158.993 Y153.148 E.04257
G1 X158.993 Y181.855 E.85508
G1 X158.683 Y183.117 E.03872
G1 X158.036 Y184.227 E.03825
G1 X157.067 Y185.18 E.0405
G1 X155.882 Y185.814 E.04004
G1 X154.709 Y186.059 E.03567
G1 X144.74 Y186.059 E.29694
G1 X143.517 Y185.76 E.0375
G1 X142.682 Y185.341 E.02784
G1 X141.256 Y183.917 E.06002
G1 X140.849 Y183.12 E.02666
G1 X140.591 Y182.242 E.02725
G1 X140.545 Y177.717 E.13478
G1 X139.45 Y177.717 E.03261
G1 X139.425 Y182.126 E.13131
G1 X139.111 Y183.222 E.03396
G1 X138.597 Y184.115 E.03069
G1 X137.689 Y185.056 E.03895
G1 X136.71 Y185.668 E.0344
G1 X135.27 Y186.059 E.04442
G1 X124.74 Y186.059 E.31365
G1 X123.517 Y185.76 E.0375
G1 X122.682 Y185.341 E.02784
G1 X121.256 Y183.917 E.06002
G1 X120.849 Y183.12 E.02666
G1 X120.591 Y182.242 E.02725
G1 X120.545 Y177.717 E.13478
G1 X119.45 Y177.717 E.03261
G1 X119.425 Y182.126 E.13131
G1 X119.111 Y183.222 E.03396
G1 X118.597 Y184.115 E.03069
G1 X117.689 Y185.056 E.03895
G1 X116.71 Y185.668 E.0344
G1 X115.27 Y186.059 E.04442
G1 X104.74 Y186.059 E.31365
G1 X103.517 Y185.76 E.0375
G1 X102.682 Y185.341 E.02784
G1 X101.256 Y183.917 E.06002
G1 X100.849 Y183.12 E.02666
G1 X100.591 Y182.242 E.02725
G1 X100.545 Y177.717 E.13478
G1 X99.448 Y177.717 E.03269
G1 X99.413 Y182.201 E.13354
G1 X99.02 Y183.421 E.03819
G1 X98.352 Y184.414 E.03565
G1 X97.48 Y185.223 E.03544
G1 X96.577 Y185.725 E.03078
G1 X95.482 Y186.026 E.0338
G1 X84.747 Y186.059 E.31977
G1 X83.518 Y185.76 E.03767
G1 X82.682 Y185.341 E.02787
G1 X81.256 Y183.917 E.06002
G1 X80.849 Y183.12 E.02666
G1 X80.591 Y182.242 E.02725
G1 X80.545 Y177.717 E.13478
G1 X79.452 Y177.717 E.03258
G1 X79.419 Y182.171 E.13265
G1 X79.035 Y183.388 E.03803
G1 X78.37 Y184.394 E.03591
G1 X77.487 Y185.216 E.03594
G1 X76.097 Y185.902 E.04617
G1 X75.181 Y186.059 E.02768
G1 X64.876 Y186.011 E.30694
G1 X63.707 Y185.644 E.03649
G1 X62.674 Y184.967 E.03681
G1 X61.819 Y184.039 E.03758
G1 X61.251 Y182.945 E.03672
G1 X61.007 Y181.775 E.03559
G1 X61.007 Y153.15 E.85265
G1 X61.317 Y151.887 E.03872
G1 X61.964 Y150.778 E.03825
G1 X62.933 Y149.825 E.0405
G1 X64.118 Y149.191 E.04004
G1 X65.232 Y148.958 E.03389
G1 X65.307 Y149.324 F9000
G1 F1200
G1 X154.747 Y149.327 E2.6641
G1 X155.62 Y149.5 E.02652
G1 X156.446 Y149.859 E.02682
G1 X157.576 Y150.818 E.04415
G1 X158.275 Y151.892 E.03817
G1 X158.616 Y153.173 E.0395
G1 X158.616 Y181.831 E.85363
G1 X158.324 Y182.999 E.03583
G1 X157.725 Y184.012 E.03508
G1 X156.824 Y184.89 E.03747
G1 X155.73 Y185.468 E.03685
G1 X154.69 Y185.681 E.03161
G1 X144.764 Y185.681 E.29568
G1 X143.63 Y185.4 E.03481
G1 X142.879 Y185.018 E.02507
G1 X141.578 Y183.718 E.05481
G1 X141.206 Y182.996 E.0242
G1 X140.96 Y182.161 E.02592
G1 X140.92 Y177.34 E.1436
G1 X139.076 Y177.34 E.05493
G1 X139.048 Y182.097 E.14167
G1 X138.756 Y183.093 E.03092
G1 X138.283 Y183.904 E.02797
G1 X137.435 Y184.776 E.03622
G1 X136.535 Y185.333 E.03153
G1 X135.245 Y185.681 E.03979
G1 X124.764 Y185.681 E.31221
G1 X123.63 Y185.4 E.03481
G1 X122.879 Y185.018 E.02507
G1 X121.578 Y183.718 E.05481
G1 X121.206 Y182.996 E.0242
G1 X120.96 Y182.161 E.02592
G1 X120.92 Y177.34 E.1436
G1 X119.076 Y177.34 E.05493
G1 X119.048 Y182.097 E.14167
G1 X118.756 Y183.093 E.03092
G1 X118.283 Y183.904 E.02797
G1 X117.435 Y184.776 E.03622
G1 X116.535 Y185.333 E.03153
G1 X115.245 Y185.681 E.03979
G1 X104.764 Y185.681 E.31221
G1 X103.63 Y185.4 E.03481
G1 X102.879 Y185.018 E.02507
G1 X101.578 Y183.718 E.05481
G1 X101.206 Y182.996 E.0242
G1 X100.96 Y182.161 E.02592
G1 X100.92 Y177.34 E.1436
G1 X99.074 Y177.34 E.05498
G1 X99.036 Y182.169 E.14382
G1 X98.692 Y183.233 E.03333
G1 X98.079 Y184.153 E.03292
G1 X97.24 Y184.932 E.03409
G1 X96.453 Y185.369 E.02682
G1 X95.455 Y185.649 E.03088
G1 X84.77 Y185.682 E.31829
G1 X83.631 Y185.4 E.03495
G1 X82.879 Y185.019 E.02509
G1 X81.578 Y183.718 E.05481
G1 X81.206 Y182.996 E.0242
G1 X80.96 Y182.161 E.02592
G1 X80.92 Y177.34 E.1436
G1 X79.077 Y177.34 E.05488
G1 X79.042 Y182.14 E.14296
G1 X78.706 Y183.204 E.03324
G1 X78.096 Y184.134 E.03312
G1 X77.25 Y184.922 E.03443
G1 X76.005 Y185.535 E.04135
G1 X75.165 Y185.682 E.0254
G1 X64.962 Y185.643 E.30392
G1 X63.845 Y185.292 E.03486
G1 X62.934 Y184.693 E.0325
G1 X62.141 Y183.842 E.03464
G1 X61.597 Y182.795 E.03516
G1 X61.384 Y181.756 E.03158
G1 X61.384 Y153.173 E.85139
G1 X61.676 Y152.006 E.03583
G1 X62.275 Y150.992 E.03508
G1 X63.176 Y150.114 E.03747
G1 X64.27 Y149.537 E.03685
G1 X65.248 Y149.336 E.02975
G1 X65.322 Y149.702 F9000
G1 F1200
G1 X154.728 Y149.704 E2.66308
G1 X155.525 Y149.865 E.02423
G1 X156.267 Y150.192 E.02418
G1 X157.309 Y151.085 E.04087
G1 X157.942 Y152.07 E.03486
G1 X158.239 Y153.197 E.03473
G1 X158.239 Y181.807 E.8522
G1 X157.966 Y182.878 E.0329
G1 X157.415 Y183.796 E.0319
G1 X156.582 Y184.599 E.03446
G1 X155.58 Y185.121 E.03365
G1 X154.672 Y185.304 E.0276
G1 X144.788 Y185.304 E.29442
G1 X143.744 Y185.04 E.03207
G1 X143.078 Y184.697 E.0223
G1 X141.899 Y183.518 E.04968
G1 X141.562 Y182.871 E.02171
G1 X141.329 Y182.08 E.02457
G1 X141.294 Y176.963 E.15242
G1 X138.701 Y176.963 E.07726
G1 X138.671 Y182.067 E.15202
G1 X138.402 Y182.961 E.02783
G1 X137.97 Y183.692 E.02527
G1 X137.183 Y184.495 E.0335
G1 X136.362 Y184.997 E.02868
G1 X135.221 Y185.304 E.0352
G1 X124.788 Y185.304 E.31077
G1 X123.744 Y185.04 E.03207
G1 X123.078 Y184.697 E.0223
G1 X121.899 Y183.518 E.04968
G1 X121.562 Y182.871 E.02171
G1 X121.329 Y182.08 E.02457
G1 X121.294 Y176.963 E.15242
G1 X118.701 Y176.963 E.07726
G1 X118.671 Y182.067 E.15202
G1 X118.402 Y182.961 E.02783
G1 X117.97 Y183.692 E.02527
G1 X117.183 Y184.495 E.0335
G1 X116.362 Y184.997 E.02868
G1 X115.221 Y185.304 E.0352
G1 X104.788 Y185.304 E.31077
G1 X103.744 Y185.04 E.03207
G1 X103.078 Y184.697 E.0223
G1 X101.899 Y183.518 E.04968
G1 X101.562 Y182.871 E.02171
G1 X101.329 Y182.08 E.02457
G1 X101.294 Y176.963 E.15242
G1 X98.7 Y176.963 E.07729
G1 X98.66 Y182.137 E.1541
G1 X98.363 Y183.047 E.02852
G1 X97.805 Y183.892 E.03016
G1 X97 Y184.64 E.03272
G1 X96.328 Y185.012 E.0229
G1 X95.427 Y185.272 E.02792
G1 X84.793 Y185.305 E.31677
G1 X83.745 Y185.04 E.03219
G1 X83.078 Y184.697 E.02232
G1 X81.899 Y183.518 E.04968
G1 X81.562 Y182.871 E.02171
G1 X81.329 Y182.08 E.02457
G1 X81.294 Y176.963 E.15242
G1 X78.703 Y176.963 E.07719
G1 X78.665 Y182.107 E.15323
G1 X78.355 Y183.063 E.02992
G1 X77.823 Y183.873 E.02889
G1 X77.014 Y184.627 E.03294
G1 X75.913 Y185.168 E.03655
G1 X75.149 Y185.304 E.02311
G1 X65.045 Y185.274 E.30095
G1 X64.028 Y184.962 E.03171
G1 X63.194 Y184.419 E.02965
G1 X62.435 Y183.605 E.03314
G1 X61.945 Y182.647 E.03206
G1 X61.761 Y181.738 E.02762
G1 X61.761 Y153.197 E.85012
G1 X62.034 Y152.127 E.0329
G1 X62.585 Y151.209 E.0319
G1 X63.418 Y150.405 E.03446
G1 X64.42 Y149.884 E.03365
G1 X65.264 Y149.713 E.02564
G1 X65.336 Y150.079 F9000
G1 F1200
G1 X154.708 Y150.081 E2.66208
G1 X155.428 Y150.23 E.02189
G1 X156.087 Y150.525 E.02153
G1 X157.042 Y151.352 E.03762
G1 X157.586 Y152.196 E.02992
G1 X157.862 Y153.223 E.03165
G1 X157.862 Y181.783 E.85072
G1 X157.609 Y182.755 E.02992
G1 X157.107 Y183.578 E.0287
G1 X156.343 Y184.307 E.03146
G1 X155.433 Y184.773 E.03045
G1 X154.654 Y184.927 E.02365
G1 X144.812 Y184.927 E.29315
G1 X143.861 Y184.68 E.02928
G1 X143.279 Y184.376 E.01955
G1 X142.219 Y183.317 E.04465
G1 X141.918 Y182.747 E.01919
G1 X141.699 Y181.999 E.0232
G1 X141.67 Y176.586 E.16124
G1 X138.326 Y176.586 E.0996
G1 X138.294 Y182.037 E.16236
G1 X138.065 Y182.791 E.02347
G1 X137.683 Y183.446 E.02259
G1 X136.963 Y184.187 E.03078
G1 X136.234 Y184.641 E.02558
G1 X135.195 Y184.927 E.03211
G1 X124.812 Y184.927 E.30927
G1 X123.861 Y184.68 E.02928
G1 X123.279 Y184.376 E.01955
G1 X122.219 Y183.317 E.04465
G1 X121.918 Y182.747 E.01919
G1 X121.699 Y181.999 E.0232
G1 X121.67 Y176.586 E.16124
G1 X118.326 Y176.586 E.0996
G1 X118.294 Y182.037 E.16236
G1 X118.065 Y182.791 E.02347
G1 X117.683 Y183.446 E.02259
G1 X116.963 Y184.187 E.03078
G1 X116.234 Y184.641 E.02558
G1 X115.195 Y184.927 E.03211
G1 X104.812 Y184.927 E.30927
G1 X103.861 Y184.68 E.02928
G1 X103.279 Y184.376 E.01955
G1 X102.219 Y183.317 E.04465
G1 X101.918 Y182.747 E.01919
G1 X101.699 Y181.999 E.0232
G1 X101.67 Y176.586 E.16124
G1 X98.325 Y176.586 E.09961
G1 X98.283 Y182.103 E.16433
G1 X98.014 Y182.903 E.02514
G1 X97.532 Y183.631 E.02601
G1 X96.761 Y184.348 E.03137
G1 X96.2 Y184.657 E.01906
G1 X95.398 Y184.895 E.02492
G1 X84.816 Y184.928 E.31521
G1 X83.861 Y184.681 E.02939
G1 X83.279 Y184.377 E.01956
G1 X82.219 Y183.317 E.04465
G1 X81.918 Y182.747 E.01919
G1 X81.699 Y181.999 E.0232
G1 X81.67 Y176.586 E.16124
G1 X78.329 Y176.586 E.09952
G1 X78.288 Y182.074 E.16346
G1 X78.006 Y182.919 E.02654
G1 X77.549 Y183.612 E.02473
G1 X76.777 Y184.332 E.03144
G1 X75.819 Y184.802 E.03178
G1 X75.132 Y184.927 E.0208
G1 X65.127 Y184.905 E.29802
G1 X64.209 Y184.63 E.02856
G1 X63.451 Y184.143 E.02682
G1 X62.759 Y183.409 E.03007
G1 X62.293 Y182.498 E.03045
G1 X62.138 Y181.72 E.02365
G1 X62.138 Y153.222 E.84885
G1 X62.391 Y152.25 E.02992
G1 X62.893 Y151.427 E.0287
G1 X63.657 Y150.698 E.03146
G1 X64.567 Y150.232 E.03045
G1 X65.277 Y150.091 E.02155
G1 X65.351 Y150.457 F9000
G1 F1200
G1 X154.689 Y150.458 E2.66106
G1 X155.293 Y150.582 E.01836
G1 X155.907 Y150.857 E.02005
G1 X156.772 Y151.617 E.03428
G1 X157.251 Y152.373 E.02669
G1 X157.484 Y153.247 E.02693
G1 X157.484 Y181.758 E.84924
G1 X157.252 Y182.631 E.02692
G1 X156.827 Y183.324 E.02421
G1 X156.143 Y183.986 E.02835
G1 X155.331 Y184.409 E.02728
G1 X154.634 Y184.55 E.02116
G1 X144.837 Y184.55 E.29182
G1 X143.979 Y184.322 E.02644
G1 X143.481 Y184.057 E.01681
G1 X142.538 Y183.114 E.03973
G1 X142.275 Y182.621 E.01664
G1 X142.068 Y181.918 E.02182
G1 X142.046 Y176.209 E.17006
G1 X137.951 Y176.209 E.12197
G1 X137.917 Y182.005 E.17266
G1 X137.712 Y182.657 E.02035
G1 X137.396 Y183.202 E.01876
G1 X136.741 Y183.882 E.02813
G1 X136.104 Y184.287 E.02247
G1 X135.168 Y184.55 E.02896
G1 X124.837 Y184.55 E.30773
G1 X123.979 Y184.322 E.02644
G1 X123.481 Y184.057 E.01681
G1 X122.538 Y183.114 E.03973
G1 X122.275 Y182.621 E.01664
G1 X122.068 Y181.918 E.02182
G1 X122.046 Y176.209 E.17006
G1 X117.951 Y176.209 E.12197
G1 X117.917 Y182.005 E.17266
G1 X117.712 Y182.657 E.02035
G1 X117.396 Y183.202 E.01876
G1 X116.741 Y183.882 E.02813
G1 X116.104 Y184.287 E.02247
G1 X115.168 Y184.55 E.02896
G1 X104.837 Y184.55 E.30773
G1 X103.979 Y184.322 E.02644
G1 X103.481 Y184.057 E.01681
G1 X102.538 Y183.114 E.03973
G1 X102.275 Y182.621 E.01664
G1 X102.068 Y181.918 E.02182
G1 X102.046 Y176.209 E.17006
G1 X97.951 Y176.209 E.12196
G1 X97.906 Y182.068 E.17452
G1 X97.667 Y182.756 E.02169
G1 X97.259 Y183.37 E.02195
G1 X96.521 Y184.055 E.03
G1 X96.071 Y184.303 E.0153
G1 X95.368 Y184.518 E.02189
G1 X84.84 Y184.55 E.3136
G1 X83.98 Y184.322 E.02652
G1 X83.481 Y184.057 E.01682
G1 X82.538 Y183.114 E.03973
G1 X82.275 Y182.621 E.01664
G1 X82.068 Y181.918 E.02182
G1 X82.046 Y176.209 E.17006
G1 X77.953 Y176.209 E.1219
G1 X77.921 Y181.985 E.17206
G1 X77.676 Y182.735 E.0235
G1 X77.273 Y183.355 E.02201
G1 X76.582 Y184.008 E.02831
G1 X75.723 Y184.437 E.02861
G1 X75.115 Y184.55 E.01844
G1 X65.206 Y184.536 E.29513
G1 X64.387 Y184.297 E.02542
G1 X63.707 Y183.865 E.024
G1 X63.08 Y183.21 E.02701
G1 X62.657 Y182.397 E.0273
G1 X62.516 Y181.7 E.02116
G1 X62.516 Y153.247 E.84753
G1 X62.748 Y152.374 E.02692
G1 X63.173 Y151.681 E.02421
G1 X63.857 Y151.019 E.02835
G1 X64.669 Y150.596 E.02728
G1 X65.293 Y150.469 E.01895
G1 X65.365 Y150.835 F9000
G1 F1200
G1 X154.668 Y150.835 E2.66004
G1 X155.193 Y150.947 E.01597
G1 X155.724 Y151.188 E.01737
G1 X156.501 Y151.88 E.031
G1 X156.896 Y152.501 E.02191
G1 X157.107 Y153.273 E.02384
G1 X157.107 Y181.732 E.8477
G1 X156.896 Y182.503 E.02383
G1 X156.521 Y183.103 E.02107
G1 X155.904 Y183.694 E.02545
G1 X155.184 Y184.061 E.02406
G1 X154.616 Y184.173 E.01723
G1 X144.863 Y184.173 E.29052
G1 X144.101 Y183.965 E.02353
G1 X143.685 Y183.739 E.01409
G1 X142.856 Y182.91 E.03494
G1 X142.631 Y182.495 E.01406
G1 X142.437 Y181.838 E.0204
G1 X142.422 Y175.832 E.17889
G1 X137.576 Y175.832 E.14434
G1 X137.54 Y181.973 E.18291
G1 X137.36 Y182.52 E.01716
G1 X137.107 Y182.958 E.01509
G1 X136.516 Y183.579 E.02552
G1 X135.971 Y183.933 E.01935
G1 X135.141 Y184.173 E.02574
G1 X124.863 Y184.173 E.30614
G1 X124.101 Y183.965 E.02353
G1 X123.685 Y183.739 E.01409
G1 X122.856 Y182.91 E.03494
G1 X122.631 Y182.495 E.01406
G1 X122.437 Y181.838 E.0204
G1 X122.422 Y175.832 E.17889
G1 X117.576 Y175.832 E.14434
G1 X117.54 Y181.973 E.18291
G1 X117.36 Y182.52 E.01716
G1 X117.107 Y182.958 E.01509
G1 X116.516 Y183.579 E.02552
G1 X115.971 Y183.933 E.01935
G1 X115.141 Y184.173 E.02574
G1 X104.863 Y184.173 E.30614
G1 X104.101 Y183.965 E.02353
G1 X103.685 Y183.739 E.01409
G1 X102.856 Y182.91 E.03494
G1 X102.631 Y182.495 E.01406
G1 X102.437 Y181.838 E.0204
G1 X102.422 Y175.832 E.17889
G1 X97.576 Y175.832 E.14434
G1 X97.54 Y181.974 E.18294
G1 X97.318 Y182.609 E.02005
G1 X96.985 Y183.11 E.01792
G1 X96.316 Y183.738 E.02732
G1 X95.937 Y183.95 E.01295
G1 X95.337 Y184.141 E.01874
G1 X84.865 Y184.173 E.31193
G1 X84.101 Y183.965 E.02359
G1 X83.685 Y183.739 E.0141
G1 X82.856 Y182.91 E.03494
G1 X82.631 Y182.495 E.01406
G1 X82.437 Y181.838 E.0204
G1 X82.422 Y175.832 E.17889
G1 X77.577 Y175.832 E.1443
G1 X77.553 Y181.899 E.18072
G1 X77.344 Y182.554 E.02046
G1 X76.995 Y183.099 E.0193
G1 X76.386 Y183.685 E.02517
G1 X75.625 Y184.072 E.02541
G1 X75.096 Y184.173 E.01603
G1 X65.283 Y184.166 E.2923
G1 X64.563 Y183.962 E.02229
G1 X63.963 Y183.587 E.02109
G1 X63.372 Y182.969 E.02545
G1 X63.005 Y182.25 E.02406
G1 X62.893 Y181.682 E.01723
G1 X62.893 Y153.273 E.84622
G1 X63.104 Y152.501 E.02383
G1 X63.479 Y151.902 E.02107
G1 X64.096 Y151.311 E.02545
G1 X64.816 Y150.944 E.02406
G1 X65.306 Y150.847 E.01488
