; generated by PrusaSlicer 2.4.0+win64 on 2022-04-22 at 08:09:09 UTC

; 

; external perimeters extrusion width = 0.45mm
; perimeters extrusion width = 0.45mm
; infill extrusion width = 0.45mm
; solid infill extrusion width = 0.45mm
; top infill extrusion width = 0.45mm
; first layer extrusion width = 0.42mm

M201 X500 Y500 Z100 E5000 ; sets maximum accelerations, mm/sec^2
M203 X500 Y500 Z10 E60 ; sets maximum feedrates, mm/sec
M204 P500 R1000 T500 ; sets acceleration (P, T) and retract acceleration (R), mm/sec^2
M205 X8.00 Y8.00 Z0.40 E5.00 ; sets the jerk limits, mm/sec
M205 S0 T0 ; sets the minimum extruding and travel feed rate, mm/sec
M107
;TYPE:Custom
G90 ; use absolute coordinates
M83 ; extruder relative mode
M140 S80 ; set final bed temp
M104 S150 ; set temporary nozzle temp to prevent oozing during homing
G4 S10 ; allow partial nozzle warmup
G28 ; home all axis
G1 Z50 F240
G1 X2 Y10 F3000
M104 S235 ; set final nozzle temp
M190 S80 ; wait for bed temp to stabilize
M109 S235 ; wait for nozzle temp to stabilize
G1 Z0.28 F240
G92 E0
G1 Y140 E10 F1500 ; prime the nozzle
G1 X2.3 F5000
G92 E0
G1 Y10 E10 F1200 ; prime the nozzle
G92 E0
G21 ; set units to millimeters
G90 ; use absolute coordinates
M83 ; use relative distances for extrusion
; Filament gcode
M107
;LAYER_CHANGE
;Z:0.2
;HEIGHT:0.2
;BEFORE_LAYER_CHANGE
G92 E0
;0.2


G1 E-5 F3600
G1 Z.1 F9000
;AFTER_LAYER_CHANGE
;0.2
G1 X70.641 Y84.712
G1 E5 F2400
M204 S500
;TYPE:Skirt/Brim
;WIDTH:0.42
G1 F1200
G1 X72.039 Y83.871 E.0486
G1 X73.029 Y83.723 E.02981
G1 X146.971 Y83.723 E2.20248
G1 X148.554 Y84.117 E.0486
G1 X149.359 Y84.712 E.02981
G1 X152.288 Y87.641 E.12338
G1 X153.129 Y89.039 E.0486
G1 X153.277 Y90.029 E.02981
G1 X153.277 Y129.971 E1.18974
G1 X152.883 Y131.554 E.0486
G1 X152.288 Y132.359 E.02981
G1 X149.359 Y135.288 E.12338
G1 X147.961 Y136.129 E.0486
G1 X146.971 Y136.277 E.02981
G1 X73.029 Y136.277 E2.20248
G1 X71.446 Y135.883 E.0486
G1 X70.641 Y135.288 E.02981
G1 X67.712 Y132.359 E.12338
G1 X66.871 Y130.961 E.0486
G1 X66.723 Y129.971 E.02981
G1 X66.723 Y90.029 E1.18974
G1 X67.117 Y88.446 E.0486
G1 X67.712 Y87.641 E.02981
G1 X70.599 Y84.754 E.12159
G1 E-3.5 F3600
;WIPE_START
G1 F7200
G1 X72.039 Y83.871 E-.80263
G1 X73.029 Y83.723 E-.47543
G1 X73.338 Y83.723 E-.14695
;WIPE_END
G1 E-.075 F3600
G1 X72.827 Y87.937 F9000
G1 E5 F2400
G1 F1200
G1 X72.872 Y87.905 E.00165
G1 X74.508 Y87.395 E.05102
G1 X145.471 Y87.399 E2.11374
G1 X146.39 Y87.592 E.02798
G1 X147.249 Y87.968 E.02793
G1 X148.458 Y88.985 E.04708
G1 X149.21 Y90.11 E.04028
G1 X149.588 Y91.401 E.04007
G1 X149.6 Y100.511 E.27136
G1 X149.239 Y101.827 E.04065
G1 X148.697 Y102.73 E.03137
G1 X148.453 Y102.998 E.01081
G1 X148.64 Y103.196 E.00811
G1 X149.213 Y104.115 E.03225
G1 X149.579 Y105.339 E.03806
G1 X149.614 Y114.406 E.27007
G1 X149.236 Y115.834 E.04399
G1 X148.663 Y116.775 E.03281
G1 X148.457 Y117.002 E.00913
G1 X148.64 Y117.196 E.00795
G1 X149.213 Y118.115 E.03226
G1 X149.579 Y119.339 E.03806
G1 X149.614 Y128.404 E.27001
G1 X149.305 Y129.67 E.03882
G1 X148.701 Y130.724 E.03619
G1 X147.961 Y131.505 E.03203
G1 X147.361 Y131.97 E.02263
G1 X145.447 Y132.613 E.06015
G1 X74.59 Y132.613 E2.11057
G1 X73.329 Y132.304 E.03866
G1 X72.276 Y131.701 E.03617
G1 X71.495 Y130.961 E.03203
G1 X71.03 Y130.361 E.02263
G1 X70.386 Y128.442 E.06029
G1 X70.414 Y119.383 E.26983
G1 X70.872 Y117.936 E.04519
G1 X71.367 Y117.186 E.02676
G1 X71.523 Y117.015 E.00689
G1 X70.973 Y116.254 E.02796
G1 X70.396 Y114.506 E.05483
G1 X70.414 Y105.384 E.27173
G1 X70.872 Y103.936 E.04523
G1 X71.367 Y103.186 E.02677
G1 X71.523 Y103.015 E.00689
G1 X70.973 Y102.254 E.02796
G1 X70.396 Y100.506 E.05483
G1 X70.414 Y91.386 E.27167
G1 X70.8 Y90.087 E.04036
G1 X71.331 Y89.232 E.02998
G1 X72.06 Y88.474 E.03131
G1 X72.778 Y87.971 E.02612
G1 X72.993 Y88.28 F9000
G1 F1200
G1 X73.064 Y88.231 E.00257
G1 X74.536 Y87.772 E.04594
G1 X145.45 Y87.776 E2.11229
G1 X146.291 Y87.956 E.02562
G1 X147.071 Y88.301 E.02539
G1 X148.194 Y89.256 E.04391
G1 X148.857 Y90.245 E.03548
G1 X149.211 Y91.429 E.0368
G1 X149.223 Y100.486 E.26978
G1 X148.902 Y101.655 E.03611
G1 X148.386 Y102.516 E.02992
G1 X147.912 Y103.014 E.02047
G1 X148.337 Y103.421 E.01751
G1 X148.86 Y104.25 E.02921
G1 X149.202 Y105.369 E.03484
G1 X149.237 Y114.382 E.26847
G1 X148.879 Y115.708 E.04091
G1 X148.355 Y116.557 E.02972
G1 X147.914 Y117.016 E.01897
G1 X148.337 Y117.421 E.01745
G1 X148.86 Y118.25 E.02921
G1 X149.202 Y119.369 E.03484
G1 X149.237 Y128.382 E.26846
G1 X148.946 Y129.552 E.03593
G1 X148.387 Y130.515 E.03315
G1 X147.699 Y131.234 E.02963
G1 X147.156 Y131.652 E.02043
G1 X145.416 Y132.236 E.05467
G1 X74.614 Y132.236 E2.10896
G1 X73.447 Y131.945 E.0358
G1 X72.485 Y131.387 E.03314
G1 X71.766 Y130.699 E.02963
G1 X71.348 Y130.156 E.02043
G1 X70.763 Y128.412 E.05478
G1 X70.791 Y119.414 E.26803
G1 X71.222 Y118.078 E.0418
G1 X71.668 Y117.414 E.02384
G1 X72.069 Y117.002 E.0171
G1 X71.729 Y116.657 E.01445
G1 X71.32 Y116.105 E.02044
G1 X70.773 Y114.476 E.05119
G1 X70.791 Y105.415 E.2699
G1 X71.222 Y104.078 E.04182
G1 X71.668 Y103.414 E.02384
G1 X72.069 Y103.002 E.0171
G1 X71.729 Y102.657 E.01445
G1 X71.32 Y102.105 E.02044
G1 X70.773 Y100.476 E.05119
G1 X70.791 Y91.415 E.2699
G1 X71.153 Y90.222 E.03713
G1 X71.639 Y89.45 E.02716
G1 X72.317 Y88.75 E.02903
G1 X72.944 Y88.314 E.02272
G1 X73.157 Y88.624 F9000
G1 F1200
G1 X73.254 Y88.558 E.0035
G1 X74.565 Y88.149 E.0409
G1 X145.429 Y88.153 E2.11082
G1 X146.191 Y88.32 E.02321
G1 X146.891 Y88.634 E.02286
G1 X147.928 Y89.524 E.04071
G1 X148.527 Y90.43 E.03234
G1 X148.834 Y91.457 E.03193
G1 X148.846 Y100.461 E.26821
G1 X148.566 Y101.483 E.03156
G1 X148.074 Y102.303 E.02848
G1 X147.37 Y103.029 E.03013
G1 X148.032 Y103.644 E.0269
G1 X148.528 Y104.43 E.02769
G1 X148.825 Y105.398 E.03016
G1 X148.86 Y114.358 E.26689
G1 X148.544 Y115.533 E.03624
G1 X148.045 Y116.34 E.02825
G1 X147.37 Y117.029 E.02875
G1 X148.032 Y117.644 E.02692
G1 X148.528 Y118.43 E.02769
G1 X148.825 Y119.398 E.03016
G1 X148.86 Y128.359 E.26691
G1 X148.587 Y129.432 E.03299
G1 X148.074 Y130.303 E.03011
G1 X147.438 Y130.961 E.02724
G1 X146.952 Y131.334 E.01826
G1 X145.385 Y131.859 E.0492
G1 X74.638 Y131.859 E2.10734
G1 X73.567 Y131.587 E.03289
G1 X72.697 Y131.074 E.0301
G1 X72.039 Y130.438 E.02724
G1 X71.666 Y129.952 E.01826
G1 X71.14 Y128.382 E.0493
G1 X71.168 Y119.444 E.26623
G1 X71.55 Y118.267 E.03687
G1 X71.971 Y117.639 E.02251
G1 X72.602 Y117.002 E.02671
G1 X72.02 Y116.417 E.02459
G1 X71.667 Y115.952 E.01739
G1 X71.15 Y114.445 E.04747
G1 X71.168 Y105.445 E.26807
G1 X71.55 Y104.267 E.03689
G1 X71.971 Y103.639 E.02251
G1 X72.602 Y103.002 E.02671
G1 X72.02 Y102.417 E.02459
G1 X71.667 Y101.952 E.01739
G1 X71.15 Y100.445 E.04747
G1 X71.168 Y91.444 E.26809
G1 X71.505 Y90.359 E.03385
G1 X71.946 Y89.67 E.02435
G1 X72.574 Y89.027 E.02679
G1 X73.108 Y88.658 E.01932
G1 X73.32 Y88.969 F9000
G1 F1200
G1 X73.443 Y88.885 E.00444
G1 X74.593 Y88.526 E.03588
G1 X145.408 Y88.53 E2.10933
G1 X146.088 Y88.683 E.02076
G1 X146.709 Y88.965 E.02032
G1 X147.661 Y89.792 E.03755
G1 X148.175 Y90.567 E.02769
G1 X148.457 Y91.486 E.02864
G1 X148.469 Y100.436 E.2666
G1 X148.229 Y101.311 E.02702
G1 X147.762 Y102.089 E.02703
G1 X147.158 Y102.705 E.0257
G1 X146.774 Y102.998 E.01439
G1 X147.727 Y103.868 E.03843
G1 X148.196 Y104.611 E.02617
G1 X148.448 Y105.428 E.02547
G1 X148.482 Y114.335 E.26531
G1 X148.209 Y115.359 E.03156
G1 X147.736 Y116.123 E.02676
G1 X147.158 Y116.705 E.02443
G1 X146.774 Y116.998 E.01441
G1 X147.727 Y117.868 E.03843
G1 X148.196 Y118.611 E.02617
G1 X148.448 Y119.428 E.02547
G1 X148.482 Y128.336 E.26534
G1 X148.229 Y129.31 E.03
G1 X147.762 Y130.089 E.02706
G1 X147.179 Y130.687 E.02488
G1 X146.748 Y131.015 E.01612
G1 X145.355 Y131.482 E.04377
G1 X74.662 Y131.482 E2.1057
G1 X73.689 Y131.229 E.02993
G1 X72.911 Y130.762 E.02705
G1 X72.313 Y130.179 E.02488
G1 X71.985 Y129.748 E.01612
G1 X71.518 Y128.353 E.04384
G1 X71.545 Y119.475 E.26443
G1 X71.878 Y118.455 E.03195
G1 X72.274 Y117.865 E.02118
G1 X72.859 Y117.28 E.02464
G1 X73.274 Y116.993 E.01505
G1 X72.844 Y116.71 E.01534
G1 X72.312 Y116.178 E.02239
G1 X71.985 Y115.748 E.0161
G1 X71.527 Y114.414 E.04202
G1 X71.545 Y105.475 E.26625
G1 X71.878 Y104.455 E.03196
G1 X72.274 Y103.865 E.02118
G1 X72.859 Y103.28 E.02464
G1 X73.274 Y102.993 E.01505
G1 X72.844 Y102.71 E.01534
G1 X72.312 Y102.178 E.02239
G1 X71.985 Y101.748 E.0161
G1 X71.527 Y100.414 E.04202
G1 X71.545 Y91.475 E.26627
G1 X71.856 Y90.499 E.0305
G1 X72.251 Y89.893 E.02155
G1 X72.829 Y89.305 E.02457
G1 X73.271 Y89.003 E.01593
G1 X73.482 Y89.314 F9000
G1 F1200
G1 X73.631 Y89.213 E.00539
G1 X74.622 Y88.903 E.03091
G1 X145.348 Y88.903 E2.10668
G1 X145.951 Y89.035 E.01839
G1 X146.527 Y89.297 E.01887
G1 X147.392 Y90.057 E.0343
G1 X147.845 Y90.75 E.02465
G1 X148.08 Y91.515 E.02383
G1 X148.099 Y100.361 E.2635
G1 X147.873 Y101.185 E.02545
G1 X147.453 Y101.873 E.02401
G1 X146.901 Y102.429 E.02333
G1 X146.544 Y102.697 E.0133
G1 X145.816 Y102.964 E.02309
G1 X146.572 Y103.326 E.025
G1 X147.424 Y104.093 E.03413
G1 X147.845 Y104.75 E.02324
G1 X148.071 Y105.459 E.02216
G1 X148.105 Y114.311 E.26369
G1 X147.872 Y115.186 E.02695
G1 X147.453 Y115.873 E.02399
G1 X146.901 Y116.429 E.02333
G1 X146.544 Y116.697 E.0133
G1 X145.816 Y116.964 E.02309
G1 X146.572 Y117.326 E.025
G1 X147.424 Y118.093 E.03413
G1 X147.845 Y118.75 E.02324
G1 X148.071 Y119.459 E.02216
G1 X148.105 Y128.311 E.26369
G1 X147.872 Y129.186 E.02695
G1 X147.453 Y129.873 E.02399
G1 X146.921 Y130.412 E.02255
G1 X146.545 Y130.696 E.01401
G1 X145.324 Y131.105 E.03836
G1 X74.687 Y131.105 E2.10404
G1 X73.814 Y130.872 E.02692
G1 X73.127 Y130.453 E.02399
G1 X72.588 Y129.921 E.02255
G1 X72.304 Y129.545 E.01401
G1 X71.895 Y128.323 E.0384
G1 X71.922 Y119.506 E.26262
G1 X72.206 Y118.642 E.02708
G1 X72.554 Y118.118 E.01875
G1 X73.111 Y117.561 E.02347
G1 X73.637 Y117.209 E.01883
G1 X74.065 Y117.041 E.01372
G1 X73.094 Y116.427 E.0342
G1 X72.588 Y115.921 E.02132
G1 X72.304 Y115.545 E.01405
G1 X71.905 Y114.383 E.03659
G1 X71.922 Y105.506 E.26441
G1 X72.206 Y104.642 E.02708
G1 X72.554 Y104.118 E.01875
G1 X73.111 Y103.561 E.02347
G1 X73.637 Y103.209 E.01883
G1 X74.065 Y103.041 E.01372
G1 X73.094 Y102.427 E.0342
G1 X72.588 Y101.921 E.02132
G1 X72.304 Y101.545 E.01405
G1 X71.905 Y100.383 E.03659
G1 X71.922 Y91.506 E.26441
G1 X72.206 Y90.642 E.02708
G1 X72.554 Y90.118 E.01876
G1 X73.084 Y89.584 E.0224
G1 X73.432 Y89.348 E.01253
G1 E-3.5 F3600
;WIPE_START
G1 F7200
G1 X73.631 Y89.213 E-.11443
G1 X74.622 Y88.903 E-.49291
G1 X76.343 Y88.903 E-.81767
;WIPE_END
G1 E-.075 F3600
G1 X74.651 Y117.281 F9000
G1 E5 F2400
G1 F1200
G1 X145.289 Y117.276 E2.10408
G1 X145.814 Y117.387 E.01597
G1 X146.345 Y117.628 E.01737
G1 X147.123 Y118.321 E.03103
G1 X147.494 Y118.89 E.02022
G1 X147.703 Y119.546 E.02051
G1 X147.728 Y128.286 E.26035
G1 X147.517 Y129.058 E.02385
G1 X147.145 Y129.655 E.02092
G1 X146.664 Y130.135 E.02025
G1 X146.344 Y130.376 E.01194
G1 X145.294 Y130.728 E.03299
G1 X74.713 Y130.728 E2.10235
G1 X73.942 Y130.517 E.02383
G1 X73.345 Y130.145 E.02092
G1 X72.865 Y129.664 E.02025
G1 X72.624 Y129.344 E.01194
G1 X72.272 Y128.293 E.033
G1 X72.299 Y119.539 E.26076
G1 X72.554 Y118.79 E.02358
G1 X72.855 Y118.345 E.016
G1 X73.337 Y117.864 E.02027
G1 X73.818 Y117.541 E.01727
G1 X74.593 Y117.298 E.02419
G1 X74.706 Y117.658 F9000
G1 F1200
G1 X145.268 Y117.653 E2.1018
G1 X145.711 Y117.75 E.01352
G1 X146.159 Y117.958 E.0147
G1 X146.85 Y118.583 E.02774
G1 X147.161 Y119.07 E.01723
G1 X147.334 Y119.629 E.01744
G1 X147.351 Y128.26 E.25708
G1 X147.162 Y128.929 E.0207
G1 X146.864 Y129.403 E.01668
G1 X146.408 Y129.859 E.01921
G1 X146.143 Y130.055 E.00982
G1 X145.263 Y130.351 E.02765
G1 X74.74 Y130.351 E2.10064
G1 X74.071 Y130.162 E.0207
G1 X73.597 Y129.864 E.01668
G1 X73.141 Y129.408 E.01921
G1 X72.945 Y129.143 E.00982
G1 X72.649 Y128.263 E.02765
G1 X72.666 Y119.628 E.2572
G1 X72.882 Y118.977 E.02044
G1 X73.135 Y118.598 E.01357
G1 X73.591 Y118.143 E.0192
G1 X73.958 Y117.893 E.01323
G1 X74.649 Y117.676 E.02156
G1 X74.763 Y118.027 F9000
G1 F1200
G1 X145.246 Y118.03 E2.09944
G1 X145.605 Y118.113 E.01099
G1 X145.971 Y118.285 E.01205
G1 X146.576 Y118.843 E.02451
G1 X146.809 Y119.206 E.01283
G1 X146.966 Y119.713 E.01583
G1 X146.974 Y128.232 E.25374
G1 X146.808 Y128.796 E.0175
G1 X146.583 Y129.15 E.01252
G1 X146.152 Y129.581 E.01816
G1 X145.944 Y129.734 E.00768
G1 X145.232 Y129.974 E.02237
G1 X74.768 Y129.974 E2.09889
G1 X74.204 Y129.808 E.0175
G1 X73.85 Y129.583 E.01252
G1 X73.419 Y129.152 E.01816
G1 X73.266 Y128.944 E.00768
G1 X73.026 Y128.232 E.02236
G1 X73.034 Y119.715 E.25372
G1 X73.212 Y119.161 E.01731
G1 X73.416 Y118.851 E.01107
G1 X73.847 Y118.42 E.01813
G1 X74.103 Y118.242 E.00931
G1 X74.706 Y118.046 E.01888
G1 X74.799 Y118.403 F9000
G1 F1200
G1 X145.224 Y118.407 E2.09772
G1 X145.462 Y118.462 E.00729
G1 X145.782 Y118.613 E.01054
G1 X146.301 Y119.101 E.02121
G1 X146.456 Y119.342 E.00853
G1 X146.597 Y119.798 E.0142
G1 X146.597 Y128.202 E.25035
G1 X146.456 Y128.658 E.01421
G1 X146.302 Y128.898 E.00848
G1 X145.896 Y129.304 E.0171
G1 X145.746 Y129.412 E.0055
G1 X145.201 Y129.597 E.01716
G1 X74.798 Y129.597 E2.09708
G1 X74.342 Y129.456 E.01421
G1 X74.102 Y129.302 E.00848
G1 X73.696 Y128.896 E.0171
G1 X73.588 Y128.746 E.0055
G1 X73.403 Y128.201 E.01716
G1 X73.403 Y119.798 E.25031
G1 X73.544 Y119.342 E.01421
G1 X73.698 Y119.102 E.00848
G1 X74.104 Y118.696 E.0171
G1 X74.254 Y118.588 E.0055
G1 X74.742 Y118.422 E.01537
G1 X74.831 Y118.78 F9000
G1 F1200
G1 X145.202 Y118.784 E2.09611
G1 X145.319 Y118.811 E.00358
G1 X145.592 Y118.94 E.009
G1 X146.023 Y119.357 E.01786
G1 X146.107 Y119.485 E.00455
G1 X146.22 Y119.829 E.01079
G1 X146.22 Y128.171 E.24846
G1 X146.107 Y128.515 E.01079
G1 X146.022 Y128.644 E.0046
G1 X145.642 Y129.025 E.01602
G1 X145.552 Y129.088 E.00327
G1 X145.169 Y129.22 E.01206
G1 X74.829 Y129.22 E2.09519
G1 X74.485 Y129.107 E.01079
G1 X74.356 Y129.022 E.0046
G1 X73.975 Y128.642 E.01602
G1 X73.912 Y128.552 E.00327
G1 X73.78 Y128.169 E.01206
G1 X73.78 Y119.829 E.24842
G1 X73.893 Y119.485 E.01079
G1 X73.978 Y119.356 E.0046
G1 X74.358 Y118.975 E.01602
G1 X74.448 Y118.912 E.00327
G1 X74.774 Y118.8 E.01027
G1 X74.864 Y119.157 F9000
G1 F1200
G1 X145.15 Y119.157 E2.09356
G1 X145.4 Y119.267 E.00814
G1 X145.743 Y119.61 E.01446
G1 X145.843 Y119.864 E.00814
G1 X145.843 Y128.136 E.24637
G1 X145.743 Y128.39 E.00814
G1 X145.39 Y128.743 E.01488
G1 X145.136 Y128.843 E.00814
G1 X74.864 Y128.843 E2.09314
G1 X74.61 Y128.743 E.00814
G1 X74.257 Y128.39 E.01488
G1 X74.157 Y128.136 E.00814
G1 X74.157 Y119.864 E.24637
G1 X74.257 Y119.61 E.00814
G1 X74.61 Y119.257 E.01488
G1 X74.808 Y119.178 E.00635
G1 X74.906 Y119.534 F9000
G1 F1200
G1 X145.094 Y119.534 E2.09064
G1 X145.163 Y119.563 E.00223
G1 X145.437 Y119.837 E.01154
G1 X145.466 Y119.906 E.00223
G1 X145.466 Y128.094 E.24387
G1 X145.437 Y128.163 E.00223
G1 X145.163 Y128.437 E.01154
G1 X145.094 Y128.466 E.00223
G1 X74.906 Y128.466 E2.09064
G1 X74.837 Y128.437 E.00223
G1 X74.563 Y128.163 E.01154
G1 X74.534 Y128.094 E.00223
G1 X74.534 Y119.906 E.24387
G1 X74.563 Y119.837 E.00223
G1 X74.851 Y119.557 E.01195
G1 X75.022 Y119.911 F9000
G1 F1200
G1 X144.978 Y119.911 E2.08376
G1 X145.089 Y120.022 E.00465
G1 X145.089 Y127.978 E.23699
G1 X144.978 Y128.089 E.00465
G1 X75.022 Y128.089 E2.08376
G1 X74.911 Y127.978 E.00465
G1 X74.911 Y120.022 E.23699
G1 X74.979 Y119.954 E.00287
G1 E-3.5 F3600
;WIPE_START
G1 F7200
G1 X77.979 Y119.952 E-1.425
;WIPE_END
G1 E-.075 F3600
G1 X74.979 Y116.728 F9000
G1 E5 F2400
G1 F1200
G1 X74.713 Y116.728 E.00793
G1 X73.942 Y116.517 E.02383
G1 X73.345 Y116.145 E.02092
G1 X72.865 Y115.664 E.02025
G1 X72.624 Y115.344 E.01194
G1 X72.272 Y114.293 E.033
G1 X72.299 Y105.539 E.26076
G1 X72.554 Y104.79 E.02358
G1 X72.855 Y104.345 E.016
G1 X73.337 Y103.864 E.02027
G1 X73.818 Y103.541 E.01727
G1 X74.651 Y103.281 E.02598
G1 X145.289 Y103.276 E2.10408
G1 X145.814 Y103.387 E.01597
G1 X146.345 Y103.628 E.01737
G1 X147.123 Y104.321 E.03103
G1 X147.494 Y104.89 E.02022
G1 X147.703 Y105.546 E.02051
G1 X147.728 Y114.286 E.26035
G1 X147.517 Y115.058 E.02385
G1 X147.145 Y115.655 E.02092
