; generated by PrusaSlicer 2.4.0+win64 on 2022-04-22 at 08:14:07 UTC

; 

; external perimeters extrusion width = 0.45mm
; perimeters extrusion width = 0.45mm
; infill extrusion width = 0.45mm
; solid infill extrusion width = 0.45mm
; top infill extrusion width = 0.45mm
; first layer extrusion width = 0.42mm

M201 X500 Y500 Z100 E5000 ; sets maximum accelerations, mm/sec^2
M203 X500 Y500 Z10 E60 ; sets maximum feedrates, mm/sec
M204 P500 R1000 T500 ; sets acceleration (P, T) and retract acceleration (R), mm/sec^2
M205 X8.00 Y8.00 Z0.40 E5.00 ; sets the jerk limits, mm/sec
M205 S0 T0 ; sets the minimum extruding and travel feed rate, mm/sec
M107
;TYPE:Custom
G90 ; use absolute coordinates
M83 ; extruder relative mode
M140 S80 ; set final bed temp
M104 S150 ; set temporary nozzle temp to prevent oozing during homing
G4 S10 ; allow partial nozzle warmup
G28 ; home all axis
G1 Z50 F240
G1 X2 Y10 F3000
M104 S235 ; set final nozzle temp
M190 S80 ; wait for bed temp to stabilize
M109 S235 ; wait for nozzle temp to stabilize
G1 Z0.28 F240
G92 E0
G1 Y140 E10 F1500 ; prime the nozzle
G1 X2.3 F5000
G92 E0
G1 Y10 E10 F1200 ; prime the nozzle
G92 E0
G21 ; set units to millimeters
G90 ; use absolute coordinates
M83 ; use relative distances for extrusion
; Filament gcode
M107
;LAYER_CHANGE
;Z:0.2
;HEIGHT:0.2
;BEFORE_LAYER_CHANGE
G92 E0
;0.2


G1 E-5 F3600
G1 Z.1 F9000
;AFTER_LAYER_CHANGE
;0.2
G1 X52.511 Y22.913
G1 E5 F2400
M204 S500
;TYPE:Skirt/Brim
;WIDTH:0.42
G1 F1200
G1 X56.937 Y12.768 E.3297
G1 X57.645 Y11.731 E.0374
G1 X60.574 Y8.802 E.12337
G1 X61.972 Y7.961 E.0486
G1 X62.96 Y7.813 E.02978
G1 X95.165 Y7.81 E.95927
G1 X96.748 Y8.204 E.0486
G1 X97.553 Y8.799 E.02981
G1 X211.199 Y122.449 E4.78737
G1 X212.04 Y123.847 E.0486
G1 X212.188 Y124.835 E.02977
G1 X212.192 Y157.04 E.95927
G1 X211.798 Y158.623 E.0486
G1 X211.203 Y159.428 E.02981
G1 X208.274 Y162.357 E.12338
G1 X207.236 Y163.064 E.0374
G1 X111.357 Y204.9 E3.11595
G1 X83.571 Y212.381 E.85712
G1 X81.94 Y212.41 E.0486
G1 X80.849 Y211.946 E.03532
G1 X77.107 Y209.498 E.13318
G1 X76.568 Y209.06 E.02071
G1 X10.938 Y143.431 E2.76461
G1 X10.5 Y142.891 E.02072
G1 X8.053 Y139.149 E.13319
G1 X7.516 Y137.608 E.0486
G1 X7.617 Y136.426 E.03533
G1 X15.102 Y108.644 E.85705
G1 X52.487 Y22.968 E2.78436
G1 E-3.5 F3600
;WIPE_START
G1 F7200
G1 X53.686 Y20.219 E-1.425
;WIPE_END
G1 E-.075 F3600
G1 X60.36 Y22.992 F9000
G1 E5 F2400
G1 F1200
G1 X60.384 Y15.214 E.23168
G1 X60.6 Y14.488 E.02257
G1 X60.913 Y13.819 E.022
G1 X61.963 Y12.584 E.04828
G1 X63.154 Y11.831 E.04195
G1 X64.576 Y11.477 E.04366
G1 X93.58 Y11.477 E.86394
G1 X94.528 Y11.661 E.02877
G1 X95.438 Y12.052 E.02949
G1 X96.699 Y13.116 E.04914
G1 X97.445 Y14.295 E.04156
G1 X97.758 Y15.331 E.03224
G1 X97.806 Y29.178 E.41246
G1 X190.821 Y122.193 E3.9182
G1 X204.321 Y122.194 E.40214
G1 X205.544 Y122.492 E.03749
G1 X206.362 Y122.902 E.02725
G1 X207.565 Y124.015 E.04881
G1 X208.221 Y125.151 E.03909
G1 X208.525 Y126.451 E.03974
G1 X208.528 Y155.478 E.86463
G1 X208.23 Y156.701 E.0375
G1 X207.821 Y157.518 E.02722
G1 X206.843 Y158.613 E.04371
G1 X205.685 Y159.332 E.04061
G1 X204.455 Y159.66 E.03792
G1 X182.709 Y159.682 E.64774
G1 X181.448 Y159.373 E.03868
G1 X180.394 Y158.77 E.03617
G1 X179.471 Y157.872 E.03836
G1 X178.819 Y156.752 E.03859
G1 X178.539 Y155.72 E.03187
G1 X178.511 Y148.336 E.21993
G1 X92.363 Y148.336 E2.56607
G1 X111.108 Y196.258 E1.53275
G1 X111.296 Y197.22 E.02918
G1 X111.268 Y198.169 E.02829
G1 X110.941 Y199.328 E.03586
G1 X110.242 Y200.552 E.04199
G1 X109.812 Y201.018 E.01889
G1 X109.321 Y201.425 E.019
G1 X108.224 Y201.986 E.03668
G1 X84.344 Y208.382 E.73638
G1 X83.188 Y208.455 E.03449
G1 X82.506 Y208.348 E.02057
G1 X81.871 Y208.154 E.01978
G1 X80.364 Y207.213 E.05293
G1 X79.692 Y206.476 E.02971
G1 X79.238 Y205.681 E.02725
G1 X78.971 Y204.867 E.02554
G1 X70.555 Y149.447 E1.6697
G1 X15.132 Y141.027 E1.66978
G1 X14.283 Y140.745 E.02667
G1 X13.514 Y140.302 E.02643
G1 X12.557 Y139.349 E.04023
G1 X11.848 Y138.134 E.04188
G1 X11.666 Y137.557 E.01803
G1 X11.558 Y136.941 E.01863
G1 X11.539 Y136.196 E.02219
G1 X18.015 Y111.779 E.75244
G1 X18.577 Y110.68 E.03676
G1 X18.984 Y110.189 E.019
G1 X19.45 Y109.759 E.01889
G1 X20.674 Y109.06 E.042
G1 X21.883 Y108.726 E.03735
G1 X22.827 Y108.71 E.02811
G1 X23.744 Y108.894 E.02786
G1 X71.712 Y127.657 E1.53423
G1 X71.712 Y41.491 E2.56661
G1 X64.203 Y41.451 E.22368
G1 X63.148 Y41.137 E.03279
G1 X62.266 Y40.634 E.03024
G1 X61.345 Y39.749 E.03804
G1 X60.696 Y38.714 E.03638
G1 X60.317 Y37.304 E.0435
G1 X60.36 Y23.052 E.42451
G1 X60.732 Y23.053 F9000
G1 F1200
G1 X60.753 Y15.294 E.2311
G1 X60.947 Y14.634 E.02049
G1 X61.243 Y14.002 E.02079
G1 X62.23 Y12.852 E.04514
G1 X63.327 Y12.167 E.03852
G1 X64.598 Y11.854 E.039
G1 X93.561 Y11.854 E.86271
G1 X94.435 Y12.026 E.02652
G1 X95.261 Y12.386 E.02685
G1 X96.431 Y13.383 E.0458
G1 X97.111 Y14.472 E.03822
G1 X97.388 Y15.411 E.02918
G1 X97.429 Y29.335 E.41473
G1 X190.664 Y122.57 E3.92748
G1 X204.298 Y122.571 E.40609
G1 X205.432 Y122.853 E.0348
G1 X206.168 Y123.226 E.0246
G1 X207.254 Y124.23 E.04405
G1 X207.861 Y125.267 E.03578
G1 X208.148 Y126.473 E.03694
G1 X208.151 Y155.455 E.86326
G1 X207.87 Y156.589 E.03481
G1 X207.496 Y157.325 E.02458
G1 X206.582 Y158.34 E.04069
G1 X205.513 Y158.995 E.03736
G1 X204.384 Y159.289 E.03475
G1 X182.732 Y159.305 E.64493
G1 X181.566 Y159.014 E.03581
G1 X180.604 Y158.456 E.03313
G1 X179.783 Y157.658 E.03409
G1 X179.176 Y156.627 E.03566
G1 X178.916 Y155.692 E.02888
G1 X178.887 Y147.959 E.23035
G1 X91.81 Y147.959 E2.59371
G1 X110.751 Y196.38 E1.54871
G1 X110.918 Y197.232 E.02587
G1 X110.899 Y198.092 E.02561
G1 X110.602 Y199.163 E.0331
G1 X109.95 Y200.312 E.03936
G1 X109.543 Y200.752 E.01785
G1 X109.097 Y201.121 E.01725
G1 X108.107 Y201.627 E.03309
G1 X84.264 Y208.013 E.73524
G1 X83.225 Y208.079 E.03101
G1 X82.603 Y207.983 E.01875
G1 X82.005 Y207.8 E.01864
G1 X80.624 Y206.938 E.04849
G1 X80.007 Y206.269 E.02711
G1 X79.59 Y205.544 E.02491
G1 X79.342 Y204.794 E.02353
G1 X70.886 Y149.116 E1.67749
G1 X15.204 Y140.657 E1.67758
G1 X14.454 Y140.409 E.02354
G1 X13.724 Y139.987 E.02512
G1 X12.869 Y139.137 E.03591
G1 X12.201 Y138 E.03926
G1 X12.029 Y137.456 E.017
G1 X11.932 Y136.891 E.01708
G1 X11.916 Y136.214 E.02016
G1 X18.374 Y111.896 E.74948
G1 X18.881 Y110.904 E.03315
G1 X19.249 Y110.458 E.01725
G1 X19.69 Y110.051 E.01785
G1 X20.839 Y109.4 E.03935
G1 X21.958 Y109.096 E.03452
G1 X22.81 Y109.087 E.0254
G1 X23.621 Y109.251 E.02465
G1 X72.089 Y128.21 E1.5502
G1 X72.089 Y41.115 E2.59425
G1 X64.283 Y41.082 E.23252
G1 X63.313 Y40.798 E.03009
G1 X62.508 Y40.344 E.02752
G1 X61.65 Y39.526 E.03532
G1 X61.052 Y38.586 E.03319
G1 X60.694 Y37.279 E.04038
G1 X60.732 Y23.113 E.42195
G1 X61.105 Y23.114 F9000
G1 F1200
G1 X61.123 Y15.375 E.23051
G1 X61.305 Y14.755 E.01925
G1 X61.573 Y14.187 E.0187
G1 X62.495 Y13.121 E.04199
G1 X63.499 Y12.504 E.03508
G1 X64.621 Y12.231 E.0344
G1 X93.542 Y12.231 E.86147
G1 X94.339 Y12.392 E.02422
G1 X95.083 Y12.719 E.0242
G1 X96.163 Y13.649 E.04245
G1 X96.776 Y14.646 E.03487
G1 X97.019 Y15.49 E.02615
G1 X97.053 Y29.491 E.41706
G1 X190.508 Y122.947 E3.93677
G1 X204.274 Y122.948 E.41003
G1 X205.317 Y123.213 E.03206
G1 X205.972 Y123.549 E.02192
G1 X206.976 Y124.486 E.0409
G1 X207.521 Y125.43 E.03248
G1 X207.77 Y126.495 E.03257
G1 X207.774 Y155.431 E.86191
G1 X207.51 Y156.475 E.03207
G1 X207.173 Y157.13 E.02194
G1 X206.322 Y158.065 E.03766
G1 X205.342 Y158.658 E.0341
G1 X204.314 Y158.918 E.03159
G1 X182.756 Y158.928 E.64216
G1 X181.685 Y158.656 E.0329
G1 X180.815 Y158.143 E.0301
G1 X180.094 Y157.444 E.02992
G1 X179.531 Y156.499 E.03276
G1 X179.293 Y155.664 E.02584
G1 X179.262 Y147.582 E.24075
G1 X91.258 Y147.582 E2.62136
G1 X110.393 Y196.502 E1.56467
G1 X110.541 Y197.247 E.02262
G1 X110.528 Y198.017 E.02294
G1 X110.261 Y198.999 E.03032
G1 X109.657 Y200.074 E.03672
G1 X109.293 Y200.47 E.01603
G1 X108.873 Y200.817 E.01624
G1 X107.991 Y201.267 E.0295
G1 X84.185 Y207.644 E.73409
G1 X83.261 Y207.703 E.02756
G1 X82.7 Y207.618 E.01691
G1 X82.138 Y207.447 E.01748
G1 X80.883 Y206.663 E.0441
G1 X80.322 Y206.06 E.02452
G1 X79.941 Y205.406 E.02256
G1 X79.712 Y204.721 E.0215
G1 X71.217 Y148.785 E1.68526
G1 X15.277 Y140.287 E1.68536
G1 X14.593 Y140.058 E.0215
G1 X13.935 Y139.674 E.02269
G1 X13.181 Y138.923 E.03168
G1 X12.554 Y137.866 E.03662
G1 X12.393 Y137.355 E.01595
G1 X12.306 Y136.842 E.01549
G1 X12.294 Y136.233 E.01814
G1 X18.734 Y112.012 E.74654
G1 X19.185 Y111.129 E.02954
G1 X19.532 Y110.708 E.01624
G1 X19.928 Y110.344 E.01603
G1 X21.002 Y109.74 E.0367
G1 X22.03 Y109.467 E.03168
G1 X22.792 Y109.464 E.02269
G1 X23.499 Y109.608 E.0215
G1 X72.466 Y128.762 E1.56618
G1 X72.466 Y40.739 E2.62191
G1 X64.361 Y40.712 E.24141
G1 X63.477 Y40.458 E.02742
G1 X62.749 Y40.053 E.02478
G1 X61.954 Y39.301 E.03261
G1 X61.407 Y38.456 E.02998
G1 X61.072 Y37.253 E.03721
G1 X61.104 Y23.174 E.41938
G1 X61.477 Y23.175 F9000
G1 F1200
G1 X61.492 Y15.454 E.22996
G1 X61.652 Y14.902 E.01712
G1 X61.903 Y14.372 E.01745
G1 X62.759 Y13.392 E.03878
G1 X63.668 Y12.842 E.03163
G1 X64.643 Y12.608 E.02986
G1 X93.522 Y12.608 E.86023
G1 X94.242 Y12.757 E.02189
G1 X94.902 Y13.052 E.02154
G1 X95.892 Y13.913 E.03909
G1 X96.44 Y14.818 E.0315
G1 X96.649 Y15.566 E.02313
G1 X96.676 Y29.648 E.41945
G1 X190.352 Y123.324 E3.94607
G1 X204.249 Y123.325 E.41395
G1 X205.201 Y123.572 E.02928
G1 X205.774 Y123.871 E.01927
G1 X206.665 Y124.7 E.03625
G1 X207.161 Y125.546 E.0292
G1 X207.393 Y126.517 E.02975
G1 X207.397 Y155.406 E.86051
G1 X207.15 Y156.358 E.02928
G1 X206.851 Y156.932 E.0193
G1 X206.064 Y157.789 E.03465
G1 X205.175 Y158.319 E.03083
G1 X204.247 Y158.546 E.02844
G1 X182.78 Y158.551 E.63943
G1 X181.808 Y158.298 E.02994
G1 X181.029 Y157.831 E.02705
G1 X180.376 Y157.192 E.02721
G1 X179.869 Y156.33 E.0298
G1 X179.663 Y155.589 E.02292
G1 X179.638 Y147.205 E.24972
G1 X90.705 Y147.205 E2.64901
G1 X110.036 Y196.624 E1.58064
G1 X110.164 Y197.264 E.01943
G1 X110.158 Y197.944 E.02026
G1 X109.92 Y198.837 E.02752
G1 X109.364 Y199.835 E.03404
G1 X109.025 Y200.205 E.01495
G1 X108.649 Y200.512 E.01445
G1 X107.874 Y200.908 E.02594
G1 X84.105 Y207.275 E.73295
G1 X83.297 Y207.327 E.02411
G1 X82.77 Y207.248 E.01588
G1 X82.273 Y207.094 E.01549
G1 X81.14 Y206.387 E.03979
G1 X80.636 Y205.85 E.02195
G1 X80.291 Y205.266 E.0202
G1 X80.082 Y204.648 E.01943
G1 X71.548 Y148.453 E1.69303
G1 X15.351 Y139.916 E1.69313
G1 X14.733 Y139.707 E.01943
G1 X14.147 Y139.362 E.02026
G1 X13.493 Y138.71 E.02752
G1 X12.906 Y137.73 E.034
G1 X12.763 Y137.279 E.0141
G1 X12.681 Y136.794 E.01466
G1 X12.671 Y136.254 E.0161
G1 X19.093 Y112.128 E.74363
G1 X19.489 Y111.352 E.02597
G1 X19.797 Y110.976 E.01445
G1 X20.166 Y110.637 E.01495
G1 X21.165 Y110.081 E.03404
G1 X22.058 Y109.844 E.02752
G1 X22.738 Y109.837 E.02026
G1 X23.377 Y109.965 E.01943
G1 X72.843 Y129.314 E1.58213
G1 X72.843 Y40.363 E2.64957
G1 X64.439 Y40.343 E.25034
G1 X63.638 Y40.116 E.02478
G1 X62.989 Y39.761 E.02203
G1 X62.256 Y39.074 E.02993
G1 X61.761 Y38.324 E.02676
G1 X61.449 Y37.227 E.03398
G1 X61.477 Y23.235 E.41679
G1 X61.849 Y23.235 F9000
G1 F1200
G1 X61.862 Y15.532 E.22944
G1 X62 Y15.049 E.01497
G1 X62.232 Y14.558 E.01617
G1 X63.021 Y13.665 E.03552
G1 X63.835 Y13.182 E.02818
G1 X64.664 Y12.985 E.02539
G1 X93.503 Y12.985 E.85902
G1 X94.107 Y13.109 E.01836
G1 X94.722 Y13.384 E.02006
G1 X95.62 Y14.176 E.03565
G1 X96.102 Y14.987 E.02812
G1 X96.278 Y15.64 E.02013
G1 X96.299 Y29.804 E.42191
G1 X190.196 Y123.701 E3.95536
G1 X204.224 Y123.702 E.41786
G1 X205.082 Y123.93 E.02644
G1 X205.575 Y124.192 E.01665
G1 X206.354 Y124.915 E.03164
G1 X206.821 Y125.712 E.02752
G1 X207.016 Y126.539 E.0253
G1 X207.02 Y155.381 E.85912
G1 X206.792 Y156.239 E.02644
G1 X206.53 Y156.733 E.01665
G1 X205.807 Y157.511 E.03164
G1 X205.01 Y157.979 E.02753
G1 X204.183 Y158.174 E.02531
G1 X182.805 Y158.174 E.63676
G1 X181.932 Y157.941 E.02692
G1 X181.245 Y157.522 E.02399
G1 X180.66 Y156.943 E.02452
G1 X180.208 Y156.164 E.02682
G1 X180.034 Y155.515 E.02
G1 X180.015 Y146.828 E.25877
G1 X90.153 Y146.828 E2.67668
G1 X109.679 Y196.745 E1.59657
G1 X109.79 Y197.316 E.01732
G1 X109.781 Y197.915 E.01784
G1 X109.579 Y198.675 E.02344
G1 X109.07 Y199.598 E.03139
G1 X108.775 Y199.922 E.01305
G1 X108.426 Y200.208 E.01343
G1 X107.757 Y200.549 E.02237
G1 X84.025 Y206.906 E.73181
G1 X83.332 Y206.951 E.0207
G1 X82.867 Y206.883 E.01399
G1 X82.408 Y206.741 E.01432
G1 X81.397 Y206.109 E.03552
G1 X80.948 Y205.638 E.01939
G1 X80.641 Y205.124 E.01783
G1 X80.452 Y204.574 E.01732
G1 X71.879 Y148.122 E1.70078
G1 X15.425 Y139.546 E1.70088
G1 X14.875 Y139.357 E.01732
G1 X14.361 Y139.05 E.01784
G1 X13.803 Y138.495 E.02344
G1 X13.259 Y137.594 E.03135
G1 X13.126 Y137.178 E.01301
G1 X13.055 Y136.747 E.013
G1 X13.049 Y136.275 E.01407
G1 X19.452 Y112.244 E.74076
G1 X19.794 Y111.575 E.02239
G1 X20.08 Y111.226 E.01343
G1 X20.403 Y110.931 E.01305
G1 X21.326 Y110.423 E.03139
G1 X22.087 Y110.22 E.02344
G1 X22.686 Y110.211 E.01784
G1 X23.256 Y110.323 E.01732
G1 X73.22 Y129.867 E1.59806
G1 X73.22 Y39.986 E2.67725
G1 X64.516 Y39.973 E.25926
G1 X63.761 Y39.759 E.02339
G1 X63.229 Y39.47 E.01803
G1 X62.529 Y38.814 E.02857
G1 X62.115 Y38.19 E.0223
G1 X61.826 Y37.2 E.03073
G1 X61.849 Y23.295 E.41418
G1 X62.222 Y23.296 F9000
G1 F1200
G1 X62.232 Y15.609 E.22896
G1 X62.348 Y15.195 E.01279
G1 X62.561 Y14.744 E.01486
G1 X63.281 Y13.939 E.03219
G1 X63.999 Y13.522 E.02471
G1 X64.685 Y13.362 E.021
G1 X93.483 Y13.362 E.85778
G1 X94.008 Y13.474 E.01597
G1 X94.539 Y13.715 E.01738
G1 X95.345 Y14.436 E.03222
G1 X95.762 Y15.153 E.02471
G1 X95.907 Y15.711 E.01717
G1 X95.922 Y29.96 E.42446
G1 X190.04 Y124.078 E3.96466
G1 X204.198 Y124.079 E.42174
G1 X204.96 Y124.288 E.02353
G1 X205.373 Y124.512 E.014
G1 X206.074 Y125.17 E.02864
G1 X206.48 Y125.875 E.02423
G1 X206.639 Y126.56 E.02095
G1 X206.643 Y155.355 E.85771
G1 X206.434 Y156.118 E.02353
G1 X206.211 Y156.531 E.014
G1 X205.552 Y157.232 E.02865
G1 X204.847 Y157.638 E.02424
G1 X204.162 Y157.797 E.02096
G1 X182.831 Y157.797 E.63535
G1 X182.06 Y157.586 E.02383
G1 X181.464 Y157.214 E.02093
G1 X180.945 Y156.695 E.02185
G1 X180.549 Y156 E.02382
G1 X180.405 Y155.445 E.01709
G1 X180.392 Y146.451 E.26789
G1 X89.601 Y146.451 E2.70435
G1 X109.321 Y196.866 E1.61249
G1 X109.416 Y197.366 E.01515
G1 X109.405 Y197.884 E.01543
G1 X109.237 Y198.515 E.01947
G1 X108.776 Y199.361 E.0287
G1 X108.506 Y199.657 E.01193
G1 X108.204 Y199.902 E.01158
G1 X107.641 Y200.19 E.01885
G1 X83.945 Y206.537 E.73067
G1 X83.367 Y206.575 E.01727
G1 X82.937 Y206.512 E.01293
G1 X82.544 Y206.389 E.01227
G1 X81.652 Y205.831 E.03136
G1 X81.259 Y205.423 E.01685
G1 X80.99 Y204.98 E.01545
G1 X80.823 Y204.499 E.01515
G1 X72.21 Y147.791 E1.70851
G1 X15.499 Y139.176 E1.70861
G1 X15.019 Y139.008 E.01515
G1 X14.576 Y138.74 E.01543
G1 X14.113 Y138.278 E.01947
G1 X13.61 Y137.456 E.02872
G1 X13.496 Y137.102 E.01108
G1 X13.429 Y136.7 E.01212
G1 X13.426 Y136.297 E.01201
G1 X19.811 Y112.361 E.73791
G1 X20.099 Y111.797 E.01886
G1 X20.344 Y111.495 E.01158
G1 X20.64 Y111.226 E.01193
G1 X21.486 Y110.765 E.0287
G1 X22.118 Y110.597 E.01947
G1 X22.636 Y110.586 E.01543
G1 X23.136 Y110.68 E.01515
G1 X73.597 Y130.419 E1.61398
G1 X73.597 Y39.609 E2.70493
G1 X64.594 Y39.603 E.26818
G1 X63.883 Y39.402 E.022
G1 X63.469 Y39.178 E.01403
G1 X62.802 Y38.553 E.02721
G1 X62.467 Y38.054 E.01791
G1 X62.203 Y37.172 E.02742
G1 X62.221 Y23.356 E.41155
G1 X62.594 Y23.356 F9000
G1 F1200
G1 X62.602 Y15.684 E.22854
G1 X62.696 Y15.341 E.01057
G1 X62.89 Y14.931 E.0135
G1 X63.539 Y14.216 E.02878
G1 X64.16 Y13.864 E.02124
G1 X64.706 Y13.739 E.01671
G1 X93.462 Y13.739 E.85653
G1 X93.905 Y13.837 E.01352
G1 X94.353 Y14.044 E.01471
G1 X95.068 Y14.693 E.02877
G1 X95.421 Y15.315 E.02127
G1 X95.536 Y15.778 E.01423
G1 X95.545 Y30.117 E.4271
G1 X189.883 Y124.455 E3.97396
G1 X204.171 Y124.456 E.42559
G1 X204.835 Y124.644 E.02054
G1 X205.168 Y124.829 E.01136
G1 X205.793 Y125.423 E.02567
G1 X206.138 Y126.035 E.02092
G1 X206.262 Y126.581 E.01668
G1 X206.266 Y155.329 E.85629
G1 X206.078 Y155.992 E.02055
G1 X205.893 Y156.326 E.01136
G1 X205.299 Y156.951 E.02568
G1 X204.687 Y157.295 E.02093
