; generated by PrusaSlicer 2.4.0+win64 on 2022-04-19 at 10:13:13 UTC

; 

; external perimeters extrusion width = 0.45mm
; perimeters extrusion width = 0.45mm
; infill extrusion width = 0.45mm
; solid infill extrusion width = 0.45mm
; top infill extrusion width = 0.45mm
; first layer extrusion width = 0.42mm

M201 X500 Y500 Z100 E5000 ; sets maximum accelerations, mm/sec^2
M203 X500 Y500 Z10 E60 ; sets maximum feedrates, mm/sec
M204 P500 R1000 T500 ; sets acceleration (P, T) and retract acceleration (R), mm/sec^2
M205 X8.00 Y8.00 Z0.40 E5.00 ; sets the jerk limits, mm/sec
M205 S0 T0 ; sets the minimum extruding and travel feed rate, mm/sec
M107
;TYPE:Custom
G90 ; use absolute coordinates
M83 ; extruder relative mode
M140 S80 ; set final bed temp
M104 S150 ; set temporary nozzle temp to prevent oozing during homing
G4 S10 ; allow partial nozzle warmup
G28 ; home all axis
G1 Z50 F240
G1 X2 Y10 F3000
M104 S235 ; set final nozzle temp
M190 S80 ; wait for bed temp to stabilize
M109 S235 ; wait for nozzle temp to stabilize
G1 Z0.28 F240
G92 E0
G1 Y140 E10 F1500 ; prime the nozzle
G1 X2.3 F5000
G92 E0
G1 Y10 E10 F1200 ; prime the nozzle
G92 E0
G21 ; set units to millimeters
G90 ; use absolute coordinates
M83 ; use relative distances for extrusion
; Filament gcode
M107
;LAYER_CHANGE
;Z:0.2
;HEIGHT:0.2
;BEFORE_LAYER_CHANGE
G92 E0
;0.2


G1 E-5 F3600
G1 Z.1 F9000
;AFTER_LAYER_CHANGE
;0.2
G1 X86.739 Y104.189
G1 E5 F2400
M204 S500
;TYPE:Skirt/Brim
;WIDTH:0.42
G1 F1200
G1 X98.733 Y97.262 E.41256
G1 X124.846 Y82.279 E.89677
G1 X126.415 Y81.833 E.0486
G1 X128.215 Y82.283 E.05528
G1 X133.215 Y85.17 E.17196
G1 X134.389 Y86.303 E.0486
G1 X134.902 Y87.998 E.05275
G1 X135.049 Y93.205 E.15515
G1 X135.047 Y128.092 E1.03917
G1 X134.901 Y132.031 E.11739
G1 X134.448 Y133.598 E.0486
G1 X133.215 Y134.83 E.05193
G1 X128.215 Y137.717 E.17196
G1 X126.647 Y138.167 E.0486
G1 X124.866 Y137.733 E.05461
G1 X86.74 Y115.812 E1.30997
G1 X85.566 Y114.679 E.0486
G1 X85.051 Y112.887 E.05552
G1 X85.051 Y107.114 E.17196
G1 X85.445 Y105.531 E.0486
G1 X86.697 Y104.233 E.05374
G1 E-3.5 F3600
;WIPE_START
G1 F7200
G1 X89.293 Y102.729 E-1.425
;WIPE_END
G1 E-.075 F3600
G1 X89.749 Y106.952 F9000
G1 E5 F2400
G1 F1200
G1 X90.575 Y106.204 E.03318
G1 X99.706 Y100.931 E.31406
G1 X100.206 Y100.746 E.0159
G1 X124.669 Y86.61 E.84158
G1 X125.883 Y86.245 E.03776
G1 X127.145 Y86.241 E.03757
G1 X128.467 Y86.654 E.04126
G1 X129.924 Y87.623 E.05215
G1 X130.435 Y88.227 E.02354
G1 X130.842 Y88.911 E.02372
G1 X131.239 Y90.39 E.04562
G1 X131.239 Y94.109 E.11078
G1 X131.385 Y94.768 E.02008
G1 X131.385 Y126.404 E.94236
G1 X131.239 Y127.066 E.02018
G1 X131.206 Y129.86 E.08322
G1 X130.912 Y130.921 E.03281
G1 X130.35 Y131.889 E.03333
G1 X129.319 Y132.854 E.04206
G1 X128.014 Y133.543 E.04397
G1 X127.054 Y133.77 E.02937
G1 X126.166 Y133.791 E.02647
G1 X124.681 Y133.396 E.04575
G1 X121.685 Y131.667 E.10306
G1 X121.391 Y131.545 E.00946
G1 X100.118 Y119.263 E.73168
G1 X99.848 Y119.149 E.00872
G1 X90.566 Y113.79 E.31926
G1 X89.66 Y112.94 E.037
G1 X89.016 Y111.844 E.03786
G1 X88.729 Y110.685 E.03555
G1 X88.714 Y109.41 E.03797
G1 X89.142 Y107.872 E.04755
G1 X89.716 Y107.002 E.03107
G1 X90.031 Y107.209 F9000
G1 F1200
G1 X90.781 Y106.521 E.03032
G1 X99.879 Y101.266 E.31297
G1 X100.366 Y101.089 E.01542
G1 X124.838 Y86.948 E.8419
G1 X125.963 Y86.615 E.03494
G1 X127.115 Y86.617 E.0343
G1 X128.281 Y86.983 E.03643
G1 X129.654 Y87.888 E.04897
G1 X130.136 Y88.458 E.02224
G1 X130.504 Y89.081 E.02154
G1 X130.862 Y90.415 E.04115
G1 X130.862 Y94.153 E.11133
G1 X131.008 Y94.789 E.01946
G1 X131.008 Y126.383 E.94105
G1 X130.862 Y127.021 E.01951
G1 X130.836 Y129.783 E.08227
G1 X130.555 Y130.796 E.03132
G1 X130.039 Y131.674 E.03033
G1 X129.121 Y132.532 E.03744
G1 X127.86 Y133.198 E.04248
G1 X126.99 Y133.398 E.02659
G1 X126.185 Y133.414 E.02397
G1 X124.848 Y133.057 E.04121
G1 X121.851 Y131.327 E.1031
G1 X121.568 Y131.212 E.00909
G1 X100.285 Y118.924 E.73203
G1 X100.026 Y118.816 E.00836
G1 X90.774 Y113.475 E.31821
G1 X89.939 Y112.685 E.03421
G1 X89.357 Y111.679 E.03463
G1 X89.101 Y110.619 E.0325
G1 X89.092 Y109.434 E.0353
G1 X89.473 Y108.055 E.04261
G1 X89.998 Y107.259 E.02839
G1 X90.309 Y107.462 F9000
G1 F1200
G1 X90.987 Y106.837 E.02747
G1 X100.053 Y101.602 E.31183
G1 X100.524 Y101.433 E.01492
G1 X125.008 Y87.285 E.84229
G1 X125.993 Y86.991 E.03061
G1 X127.032 Y86.986 E.03097
G1 X128.098 Y87.314 E.03322
G1 X129.385 Y88.153 E.04576
G1 X129.82 Y88.664 E.01997
G1 X130.166 Y89.25 E.02029
G1 X130.485 Y90.44 E.03668
G1 X130.485 Y94.198 E.11193
G1 X130.631 Y94.812 E.01882
G1 X130.631 Y126.36 E.93969
G1 X130.485 Y126.975 E.01884
G1 X130.466 Y129.709 E.08143
G1 X130.217 Y130.627 E.02834
G1 X129.728 Y131.459 E.02874
G1 X128.923 Y132.21 E.0328
G1 X127.707 Y132.853 E.04096
G1 X126.928 Y133.025 E.02376
G1 X126.206 Y133.036 E.02151
G1 X125.015 Y132.718 E.0367
G1 X122.015 Y130.987 E.10318
G1 X121.745 Y130.878 E.00869
G1 X100.451 Y118.584 E.7324
G1 X100.203 Y118.483 E.00798
G1 X90.982 Y113.16 E.31713
G1 X90.22 Y112.432 E.03137
G1 X89.698 Y111.517 E.03138
G1 X89.473 Y110.555 E.02944
G1 X89.469 Y109.458 E.03266
G1 X89.805 Y108.236 E.03776
G1 X90.276 Y107.513 E.02572
G1 X90.589 Y107.713 F9000
G1 F1200
G1 X91.194 Y107.153 E.02456
G1 X100.226 Y101.937 E.31066
G1 X100.682 Y101.778 E.0144
G1 X125.177 Y87.623 E.84267
G1 X126.072 Y87.361 E.02777
G1 X127.003 Y87.363 E.02773
G1 X127.916 Y87.645 E.02848
G1 X129.116 Y88.419 E.04254
G1 X129.522 Y88.895 E.01862
G1 X129.828 Y89.419 E.01805
G1 X130.108 Y90.465 E.03226
G1 X130.108 Y94.244 E.11259
G1 X130.254 Y94.836 E.01815
G1 X130.254 Y126.336 E.93828
G1 X130.108 Y126.928 E.01815
G1 X130.095 Y129.634 E.08062
G1 X129.86 Y130.503 E.02681
G1 X129.419 Y131.242 E.02564
G1 X128.725 Y131.888 E.02824
G1 X127.554 Y132.507 E.03942
G1 X126.869 Y132.652 E.02087
G1 X126.228 Y132.659 E.01909
G1 X125.182 Y132.38 E.03224
G1 X122.179 Y130.646 E.1033
G1 X121.92 Y130.544 E.00827
G1 X100.615 Y118.243 E.73279
G1 X100.379 Y118.149 E.00758
G1 X91.191 Y112.845 E.31601
G1 X90.503 Y112.181 E.02848
G1 X90.041 Y111.358 E.02811
G1 X89.846 Y110.493 E.0264
G1 X89.846 Y109.484 E.03007
G1 X90.138 Y108.415 E.033
G1 X90.556 Y107.764 E.02305
G1 X90.87 Y107.963 F9000
G1 F1200
G1 X91.402 Y107.469 E.0216
G1 X100.398 Y102.273 E.30944
G1 X100.838 Y102.123 E.01387
G1 X125.346 Y87.961 E.84313
G1 X126.102 Y87.738 E.02345
G1 X126.922 Y87.733 E.02445
G1 X127.736 Y87.978 E.02532
G1 X128.849 Y88.687 E.0393
G1 X129.205 Y89.101 E.01626
G1 X129.489 Y89.587 E.01678
G1 X129.731 Y90.489 E.02782
G1 X129.731 Y94.293 E.1133
G1 X129.877 Y94.861 E.01746
G1 X129.877 Y126.311 E.93681
G1 X129.731 Y126.879 E.01745
G1 X129.725 Y129.56 E.07986
G1 X129.503 Y130.378 E.02525
G1 X129.111 Y131.023 E.0225
G1 X128.526 Y131.567 E.02376
G1 X127.403 Y132.16 E.03785
G1 X126.814 Y132.279 E.01791
G1 X126.252 Y132.282 E.01674
G1 X125.35 Y132.041 E.02781
G1 X122.341 Y130.304 E.10347
G1 X122.095 Y130.21 E.00784
G1 X100.778 Y117.902 E.7332
G1 X100.554 Y117.815 E.00716
G1 X91.399 Y112.53 E.31489
G1 X90.818 Y111.972 E.02399
G1 X90.383 Y111.198 E.02644
G1 X90.223 Y110.473 E.02211
G1 X90.223 Y109.508 E.02873
G1 X90.472 Y108.592 E.02829
G1 X90.838 Y108.013 E.0204
G1 X91.148 Y108.218 F9000
G1 F1200
G1 X91.609 Y107.784 E.01885
G1 X100.569 Y102.61 E.30818
G1 X100.993 Y102.469 E.01331
G1 X125.515 Y88.299 E.8436
G1 X126.179 Y88.108 E.02059
G1 X126.893 Y88.109 E.02127
G1 X127.558 Y88.31 E.02068
G1 X128.582 Y88.954 E.03605
G1 X128.907 Y89.333 E.01486
G1 X129.15 Y89.754 E.01448
G1 X129.354 Y90.514 E.02344
G1 X129.354 Y94.344 E.11408
G1 X129.5 Y94.886 E.01674
G1 X129.5 Y126.286 E.93527
G1 X129.354 Y126.828 E.01674
G1 X129.354 Y129.486 E.07916
G1 X129.147 Y130.252 E.02365
G1 X128.804 Y130.802 E.0193
G1 X128.328 Y131.245 E.01936
G1 X127.253 Y131.813 E.03623
G1 X126.763 Y131.905 E.01486
G1 X126.277 Y131.905 E.01448
G1 X125.517 Y131.702 E.02344
G1 X122.501 Y129.961 E.10371
G1 X122.27 Y129.875 E.00737
G1 X100.939 Y117.56 E.73364
G1 X100.729 Y117.48 E.00671
G1 X91.608 Y112.215 E.31368
G1 X91.102 Y111.722 E.02105
G1 X90.727 Y111.041 E.02315
G1 X90.6 Y110.453 E.01792
G1 X90.6 Y109.533 E.02741
G1 X90.807 Y108.767 E.02365
G1 X91.117 Y108.269 E.01747
G1 X91.428 Y108.472 F9000
G1 F1200
G1 X91.818 Y108.099 E.01609
G1 X100.739 Y102.947 E.30686
G1 X101.146 Y102.816 E.01272
G1 X125.684 Y88.637 E.84415
G1 X126.209 Y88.484 E.01629
G1 X126.816 Y88.479 E.01807
G1 X127.382 Y88.645 E.01758
G1 X128.317 Y89.224 E.03276
G1 X128.59 Y89.538 E.01238
G1 X128.811 Y89.921 E.01318
G1 X128.977 Y90.539 E.01905
G1 X128.977 Y94.397 E.11494
G1 X129.123 Y94.914 E.01598
G1 X129.123 Y126.258 E.93365
G1 X128.977 Y126.775 E.01598
G1 X128.977 Y129.461 E.08002
G1 X128.811 Y130.08 E.01909
G1 X128.526 Y130.547 E.0163
G1 X128.127 Y130.925 E.01638
G1 X127.152 Y131.449 E.03296
G1 X126.744 Y131.528 E.01238
G1 X126.301 Y131.528 E.01318
G1 X125.684 Y131.363 E.01905
G1 X122.66 Y129.617 E.10402
G1 X122.442 Y129.539 E.00687
G1 X101.098 Y117.216 E.73413
G1 X100.902 Y117.145 E.00622
G1 X91.818 Y111.901 E.31241
G1 X91.388 Y111.475 E.01803
G1 X91.073 Y110.888 E.01985
G1 X90.977 Y110.434 E.01382
G1 X90.977 Y109.558 E.0261
G1 X91.143 Y108.939 E.01909
G1 X91.397 Y108.524 E.0145
G1 X91.71 Y108.724 F9000
G1 F1200
G1 X92.028 Y108.414 E.01323
G1 X100.909 Y103.285 E.30548
G1 X101.297 Y103.164 E.01211
G1 X125.851 Y88.976 E.84471
G1 X126.284 Y88.855 E.01338
G1 X126.787 Y88.856 E.01498
G1 X127.207 Y88.98 E.01307
G1 X128.055 Y89.496 E.02955
G1 X128.273 Y89.743 E.00983
G1 X128.473 Y90.088 E.01186
G1 X128.6 Y90.563 E.01466
G1 X128.6 Y94.454 E.11589
G1 X128.746 Y94.943 E.01519
G1 X128.746 Y126.229 E.93193
G1 X128.6 Y126.718 E.01519
G1 X128.6 Y129.437 E.08097
G1 X128.473 Y129.91 E.01462
G1 X128.244 Y130.295 E.01334
G1 X127.922 Y130.608 E.01336
G1 X127.047 Y131.085 E.02969
G1 X126.724 Y131.151 E.00983
G1 X126.326 Y131.151 E.01186
G1 X125.851 Y131.024 E.01465
G1 X122.815 Y129.271 E.10442
G1 X122.614 Y129.203 E.00633
G1 X101.254 Y116.871 E.73466
G1 X101.073 Y116.808 E.00569
G1 X92.03 Y111.587 E.31105
G1 X91.677 Y111.232 E.01492
G1 X91.42 Y110.739 E.01656
G1 X91.354 Y110.416 E.00982
G1 X91.354 Y109.582 E.02482
G1 X91.481 Y109.108 E.01462
G1 X91.679 Y108.775 E.01155
G1 X91.995 Y108.971 F9000
G1 F1200
G1 X92.239 Y108.727 E.01026
G1 X101.077 Y103.623 E.30401
G1 X101.446 Y103.514 E.01146
G1 X126.017 Y89.315 E.8453
G1 X126.353 Y89.226 E.01035
G1 X126.753 Y89.232 E.01193
G1 X127.035 Y89.316 E.00874
G1 X127.795 Y89.771 E.02641
G1 X127.957 Y89.95 E.00719
G1 X128.134 Y90.255 E.01049
G1 X128.223 Y90.588 E.01026
G1 X128.223 Y94.514 E.11694
G1 X128.369 Y94.973 E.01435
G1 X128.369 Y126.199 E.9301
G1 X128.223 Y126.658 E.01435
G1 X128.223 Y129.412 E.08203
G1 X128.134 Y129.745 E.01026
G1 X127.958 Y130.048 E.01044
G1 X127.714 Y130.292 E.01028
G1 X126.939 Y130.723 E.02642
G1 X126.703 Y130.774 E.00719
G1 X126.351 Y130.774 E.01049
G1 X126.018 Y130.685 E.01026
G1 X122.966 Y128.923 E.10496
G1 X122.783 Y128.865 E.00573
G1 X101.406 Y116.523 E.73526
G1 X101.243 Y116.471 E.0051
G1 X92.239 Y111.273 E.30965
G1 X91.995 Y111.028 E.01031
G1 X91.782 Y110.631 E.01341
G1 X91.731 Y110.395 E.00721
G1 X91.731 Y109.607 E.02346
G1 X91.82 Y109.274 E.01026
G1 X91.965 Y109.023 E.00865
G1 X92.292 Y109.211 F9000
G1 F1200
G1 X92.449 Y109.041 E.00689
G1 X101.244 Y103.962 E.30252
G1 X101.592 Y103.865 E.01077
G1 X126.185 Y89.654 E.84603
G1 X126.374 Y89.603 E.00583
G1 X126.721 Y89.609 E.01034
G1 X126.863 Y89.652 E.00444
G1 X127.541 Y90.05 E.0234
G1 X127.643 Y90.159 E.00444
G1 X127.795 Y90.422 E.00906
G1 X127.846 Y90.613 E.00587
G1 X127.846 Y94.579 E.11813
G1 X127.992 Y95.006 E.01346
G1 X127.992 Y126.166 E.92812
G1 X127.846 Y126.593 E.01346
G1 X127.846 Y129.387 E.08322
G1 X127.795 Y129.577 E.00587
G1 X127.644 Y129.838 E.00897
G1 X127.505 Y129.977 E.00585
G1 X126.825 Y130.363 E.02331
G1 X126.68 Y130.397 E.00444
G1 X126.376 Y130.397 E.00906
G1 X126.185 Y130.346 E.00587
G1 X123.112 Y128.572 E.10569
G1 X122.949 Y128.525 E.00505
G1 X101.551 Y116.171 E.73598
G1 X101.408 Y116.131 E.00442
G1 X92.449 Y110.959 E.30813
G1 X92.311 Y110.821 E.00582
G1 X92.142 Y110.517 E.01034
G1 X92.108 Y110.371 E.00446
G1 X92.108 Y109.632 E.02203
G1 X92.159 Y109.441 E.00587
G1 X92.262 Y109.263 E.00613
G1 X92.589 Y109.452 F9000
G1 F1200
G1 X92.659 Y109.355 E.00355
G1 X101.416 Y104.298 E.3012
G1 X101.563 Y104.253 E.0046
G1 X101.687 Y104.246 E.00368
G1 X126.352 Y89.993 E.84853
G1 X126.4 Y89.98 E.00148
G1 X126.7 Y89.993 E.00894
G1 X127.295 Y90.336 E.02047
G1 X127.33 Y90.372 E.00148
G1 X127.469 Y90.638 E.00894
G1 X127.469 Y94.72 E.12161
G1 X127.534 Y94.814 E.00341
G1 X127.615 Y95.04 E.00715
G1 X127.615 Y126.132 E.9261
G1 X127.534 Y126.358 E.00715
G1 X127.469 Y126.452 E.00341
G1 X127.469 Y129.362 E.0867
G1 X127.456 Y129.41 E.00148
G1 X127.295 Y129.663 E.00893
G1 X126.7 Y130.007 E.02047
G1 X126.4 Y130.02 E.00893
G1 X126.352 Y130.007 E.00148
G1 X123.248 Y128.215 E.10675
G1 X123.11 Y128.183 E.00425
G1 X101.684 Y115.812 E.73694
G1 X101.566 Y115.787 E.00357
G1 X92.659 Y110.645 E.30635
G1 X92.498 Y110.392 E.00893
G1 X92.485 Y110.344 E.00148
G1 X92.485 Y109.657 E.02047
G1 X92.559 Y109.504 E.00505
G1 X92.885 Y109.692 F9000
G1 F1200
G1 X92.913 Y109.644 E.00165
G1 X101.58 Y104.639 E.29813
G1 X101.782 Y104.626 E.00604
G1 X126.475 Y90.357 E.84949
G1 X126.576 Y90.357 E.00301
G1 X127.041 Y90.625 E.01598
G1 X127.092 Y90.713 E.00301
G1 X127.092 Y94.896 E.12459
G1 X127.209 Y95.013 E.00494
G1 X127.238 Y95.082 E.00223
G1 X127.238 Y126.09 E.9236
G1 X127.209 Y126.159 E.00223
G1 X127.092 Y126.276 E.00494
G1 X127.092 Y129.287 E.08968
G1 X127.041 Y129.375 E.00301
G1 X126.577 Y129.643 E.01598
G1 X126.476 Y129.643 E.00301
G1 X123.363 Y127.846 E.10707
G1 X123.257 Y127.832 E.00317
G1 X101.766 Y115.425 E.73916
G1 X101.693 Y115.425 E.00217
G1 X92.913 Y110.356 E.302
G1 X92.862 Y110.268 E.00301
G1 X92.862 Y109.746 E.01556
G1 X93.239 Y109.891 F9000
G1 F1200
G1 X101.703 Y105.003 E.29114
G1 X101.883 Y105.003 E.00536
G1 X126.526 Y90.763 E.84775
G1 X126.715 Y90.872 E.00649
G1 X126.715 Y95.052 E.1245
G1 X126.861 Y95.198 E.00615
G1 X126.861 Y125.974 E.91672
G1 X126.715 Y126.12 E.00615
G1 X126.715 Y129.128 E.08959
G1 X126.526 Y129.237 E.00648
G1 X123.4 Y127.432 E.10752
G1 X123.344 Y127.447 E.00172
G1 X101.78 Y114.998 E.74168
G1 X101.744 Y115.019 E.00125
G1 X93.239 Y110.109 E.2925
G1 X93.239 Y109.951 E.0047
G1 X93.848 Y110 F9000
;TYPE:External perimeter
G1 F1200
G1 X101.754 Y105.434 E.27194
G1 X101.844 Y105.486 E.0031
G1 X126.316 Y91.345 E.84188
G1 X126.316 Y95.486 E.12334
G1 X126.462 Y95.486 E.00435
G1 X126.462 Y125.686 E.89955
G1 X126.316 Y125.686 E.00435
G1 X126.316 Y128.655 E.08844
G1 X123.31 Y126.92 E.10339
G1 X123.29 Y126.956 E.00123
G1 X101.534 Y114.395 E.74829
G1 X101.534 Y114.437 E.00125
G1 X93.9 Y110.03 E.26256
G1 X94.242 Y109.93 F9000
G1 E-3.5 F3600
;WIPE_START
G1 F7200
G1 X96.489 Y108.515 E-1.425
;WIPE_END
G1 E-.075 F3600
G1 X125.939 Y95.863 F9000
G1 E5 F2400
;TYPE:Perimeter
G1 F1200
G1 X126.085 Y95.863 E.00435
G1 X126.085 Y125.309 E.87709
G1 X125.939 Y125.309 E.00435
G1 X125.939 Y128.002 E.08022
G1 X123.166 Y126.402 E.09536
G1 X123.146 Y126.438 E.00122
G1 X101.157 Y113.742 E.75632
G1 X101.157 Y113.784 E.00125
G1 X94.602 Y110 E.22545
G1 X101.754 Y105.869 E.24601
G1 X101.844 Y105.921 E.0031
G1 X125.939 Y91.998 E.82891
G1 X125.939 Y95.803 E.11333
G1 E-3.5 F3600
;WIPE_START
G1 F7200
G1 X126.085 Y95.863 E-.07498
G1 X126.085 Y98.705 E-1.35002
;WIPE_END
G1 E-.075 F3600
G1 X125.708 Y121.001 F9000
G1 E5 F2400
G1 F1200
G1 X125.708 Y124.932 E.1171
G1 X125.562 Y124.932 E.00435
G1 X125.562 Y127.349 E.072
G1 X123.023 Y125.883 E.08733
G1 X123.003 Y125.919 E.00122
G1 X120.095 Y124.24 E.10002
G1 X125.656 Y121.031 E.19126
G1 E-3.5 F3600
;WIPE_START
G1 F7200
G1 X125.696 Y124.03 E-1.425
;WIPE_END
G1 E-.075 F3600
G1 X120.23 Y95.733 F9000
G1 E5 F2400
G1 F1200
G1 X125.562 Y92.652 E.18343
G1 X125.562 Y96.24 E.10688
G1 X125.708 Y96.24 E.00435
G1 X125.708 Y98.997 E.08213
G1 X120.14 Y95.785 E.19147
G1 X120.178 Y95.763 E.0013
G1 X120.02 Y96.586 F9000
;TYPE:External perimeter
G1 F1200
G1 X125.082 Y99.507 E.17408
G1 X125.082 Y120.491 E.62504
G1 X119.966 Y123.444 E.17595
