; generated by PrusaSlicer 2.4.0+win64 on 2022-04-19 at 10:19:23 UTC

; 

; external perimeters extrusion width = 0.45mm
; perimeters extrusion width = 0.45mm
; infill extrusion width = 0.45mm
; solid infill extrusion width = 0.45mm
; top infill extrusion width = 0.45mm
; first layer extrusion width = 0.42mm

M201 X500 Y500 Z100 E5000 ; sets maximum accelerations, mm/sec^2
M203 X500 Y500 Z10 E60 ; sets maximum feedrates, mm/sec
M204 P500 R1000 T500 ; sets acceleration (P, T) and retract acceleration (R), mm/sec^2
M205 X8.00 Y8.00 Z0.40 E5.00 ; sets the jerk limits, mm/sec
M205 S0 T0 ; sets the minimum extruding and travel feed rate, mm/sec
M107
;TYPE:Custom
G90 ; use absolute coordinates
M83 ; extruder relative mode
M140 S80 ; set final bed temp
M104 S150 ; set temporary nozzle temp to prevent oozing during homing
G4 S10 ; allow partial nozzle warmup
G28 ; home all axis
G1 Z50 F240
G1 X2 Y10 F3000
M104 S235 ; set final nozzle temp
M190 S80 ; wait for bed temp to stabilize
M109 S235 ; wait for nozzle temp to stabilize
G1 Z0.28 F240
G92 E0
G1 Y140 E10 F1500 ; prime the nozzle
G1 X2.3 F5000
G92 E0
G1 Y10 E10 F1200 ; prime the nozzle
G92 E0
G21 ; set units to millimeters
G90 ; use absolute coordinates
M83 ; use relative distances for extrusion
; Filament gcode
M107
;LAYER_CHANGE
;Z:0.2
;HEIGHT:0.2
;BEFORE_LAYER_CHANGE
G92 E0
;0.2


G1 E-5 F3600
G1 Z.1 F9000
;AFTER_LAYER_CHANGE
;0.2
G1 X87.207 Y104.189
G1 E5 F2400
M204 S500
;TYPE:Skirt/Brim
;WIDTH:0.42
G1 F1200
G1 X124.516 Y82.649 E1.2832
G1 X126.084 Y82.198 E.0486
G1 X127.893 Y82.649 E.05553
G1 X132.893 Y85.536 E.17197
G1 X134.067 Y86.668 E.0486
G1 X134.581 Y88.46 E.05553
G1 X134.581 Y131.54 E1.2832
G1 X134.187 Y133.123 E.0486
G1 X132.893 Y134.465 E.05553
G1 X127.893 Y137.351 E.17197
G1 X126.325 Y137.802 E.0486
G1 X124.516 Y137.351 E.05553
G1 X87.207 Y115.811 E1.2832
G1 X86.033 Y114.679 E.0486
G1 X85.519 Y112.887 E.05553
G1 X85.519 Y107.113 E.17197
G1 X85.913 Y105.53 E.0486
G1 X87.166 Y104.232 E.05374
G1 E-3.5 F3600
;WIPE_START
G1 F7200
G1 X89.763 Y102.731 E-1.425
;WIPE_END
G1 E-.075 F3600
G1 X90.217 Y106.951 F9000
G1 E5 F2400
G1 F1200
G1 X91.044 Y106.204 E.03318
G1 X124.349 Y86.975 E1.14552
G1 X125.563 Y86.611 E.03775
G1 X126.824 Y86.606 E.03757
G1 X128.146 Y87.02 E.04125
G1 X129.603 Y87.99 E.05214
G1 X130.113 Y88.593 E.02353
G1 X130.52 Y89.278 E.02372
G1 X130.918 Y90.756 E.04561
G1 X130.918 Y129.244 E1.14644
G1 X130.508 Y130.747 E.04639
G1 X130.03 Y131.521 E.0271
G1 X129.4 Y132.188 E.02731
G1 X127.425 Y133.273 E.06714
G1 X126.637 Y133.415 E.02385
G1 X125.839 Y133.425 E.02375
G1 X124.359 Y133.03 E.04564
G1 X91.033 Y113.79 E1.14622
G1 X90.128 Y112.939 E.03701
G1 X89.484 Y111.843 E.03786
G1 X89.197 Y110.685 E.03555
G1 X89.182 Y109.41 E.03798
G1 X89.61 Y107.872 E.04755
G1 X90.184 Y107.001 E.03107
G1 X90.499 Y107.209 F9000
G1 F1200
G1 X91.249 Y106.521 E.03032
G1 X124.518 Y87.313 E1.14426
G1 X125.643 Y86.98 E.03494
G1 X126.794 Y86.983 E.03429
G1 X127.96 Y87.35 E.03642
G1 X129.333 Y88.254 E.04896
G1 X129.815 Y88.824 E.02223
G1 X130.182 Y89.447 E.02154
G1 X130.54 Y90.781 E.04115
G1 X130.54 Y129.219 E1.14495
G1 X130.173 Y130.572 E.04175
G1 X129.719 Y131.306 E.02569
G1 X129.147 Y131.906 E.02471
G1 X127.326 Y132.908 E.0619
G1 X126.615 Y133.038 E.02153
G1 X125.86 Y133.048 E.0225
G1 X124.526 Y132.692 E.04114
G1 X91.241 Y113.475 E1.14481
G1 X90.407 Y112.685 E.03421
G1 X89.824 Y111.679 E.03463
G1 X89.569 Y110.618 E.0325
G1 X89.56 Y109.433 E.0353
G1 X89.941 Y108.055 E.04261
G1 X90.466 Y107.259 E.0284
G1 X90.777 Y107.462 F9000
G1 F1200
G1 X91.456 Y106.837 E.02747
G1 X124.688 Y87.651 E1.143
G1 X125.672 Y87.357 E.0306
G1 X126.711 Y87.352 E.03096
G1 X127.777 Y87.68 E.03322
G1 X129.064 Y88.52 E.04575
G1 X129.498 Y89.03 E.01996
G1 X129.844 Y89.616 E.02028
G1 X130.163 Y90.806 E.03668
G1 X130.163 Y129.195 E1.14347
G1 X129.837 Y130.399 E.03716
G1 X129.432 Y131.06 E.02311
G1 X128.894 Y131.626 E.02324
G1 X127.228 Y132.542 E.05664
G1 X126.564 Y132.664 E.02013
G1 X125.883 Y132.671 E.02028
G1 X124.693 Y132.353 E.03668
G1 X91.45 Y113.16 E1.14339
G1 X90.688 Y112.432 E.03137
G1 X90.166 Y111.517 E.03138
G1 X89.941 Y110.554 E.02945
G1 X89.937 Y109.458 E.03266
G1 X90.273 Y108.236 E.03776
G1 X90.745 Y107.512 E.02572
G1 X91.057 Y107.713 F9000
G1 F1200
G1 X91.662 Y107.153 E.02456
G1 X124.856 Y87.989 E1.14168
G1 X125.751 Y87.727 E.02777
G1 X126.682 Y87.729 E.02772
G1 X127.595 Y88.011 E.02847
G1 X128.795 Y88.785 E.04254
G1 X129.2 Y89.261 E.01862
G1 X129.506 Y89.785 E.01805
G1 X129.786 Y90.83 E.03225
G1 X129.786 Y129.17 E1.142
G1 X129.501 Y130.225 E.03256
G1 X129.121 Y130.846 E.02168
G1 X128.643 Y131.343 E.02057
G1 X127.13 Y132.177 E.05144
G1 X126.512 Y132.29 E.01872
G1 X125.906 Y132.294 E.01805
G1 X124.86 Y132.014 E.03225
G1 X91.659 Y112.845 E1.14196
G1 X90.971 Y112.181 E.02848
G1 X90.509 Y111.358 E.02811
G1 X90.314 Y110.493 E.0264
G1 X90.314 Y109.483 E.03008
G1 X90.606 Y108.415 E.033
G1 X91.025 Y107.764 E.02305
G1 X91.339 Y107.962 F9000
G1 F1200
G1 X91.87 Y107.469 E.0216
G1 X125.026 Y88.326 E1.14038
G1 X125.781 Y88.103 E.02345
G1 X126.601 Y88.099 E.02445
G1 X127.415 Y88.344 E.02532
G1 X128.528 Y89.053 E.0393
G1 X128.883 Y89.467 E.01626
G1 X129.168 Y89.953 E.01678
G1 X129.409 Y90.855 E.02781
G1 X129.409 Y129.145 E1.14052
G1 X129.164 Y130.053 E.02802
G1 X128.835 Y130.6 E.01902
G1 X128.39 Y131.062 E.01908
G1 X127.03 Y131.812 E.04627
G1 X126.493 Y131.913 E.0163
G1 X125.929 Y131.916 E.01678
G1 X125.027 Y131.675 E.02781
G1 X91.867 Y112.529 E1.14055
G1 X91.286 Y111.972 E.02399
G1 X90.851 Y111.198 E.02644
G1 X90.691 Y110.473 E.02211
G1 X90.691 Y109.508 E.02873
G1 X90.94 Y108.592 E.02829
G1 X91.306 Y108.013 E.0204
G1 X91.617 Y108.218 F9000
G1 F1200
G1 X92.078 Y107.784 E.01885
G1 X125.194 Y88.665 E1.13901
G1 X125.858 Y88.473 E.02059
G1 X126.572 Y88.475 E.02127
G1 X127.236 Y88.676 E.02068
G1 X128.26 Y89.32 E.03604
G1 X128.586 Y89.699 E.01486
G1 X128.829 Y90.12 E.01448
G1 X129.032 Y90.88 E.02344
G1 X129.032 Y129.12 E1.13905
G1 X128.828 Y129.881 E.02347
G1 X128.523 Y130.386 E.01756
G1 X128.14 Y130.778 E.01632
G1 X126.931 Y131.447 E.04117
G1 X126.441 Y131.54 E.01486
G1 X125.955 Y131.54 E.01448
G1 X125.195 Y131.336 E.02344
G1 X92.076 Y112.215 E1.1391
G1 X91.57 Y111.722 E.02105
G1 X91.195 Y111.041 E.02315
G1 X91.068 Y110.453 E.01792
G1 X91.068 Y109.533 E.02741
G1 X91.275 Y108.767 E.02365
G1 X91.585 Y108.269 E.01747
G1 X91.896 Y108.472 F9000
G1 F1200
G1 X92.286 Y108.099 E.01609
G1 X125.363 Y89.002 E1.13765
G1 X125.888 Y88.85 E.01629
G1 X126.494 Y88.845 E.01806
G1 X127.061 Y89.011 E.01758
G1 X127.996 Y89.59 E.03276
G1 X128.268 Y89.904 E.01238
G1 X128.49 Y90.287 E.01318
G1 X128.655 Y90.904 E.01905
G1 X128.655 Y129.096 E1.13758
G1 X128.49 Y129.712 E.01902
G1 X128.237 Y130.139 E.01478
G1 X127.89 Y130.495 E.01481
G1 X126.829 Y131.083 E.03612
G1 X126.422 Y131.162 E.01236
G1 X125.979 Y131.162 E.01318
G1 X125.362 Y130.997 E.01905
G1 X92.286 Y111.901 E1.13762
G1 X91.856 Y111.475 E.01803
G1 X91.541 Y110.888 E.01985
G1 X91.445 Y110.434 E.01382
G1 X91.445 Y109.558 E.0261
G1 X91.611 Y108.939 E.01909
G1 X91.865 Y108.523 E.0145
G1 X92.178 Y108.723 F9000
G1 F1200
G1 X92.496 Y108.413 E.01323
G1 X125.53 Y89.341 E1.13618
G1 X125.962 Y89.22 E.01338
G1 X126.465 Y89.222 E.01497
G1 X126.886 Y89.346 E.01307
G1 X127.733 Y89.862 E.02955
G1 X127.952 Y90.109 E.00983
G1 X128.151 Y90.454 E.01186
G1 X128.278 Y90.929 E.01465
G1 X128.278 Y129.071 E1.13611
G1 X128.151 Y129.546 E.01465
G1 X127.95 Y129.894 E.01195
G1 X127.639 Y130.212 E.01326
G1 X126.725 Y130.72 E.03115
G1 X126.402 Y130.785 E.00981
G1 X126.004 Y130.785 E.01186
G1 X125.529 Y130.658 E.01465
G1 X92.497 Y111.587 E1.1361
G1 X92.145 Y111.232 E.01492
G1 X91.888 Y110.739 E.01656
G1 X91.822 Y110.416 E.00982
G1 X91.822 Y109.582 E.02483
G1 X91.949 Y109.108 E.01462
G1 X92.147 Y108.775 E.01155
G1 X92.464 Y108.971 F9000
G1 F1200
G1 X92.707 Y108.727 E.01026
G1 X125.696 Y89.681 E1.13463
G1 X126.032 Y89.592 E.01035
G1 X126.432 Y89.598 E.01193
G1 X126.713 Y89.682 E.00874
G1 X127.474 Y90.137 E.0264
G1 X127.636 Y90.316 E.00719
G1 X127.812 Y90.621 E.01049
G1 X127.901 Y90.954 E.01026
G1 X127.901 Y129.046 E1.13464
G1 X127.812 Y129.379 E.01026
G1 X127.637 Y129.682 E.01044
G1 X127.392 Y129.926 E.01028
G1 X126.617 Y130.357 E.02642
G1 X126.381 Y130.408 E.00719
G1 X126.029 Y130.408 E.01049
G1 X125.696 Y130.319 E.01026
G1 X92.707 Y111.273 E1.13463
G1 X92.463 Y111.028 E.01031
G1 X92.25 Y110.631 E.01341
G1 X92.199 Y110.395 E.00721
G1 X92.199 Y109.607 E.02346
G1 X92.288 Y109.274 E.01026
G1 X92.434 Y109.023 E.00866
G1 X92.76 Y109.211 F9000
G1 F1200
G1 X92.917 Y109.041 E.00689
G1 X125.863 Y90.02 E1.13317
G1 X126.052 Y89.969 E.00582
G1 X126.399 Y89.975 E.01034
G1 X126.542 Y90.018 E.00444
G1 X127.219 Y90.416 E.0234
G1 X127.321 Y90.525 E.00444
G1 X127.473 Y90.788 E.00906
G1 X127.524 Y90.979 E.00587
G1 X127.524 Y129.021 E1.13317
G1 X127.473 Y129.212 E.00587
G1 X127.322 Y129.473 E.00897
G1 X127.183 Y129.611 E.00585
G1 X126.503 Y129.997 E.02331
G1 X126.358 Y130.031 E.00444
G1 X126.053 Y130.031 E.00906
G1 X125.863 Y129.98 E.00587
G1 X92.917 Y110.959 E1.13317
G1 X92.779 Y110.821 E.00582
G1 X92.61 Y110.517 E.01034
G1 X92.576 Y110.371 E.00446
G1 X92.576 Y109.632 E.02203
G1 X92.627 Y109.441 E.00587
G1 X92.73 Y109.263 E.00613
G1 X93.057 Y109.452 F9000
G1 F1200
G1 X93.127 Y109.355 E.00355
G1 X126.03 Y90.359 E1.13169
G1 X126.078 Y90.346 E.00148
G1 X126.378 Y90.359 E.00893
G1 X126.973 Y90.702 E.02047
G1 X127.008 Y90.737 E.00148
G1 X127.147 Y91.003 E.00893
G1 X127.147 Y128.997 E1.13169
G1 X127.008 Y129.263 E.00893
G1 X126.378 Y129.641 E.0219
G1 X126.33 Y129.654 E.00148
G1 X126.03 Y129.641 E.00893
G1 X93.127 Y110.645 E1.13169
G1 X93.092 Y110.61 E.00148
G1 X92.953 Y110.344 E.00893
G1 X92.953 Y109.656 E.02047
G1 X93.027 Y109.504 E.00505
G1 X93.353 Y109.692 F9000
G1 F1200
G1 X93.381 Y109.644 E.00165
G1 X126.154 Y90.723 E1.1272
G1 X126.255 Y90.723 E.00301
G1 X126.719 Y90.991 E.01598
G1 X126.77 Y91.079 E.00301
G1 X126.77 Y128.921 E1.1272
G1 X126.719 Y129.009 E.00301
G1 X126.255 Y129.277 E.01598
G1 X126.154 Y129.277 E.00301
G1 X93.381 Y110.356 E1.1272
G1 X93.33 Y110.268 E.00301
G1 X93.33 Y109.746 E.01556
G1 X93.707 Y109.891 F9000
G1 F1200
G1 X126.204 Y91.129 E1.11771
G1 X126.393 Y91.238 E.00648
G1 X126.393 Y128.762 E1.11771
G1 X126.204 Y128.871 E.00648
G1 X93.707 Y110.109 E1.11771
G1 X93.707 Y109.951 E.0047
G1 X94.316 Y110 F9000
;TYPE:External perimeter
G1 F1200
G1 X125.994 Y91.711 E1.08956
G1 X125.994 Y128.289 E1.08956
G1 X94.368 Y110.03 E1.08777
G1 X94.316 Y110.4 F9000
G1 E-3.5 F3600
;WIPE_START
G1 F7200
G1 X96.964 Y108.526 E-1.425
;WIPE_END
G1 E-.075 F3600
G1 X125.617 Y127.636 F9000
G1 E5 F2400
;TYPE:Perimeter
G1 F1200
G1 X95.07 Y110 E1.05065
G1 X125.617 Y92.364 E1.05065
G1 X125.617 Y127.576 E1.04886
G1 X125.24 Y126.983 F9000
G1 F1200
G1 X95.824 Y110 E1.01174
G1 X125.24 Y93.017 E1.01174
G1 X125.24 Y126.923 E1.00995
G1 E-3.5 F3600
;WIPE_START
G1 F7200
G1 X122.64 Y125.427 E-1.425
;WIPE_END
G1 E-.075 F3600
G1 X119.023 Y115.292 F9000
G1 E5 F2400
;TYPE:External perimeter
G1 F1200
G1 X118.014 Y115.831 E.03406
G1 X116.83 Y116.19 E.03685
G1 X115.599 Y116.311 E.03685
G1 X114.368 Y116.19 E.03685
G1 X113.184 Y115.831 E.03685
G1 X112.093 Y115.248 E.03685
G1 X111.136 Y114.463 E.03685
G1 X110.351 Y113.506 E.03685
G1 X109.768 Y112.415 E.03685
G1 X109.409 Y111.231 E.03685
G1 X109.288 Y110 E.03685
G1 X109.409 Y108.769 E.03685
G1 X109.768 Y107.585 E.03685
G1 X110.351 Y106.494 E.03685
G1 X111.136 Y105.537 E.03685
G1 X112.093 Y104.752 E.03685
G1 X113.184 Y104.169 E.03685
G1 X114.368 Y103.81 E.03685
G1 X115.599 Y103.688 E.03685
G1 X116.83 Y103.81 E.03685
G1 X118.014 Y104.169 E.03685
G1 X119.106 Y104.752 E.03685
G1 X120.062 Y105.537 E.03685
G1 X120.847 Y106.494 E.03685
G1 X121.43 Y107.585 E.03685
G1 X121.789 Y108.769 E.03685
G1 X121.911 Y110 E.03685
G1 X121.789 Y111.231 E.03685
G1 X121.43 Y112.415 E.03685
G1 X120.847 Y113.506 E.03685
G1 X120.062 Y114.463 E.03685
G1 X119.076 Y115.264 E.03784
G1 X119.048 Y115.691 F9000
G1 E-3.5 F3600
;WIPE_START
G1 F7200
G1 X118.014 Y115.831 E-.57165
G1 X116.83 Y116.19 E-.5877
G1 X116.274 Y116.245 E-.26565
;WIPE_END
G1 E-.075 F3600
G1 X115.155 Y103.353 F9000
G1 E5 F2400
;TYPE:Perimeter
G1 F1200
G1 X115.599 Y103.31 E.0133
G1 X116.904 Y103.438 E.03907
G1 X118.159 Y103.819 E.03907
G1 X119.316 Y104.437 E.03907
G1 X120.33 Y105.269 E.03907
G1 X121.162 Y106.283 E.03907
G1 X121.78 Y107.44 E.03907
G1 X122.161 Y108.695 E.03907
G1 X122.29 Y110 E.03907
G1 X122.161 Y111.305 E.03907
G1 X121.78 Y112.56 E.03907
G1 X121.162 Y113.717 E.03907
G1 X120.33 Y114.731 E.03907
G1 X119.316 Y115.563 E.03907
G1 X118.159 Y116.181 E.03907
G1 X116.904 Y116.562 E.03907
G1 X115.599 Y116.69 E.03907
G1 X114.294 Y116.562 E.03907
G1 X113.039 Y116.181 E.03907
G1 X111.882 Y115.563 E.03907
G1 X110.868 Y114.731 E.03907
G1 X110.036 Y113.717 E.03907
G1 X109.418 Y112.56 E.03907
G1 X109.037 Y111.305 E.03907
G1 X108.909 Y110 E.03907
G1 X109.037 Y108.695 E.03907
G1 X109.418 Y107.44 E.03907
G1 X110.036 Y106.283 E.03907
G1 X110.868 Y105.269 E.03907
G1 X111.882 Y104.437 E.03907
G1 X113.039 Y103.819 E.03907
G1 X114.294 Y103.438 E.03907
G1 X115.095 Y103.359 E.02398
G1 X115.118 Y102.978 F9000
G1 F1200
G1 X115.599 Y102.931 E.0144
G1 X116.978 Y103.067 E.04128
G1 X118.304 Y103.469 E.04128
G1 X119.527 Y104.122 E.04128
G1 X120.598 Y105.001 E.04128
G1 X121.477 Y106.073 E.04128
G1 X122.13 Y107.295 E.04128
G1 X122.533 Y108.621 E.04128
G1 X122.668 Y110 E.04128
G1 X122.533 Y111.379 E.04128
G1 X122.13 Y112.705 E.04128
G1 X121.477 Y113.927 E.04128
G1 X120.598 Y114.999 E.04128
G1 X119.527 Y115.878 E.04128
G1 X118.304 Y116.531 E.04128
G1 X116.978 Y116.933 E.04128
G1 X115.599 Y117.069 E.04128
G1 X114.22 Y116.933 E.04128
G1 X112.894 Y116.531 E.04128
G1 X111.672 Y115.878 E.04128
G1 X110.6 Y114.999 E.04128
G1 X109.721 Y113.927 E.04128
G1 X109.068 Y112.705 E.04128
G1 X108.666 Y111.379 E.04128
G1 X108.53 Y110 E.04128
G1 X108.666 Y108.621 E.04128
G1 X109.068 Y107.295 E.04128
G1 X109.721 Y106.073 E.04128
G1 X110.6 Y105.001 E.04128
G1 X111.672 Y104.122 E.04128
G1 X112.894 Y103.469 E.04128
G1 X114.22 Y103.067 E.04128
G1 X115.058 Y102.984 E.02509
G1 E-3.5 F3600
;WIPE_START
G1 F7200
G1 X115.599 Y102.931 E-.25819
G1 X116.978 Y103.067 E-.65827
G1 X118.003 Y103.377 E-.50855
;WIPE_END
G1 E-.075 F3600
G1 X125.127 Y93.963 F9000
G1 E5 F2400
;TYPE:Solid infill
;WIDTH:0.420751
G1 F1200
G1 X124.776 Y93.612 E.01483
G1 X124.437 Y93.807 E.01167
G1 X124.957 Y94.327 E.02196
G1 X124.957 Y94.862 E.01595
G1 X124.098 Y94.003 E.03626
G1 X123.759 Y94.198 E.01167
G1 X124.957 Y95.396 E.05056
G1 X124.957 Y95.93 E.01595
G1 X123.42 Y94.394 E.06486
G1 X123.082 Y94.589 E.01167
G1 X124.957 Y96.465 E.07916
G1 X124.957 Y96.999 E.01595
G1 X122.743 Y94.785 E.09346
G1 X122.404 Y94.981 E.01167
G1 X124.957 Y97.533 E.10775
G1 X124.957 Y98.068 E.01595
G1 X122.065 Y95.176 E.12205
G1 X121.727 Y95.372 E.01167
G1 X124.957 Y98.602 E.13635
G1 X124.957 Y99.136 E.01595
G1 X121.388 Y95.567 E.15065
G1 X121.049 Y95.763 E.01167
G1 X124.957 Y99.671 E.16495
G1 X124.957 Y100.205 E.01595
G1 X120.71 Y95.958 E.17925
G1 X120.372 Y96.154 E.01167
G1 X124.957 Y100.739 E.19354
G1 X124.957 Y101.274 E.01595
G1 X120.033 Y96.35 E.20784
G1 X119.694 Y96.545 E.01167
G1 X124.957 Y101.808 E.22214
G1 X124.957 Y102.342 E.01595
G1 X119.355 Y96.741 E.23644
G1 X119.017 Y96.936 E.01167
G1 X124.957 Y102.877 E.25074
G1 X124.957 Y103.411 E.01595
G1 X118.678 Y97.132 E.26504
G1 X118.339 Y97.328 E.01167
G1 X124.957 Y103.945 E.27933
G1 X124.957 Y104.48 E.01595
G1 X118 Y97.523 E.29363
G1 X117.662 Y97.719 E.01167
G1 X124.957 Y105.014 E.30793
G1 X124.957 Y105.548 E.01595
G1 X117.323 Y97.914 E.32223
G1 X116.984 Y98.11 E.01167
G1 X124.957 Y106.083 E.33653
G1 X124.957 Y106.617 E.01595
G1 X116.645 Y98.305 E.35083
G1 X116.307 Y98.501 E.01167
G1 X124.957 Y107.151 E.36512
G1 X124.957 Y107.686 E.01595
G1 X115.968 Y98.697 E.37942
G1 X115.629 Y98.892 E.01167
G1 X124.957 Y108.22 E.39372
G1 X124.957 Y108.754 E.01595
G1 X115.29 Y99.088 E.40802
G1 X114.952 Y99.283 E.01167
G1 X119.404 Y103.736 E.18794
G1 X119.685 Y103.886 E.00948
G1 X120.799 Y104.8 E.04302
G1 X121.713 Y105.915 E.04302
