; generated by PrusaSlicer 2.4.0+win64 on 2022-05-05 at 10:45:06 UTC

; 

; external perimeters extrusion width = 0.45mm
; perimeters extrusion width = 0.45mm
; infill extrusion width = 0.45mm
; solid infill extrusion width = 0.45mm
; top infill extrusion width = 0.45mm
; first layer extrusion width = 0.42mm

M201 X500 Y500 Z100 E5000 ; sets maximum accelerations, mm/sec^2
M203 X500 Y500 Z10 E60 ; sets maximum feedrates, mm/sec
M204 P500 R1000 T500 ; sets acceleration (P, T) and retract acceleration (R), mm/sec^2
M205 X8.00 Y8.00 Z0.40 E5.00 ; sets the jerk limits, mm/sec
M205 S0 T0 ; sets the minimum extruding and travel feed rate, mm/sec
M107
;TYPE:Custom
G90 ; use absolute coordinates
M83 ; extruder relative mode
M140 S80 ; set final bed temp
M104 S150 ; set temporary nozzle temp to prevent oozing during homing
G4 S10 ; allow partial nozzle warmup
G28 ; home all axis
G1 Z50 F240
G1 X2 Y10 F3000
M104 S235 ; set final nozzle temp
M190 S80 ; wait for bed temp to stabilize
M109 S235 ; wait for nozzle temp to stabilize
G1 Z0.28 F240
G92 E0
G1 Y140 E10 F1500 ; prime the nozzle
G1 X2.3 F5000
G92 E0
G1 Y10 E10 F1200 ; prime the nozzle
G92 E0
G21 ; set units to millimeters
G90 ; use absolute coordinates
M83 ; use relative distances for extrusion
; Filament gcode
M107
;LAYER_CHANGE
;Z:0.2
;HEIGHT:0.2
;BEFORE_LAYER_CHANGE
G92 E0
;0.2


G1 E-5 F3600
G1 Z.1 F9000
;AFTER_LAYER_CHANGE
;0.2
G1 X75.664 Y58.639
G1 E5 F2400
M204 S500
;TYPE:Skirt/Brim
;WIDTH:0.42
G1 F1200
G1 X76.797 Y57.465 E.0486
G1 X77.715 Y57.066 E.02981
G1 X81.716 Y55.994 E.12338
G1 X82.785 Y55.884 E.03203
G1 X116.126 Y57.82 E.99478
G1 X117.537 Y58.221 E.04369
G1 X128.345 Y64.067 E.36599
G1 X129.515 Y65.116 E.04682
G1 X175.142 Y131.073 E2.3889
G1 X175.673 Y132.317 E.04029
G1 X176.434 Y136.036 E.11306
G1 X176.05 Y138.401 E.07139
G1 X161.973 Y162.784 E.83864
G1 X160.116 Y164.3 E.07139
G1 X156.515 Y165.5 E.11306
G1 X155.196 Y165.663 E.03958
G1 X67.515 Y159.128 E2.61897
G1 X65.378 Y158.149 E.07002
G1 X62.449 Y155.22 E.12338
G1 X61.819 Y154.348 E.03203
G1 X46.825 Y124.506 E.99478
G1 X46.467 Y123.084 E.04369
G1 X46.126 Y110.801 E.36599
G1 X46.577 Y109.019 E.05476
G1 X75.634 Y58.691 E1.73101
G1 E-3.5 F3600
;WIPE_START
G1 F7200
G1 X76.797 Y57.465 E-.80263
G1 X77.715 Y57.066 E-.47543
G1 X78.013 Y56.986 E-.14694
;WIPE_END
G1 E-.075 F3600
G1 X78.339 Y61.503 F9000
G1 E5 F2400
G1 F1200
G1 X79.082 Y60.788 E.03072
G1 X80.117 Y60.228 E.03503
G1 X81.319 Y59.915 E.03702
G1 X82.524 Y59.917 E.03589
G1 X83.845 Y60.311 E.04105
G1 X86.025 Y61.57 E.07498
G1 X86.487 Y61.477 E.01404
G1 X115.71 Y61.587 E.87045
G1 X116.519 Y61.877 E.02561
G1 X117.278 Y62.299 E.02588
G1 X118.314 Y63.284 E.04256
G1 X120.755 Y67.448 E.14379
G1 X121.641 Y66.952 E.03025
G1 X122.545 Y66.668 E.02821
G1 X123.861 Y66.608 E.03924
G1 X125.046 Y66.878 E.03619
G1 X126.064 Y67.37 E.0337
G1 X127.267 Y68.527 E.0497
G1 X131.623 Y76.116 E.26064
G1 X131.945 Y77.447 E.04081
G1 X131.879 Y78.674 E.03659
G1 X131.475 Y80.037 E.04233
G1 X131.927 Y80.073 E.01351
G1 X133.225 Y80.466 E.04038
G1 X134.181 Y81.062 E.03355
G1 X134.934 Y81.849 E.03246
G1 X139.412 Y89.645 E.2678
G1 X139.691 Y90.84 E.03656
G1 X139.633 Y92.067 E.03658
G1 X139.22 Y93.458 E.04321
G1 X139.669 Y93.491 E.01342
G1 X140.928 Y93.865 E.03911
G1 X142.037 Y94.572 E.03916
G1 X142.812 Y95.452 E.03495
G1 X147.106 Y102.937 E.25704
G1 X147.403 Y103.977 E.03221
G1 X147.434 Y105.127 E.03427
G1 X147.144 Y106.364 E.03783
G1 X146.931 Y106.815 E.01486
G1 X148.317 Y107.146 E.04245
G1 X149.414 Y107.704 E.03665
G1 X150.441 Y108.693 E.04249
G1 X154.904 Y116.474 E.26718
G1 X155.168 Y117.529 E.03238
G1 X155.18 Y118.555 E.03057
G1 X154.849 Y119.9 E.04127
G1 X154.734 Y120.145 E.00806
G1 X171.101 Y132.405 E.60911
G1 X172.045 Y133.694 E.04759
G1 X172.292 Y134.201 E.01678
G1 X172.579 Y135.793 E.04819
G1 X172.584 Y136.033 E.00715
G1 X172.192 Y137.757 E.05266
G1 X159.509 Y159.724 E.75556
G1 X158.428 Y160.812 E.04569
G1 X157.646 Y161.246 E.02663
G1 X156.352 Y161.645 E.04033
G1 X155.609 Y161.683 E.02216
G1 X154.278 Y161.484 E.0401
G1 X133.376 Y152.552 E.67707
G1 X132.109 Y151.551 E.04807
G1 X131.43 Y150.571 E.03554
G1 X131.344 Y150.377 E.0063
G1 X128.558 Y150.377 E.08297
G1 X128.524 Y151.662 E.03827
G1 X128.202 Y152.701 E.0324
G1 X127.663 Y153.598 E.03118
G1 X126.565 Y154.66 E.04549
G1 X125.627 Y155.168 E.03178
G1 X124.378 Y155.474 E.03832
G1 X115.635 Y155.452 E.26043
G1 X114.32 Y155.065 E.04082
G1 X113.324 Y154.421 E.03532
G1 X112.322 Y153.379 E.04309
G1 X112.151 Y153.622 E.00885
G1 X111.243 Y154.529 E.03824
G1 X110.293 Y155.103 E.03306
G1 X108.886 Y155.474 E.04334
G1 X100.14 Y155.452 E.26051
G1 X98.825 Y155.065 E.04082
G1 X97.829 Y154.421 E.03532
G1 X96.827 Y153.379 E.04309
G1 X96.656 Y153.622 E.00885
G1 X95.748 Y154.529 E.03824
G1 X94.798 Y155.103 E.03307
G1 X93.439 Y155.468 E.0419
G1 X84.697 Y155.459 E.2604
G1 X83.331 Y155.065 E.04236
G1 X82.302 Y154.394 E.03658
G1 X81.321 Y153.36 E.04245
G1 X81.043 Y153.764 E.01462
G1 X80.21 Y154.569 E.03452
G1 X78.582 Y155.361 E.05392
G1 X77.809 Y155.472 E.02325
G1 X69.279 Y155.468 E.25409
G1 X68.102 Y155.175 E.03614
G1 X67.273 Y154.759 E.02762
G1 X65.927 Y153.447 E.056
G1 X65.427 Y152.512 E.03157
G1 X65.149 Y151.467 E.03221
G1 X65.125 Y148.701 E.08238
G1 X64.813 Y148.346 E.01408
G1 X50.325 Y123.066 E.8679
G1 X50.149 Y122.193 E.02653
G1 X50.128 Y121.273 E.0274
G1 X50.463 Y119.88 E.04268
G1 X52.861 Y115.663 E.14449
G1 X51.77 Y115.003 E.03797
G1 X50.922 Y114.056 E.03786
G1 X50.456 Y113.131 E.03086
G1 X50.174 Y112.083 E.03232
G1 X50.212 Y110.472 E.04799
G1 X50.562 Y109.445 E.03234
G1 X54.882 Y101.989 E.25665
G1 X55.838 Y101.047 E.03999
G1 X56.984 Y100.445 E.03856
G1 X58.032 Y100.178 E.03223
G1 X58.398 Y100.153 E.0109
G1 X58.249 Y99.835 E.01044
G1 X57.91 Y98.551 E.03957
G1 X57.901 Y97.438 E.03315
G1 X58.219 Y96.223 E.0374
G1 X62.571 Y88.645 E.26031
G1 X63.661 Y87.575 E.04549
G1 X64.717 Y87.033 E.03535
G1 X66.121 Y86.686 E.04309
G1 X65.996 Y86.417 E.00884
G1 X65.658 Y85.132 E.03958
G1 X65.648 Y84.019 E.03315
G1 X65.966 Y82.804 E.0374
G1 X70.318 Y75.226 E.26031
G1 X71.408 Y74.156 E.04548
G1 X72.504 Y73.599 E.03662
G1 X73.893 Y73.268 E.04254
G1 X73.663 Y72.78 E.01607
G1 X73.392 Y71.632 E.03511
G1 X73.544 Y69.828 E.05394
G1 X73.83 Y69.142 E.02215
G1 X78.2 Y61.636 E.25869
G1 X78.296 Y61.544 E.00395
G1 X78.551 Y61.813 F9000
G1 F1200
G1 X79.323 Y61.079 E.03172
G1 X80.274 Y60.572 E.03212
G1 X81.345 Y60.291 E.03298
G1 X82.445 Y60.287 E.03275
G1 X83.676 Y60.649 E.03822
G1 X85.962 Y61.969 E.07863
G1 X86.507 Y61.855 E.01658
G1 X115.613 Y61.953 E.86698
G1 X116.377 Y62.227 E.02417
G1 X117.073 Y62.616 E.02376
G1 X118.034 Y63.537 E.03965
G1 X120.618 Y67.961 E.15259
G1 X121.774 Y67.306 E.03958
G1 X122.635 Y67.036 E.02688
G1 X123.802 Y66.981 E.03481
G1 X124.94 Y67.24 E.03477
G1 X125.872 Y67.696 E.03089
G1 X126.953 Y68.738 E.04474
G1 X131.263 Y76.232 E.25752
G1 X131.567 Y77.457 E.03758
G1 X131.51 Y78.591 E.03382
G1 X131.211 Y79.622 E.03196
G1 X130.793 Y80.378 E.02575
G1 X131.843 Y80.442 E.03132
G1 X133.049 Y80.8 E.03748
G1 X133.927 Y81.341 E.03072
G1 X134.619 Y82.058 E.02968
G1 X139.052 Y89.76 E.26471
G1 X139.314 Y90.851 E.03342
G1 X139.264 Y91.985 E.03381
G1 X138.961 Y93.034 E.03252
G1 X138.544 Y93.803 E.02607
G1 X139.587 Y93.86 E.03113
G1 X140.748 Y94.198 E.03602
G1 X141.811 Y94.875 E.03753
G1 X142.495 Y95.656 E.03091
G1 X146.751 Y103.065 E.25451
G1 X147.027 Y104.012 E.02939
G1 X147.056 Y105.112 E.03279
G1 X146.783 Y106.254 E.03495
G1 X146.299 Y107.234 E.03258
G1 X147.163 Y107.25 E.02573
G1 X148.205 Y107.507 E.03196
G1 X149.216 Y108.026 E.03386
G1 X150.159 Y108.945 E.03922
G1 X154.563 Y116.638 E.26405
G1 X154.797 Y117.595 E.02936
G1 X154.803 Y118.533 E.02792
G1 X154.49 Y119.784 E.03842
G1 X154.249 Y120.253 E.0157
G1 X170.852 Y132.69 E.61789
G1 X171.73 Y133.901 E.04455
G1 X171.94 Y134.34 E.0145
G1 X172.205 Y135.842 E.04544
G1 X172.207 Y136.015 E.00514
G1 X171.851 Y137.593 E.04819
G1 X159.195 Y159.514 E.75398
G1 X158.22 Y160.496 E.04121
G1 X157.514 Y160.892 E.02411
G1 X156.307 Y161.27 E.03767
G1 X155.644 Y161.307 E.01979
G1 X154.403 Y161.128 E.03734
G1 X133.548 Y152.215 E.67556
G1 X132.367 Y151.275 E.04496
G1 X131.756 Y150.38 E.03228
G1 X131.607 Y150 E.01214
G1 X128.187 Y150 E.10187
G1 X128.156 Y151.576 E.04694
G1 X127.848 Y152.567 E.03092
G1 X127.382 Y153.346 E.02703
G1 X126.361 Y154.342 E.0425
G1 X125.512 Y154.809 E.02885
G1 X124.355 Y155.097 E.03551
G1 X115.713 Y155.082 E.2574
G1 X114.501 Y154.733 E.03758
G1 X113.547 Y154.117 E.03382
G1 X112.804 Y153.343 E.03196
G1 X112.35 Y152.589 E.02622
G1 X111.864 Y153.375 E.02752
G1 X110.993 Y154.246 E.0367
G1 X110.123 Y154.765 E.03019
G1 X108.862 Y155.097 E.03883
G1 X100.219 Y155.082 E.25746
G1 X99.006 Y154.733 E.03758
G1 X98.052 Y154.117 E.03382
G1 X97.309 Y153.343 E.03196
G1 X96.855 Y152.589 E.02622
G1 X96.37 Y153.375 E.02752
G1 X95.498 Y154.246 E.0367
G1 X94.628 Y154.765 E.03019
G1 X93.367 Y155.097 E.03883
G1 X84.724 Y155.082 E.25746
G1 X83.512 Y154.733 E.03758
G1 X82.558 Y154.117 E.03382
G1 X81.815 Y153.343 E.03196
G1 X81.369 Y152.603 E.02573
G1 X80.764 Y153.51 E.03249
G1 X80.015 Y154.245 E.03124
G1 X78.497 Y154.992 E.0504
G1 X77.795 Y155.095 E.02113
G1 X69.303 Y155.091 E.25296
G1 X68.216 Y154.815 E.03342
G1 X67.47 Y154.436 E.02492
G1 X66.245 Y153.242 E.05096
G1 X65.786 Y152.393 E.02874
G1 X65.52 Y151.393 E.03082
G1 X65.501 Y148.555 E.08454
G1 X65.129 Y148.14 E.01659
G1 X50.688 Y122.962 E.86459
G1 X50.522 Y122.135 E.02511
G1 X50.506 Y121.291 E.02515
G1 X50.823 Y119.995 E.03973
G1 X53.373 Y115.527 E.15325
G1 X52.031 Y114.73 E.04649
G1 X51.22 Y113.824 E.03621
G1 X50.801 Y112.98 E.02806
G1 X50.552 Y112.062 E.02834
G1 X50.579 Y110.564 E.04462
G1 X50.898 Y109.617 E.02977
G1 X55.195 Y102.2 E.25533
G1 X56.039 Y101.367 E.03533
G1 X57.099 Y100.805 E.03573
G1 X58.101 Y100.55 E.0308
G1 X59.043 Y100.524 E.02807
G1 X58.606 Y99.711 E.02749
G1 X58.287 Y98.521 E.0367
G1 X58.272 Y97.508 E.03017
G1 X58.577 Y96.343 E.03588
G1 X62.885 Y88.855 E.25732
G1 X63.858 Y87.897 E.04068
G1 X64.869 Y87.379 E.03384
G1 X65.911 Y87.122 E.03196
G1 X66.791 Y87.106 E.02622
G1 X66.353 Y86.292 E.02752
G1 X66.034 Y85.102 E.0367
G1 X66.019 Y84.089 E.03017
G1 X66.324 Y82.924 E.03588
G1 X70.632 Y75.436 E.25731
G1 X71.606 Y74.478 E.04068
G1 X72.616 Y73.96 E.03384
G1 X73.658 Y73.703 E.03196
G1 X74.521 Y73.687 E.02571
G1 X74.024 Y72.669 E.03376
G1 X73.771 Y71.631 E.03182
G1 X73.903 Y69.944 E.05039
G1 X74.163 Y69.32 E.02013
G1 X78.509 Y61.855 E.2573
G1 X78.824 Y62.064 F9000
G1 F1200
G1 X79.561 Y61.372 E.0301
G1 X80.429 Y60.916 E.02922
G1 X81.415 Y60.663 E.03031
G1 X82.417 Y60.664 E.02983
G1 X83.507 Y60.987 E.03386
G1 X85.901 Y62.369 E.08235
G1 X86.527 Y62.232 E.0191
G1 X115.517 Y62.319 E.86352
G1 X116.207 Y62.564 E.0218
G1 X116.867 Y62.933 E.02254
G1 X117.753 Y63.79 E.0367
G1 X120.479 Y68.473 E.1614
G1 X121.941 Y67.644 E.05007
G1 X122.723 Y67.403 E.02436
G1 X123.743 Y67.354 E.03044
G1 X124.834 Y67.603 E.03333
G1 X125.678 Y68.02 E.02804
G1 X126.64 Y68.949 E.03982
G1 X130.904 Y76.349 E.25439
G1 X131.194 Y77.52 E.03593
G1 X131.135 Y78.547 E.03065
G1 X130.856 Y79.493 E.02939
G1 X130.46 Y80.196 E.02403
G1 X130.015 Y80.678 E.01955
G1 X130.148 Y80.917 E.00816
G1 X130.916 Y80.764 E.02333
G1 X131.759 Y80.81 E.02513
G1 X132.875 Y81.135 E.03462
G1 X133.674 Y81.623 E.02789
G1 X134.305 Y82.267 E.02686
G1 X138.692 Y89.877 E.26164
G1 X138.936 Y90.862 E.03023
G1 X138.888 Y91.945 E.03229
G1 X138.606 Y92.907 E.02985
G1 X138.235 Y93.579 E.02287
G1 X137.774 Y94.095 E.0206
G1 X137.91 Y94.331 E.00811
G1 X138.617 Y94.186 E.02151
G1 X139.506 Y94.229 E.02651
G1 X140.569 Y94.531 E.03292
G1 X141.585 Y95.178 E.03587
G1 X142.177 Y95.859 E.02688
G1 X146.396 Y103.194 E.25204
G1 X146.65 Y104.048 E.02653
G1 X146.679 Y105.097 E.03126
G1 X146.422 Y106.142 E.03207
G1 X146.025 Y106.935 E.0264
G1 X145.509 Y107.523 E.02331
G1 X145.649 Y107.759 E.00816
G1 X146.29 Y107.614 E.01955
G1 X147.096 Y107.622 E.02403
G1 X148.055 Y107.854 E.02939
G1 X148.974 Y108.317 E.03064
G1 X149.877 Y109.196 E.03755
G1 X154.222 Y116.801 E.26088
G1 X154.425 Y117.66 E.02629
G1 X154.426 Y118.509 E.02529
G1 X154.13 Y119.667 E.03562
G1 X153.763 Y120.36 E.02335
G1 X170.602 Y132.974 E.62668
G1 X171.413 Y134.106 E.04146
G1 X171.588 Y134.477 E.01223
G1 X171.83 Y135.888 E.04267
G1 X171.83 Y135.993 E.00312
G1 X171.51 Y137.429 E.04384
G1 X158.88 Y159.305 E.75239
G1 X158.011 Y160.181 E.03678
G1 X157.38 Y160.539 E.02159
G1 X156.26 Y160.895 E.03502
G1 X155.676 Y160.931 E.01742
G1 X154.528 Y160.771 E.03453
G1 X133.719 Y151.878 E.67405
G1 X132.662 Y151.038 E.0402
G1 X132.081 Y150.188 E.03069
G1 X131.873 Y149.623 E.01792
G1 X127.815 Y149.623 E.12087
G1 X127.788 Y151.491 E.05563
G1 X127.495 Y152.433 E.0294
G1 X127.072 Y153.13 E.02427
G1 X126.155 Y154.026 E.0382
G1 X125.394 Y154.45 E.02594
G1 X124.331 Y154.72 E.03267
G1 X115.792 Y154.713 E.25434
G1 X114.633 Y154.378 E.03593
G1 X113.773 Y153.814 E.03065
G1 X113.093 Y153.099 E.02939
G1 X112.682 Y152.405 E.02403
G1 X112.489 Y151.781 E.01944
G1 X112.213 Y151.78 E.00822
G1 X112.001 Y152.431 E.02039
G1 X111.58 Y153.126 E.02421
G1 X110.777 Y153.936 E.03398
G1 X109.998 Y154.408 E.02713
G1 X108.837 Y154.72 E.03581
G1 X100.298 Y154.713 E.25436
G1 X99.139 Y154.378 E.03593
G1 X98.278 Y153.814 E.03065
G1 X97.598 Y153.099 E.02939
G1 X97.187 Y152.405 E.02403
G1 X96.994 Y151.781 E.01944
G1 X96.718 Y151.78 E.00822
G1 X96.507 Y152.431 E.02039
G1 X96.085 Y153.126 E.02421
G1 X95.282 Y153.936 E.03398
G1 X94.503 Y154.408 E.02713
G1 X93.342 Y154.72 E.03581
G1 X84.803 Y154.713 E.25436
G1 X83.644 Y154.378 E.03593
G1 X82.784 Y153.814 E.03065
G1 X82.103 Y153.099 E.02939
G1 X81.693 Y152.405 E.02403
G1 X81.495 Y151.768 E.01985
G1 X81.22 Y151.766 E.0082
G1 X80.973 Y152.515 E.02351
G1 X80.485 Y153.255 E.02641
G1 X79.772 Y153.955 E.02974
G1 X78.412 Y154.624 E.04515
G1 X77.781 Y154.718 E.019
G1 X69.328 Y154.714 E.2518
G1 X68.331 Y154.456 E.03066
G1 X67.668 Y154.114 E.02224
G1 X66.561 Y153.036 E.04602
G1 X66.144 Y152.274 E.02588
G1 X65.89 Y151.32 E.0294
G1 X65.878 Y148.407 E.08675
G1 X65.446 Y147.934 E.01909
G1 X51.052 Y122.856 E.86129
G1 X50.898 Y122.11 E.02268
G1 X50.883 Y121.309 E.02387
G1 X51.182 Y120.112 E.03674
G1 X53.885 Y115.392 E.16202
G1 X52.249 Y114.42 E.05668
G1 X51.547 Y113.634 E.03139
G1 X51.148 Y112.83 E.02674
G1 X50.923 Y111.99 E.02589
G1 X50.946 Y110.656 E.03976
G1 X51.234 Y109.789 E.02721
G1 X55.478 Y102.451 E.2525
G1 X56.284 Y101.656 E.03372
G1 X57.253 Y101.15 E.03255
G1 X58.171 Y100.921 E.02818
G1 X59.028 Y100.903 E.02554
G1 X59.674 Y101.049 E.01972
G1 X59.813 Y100.811 E.00821
G1 X59.355 Y100.302 E.0204
G1 X58.963 Y99.589 E.02421
G1 X58.663 Y98.489 E.03398
G1 X58.644 Y97.578 E.02715
G1 X58.935 Y96.463 E.03432
G1 X63.198 Y89.066 E.25429
G1 X64.1 Y88.188 E.03749
G1 X65.018 Y87.726 E.03063
G1 X65.977 Y87.494 E.02939
G1 X66.784 Y87.485 E.02403
G1 X67.421 Y87.629 E.01944
G1 X67.56 Y87.391 E.00822
G1 X67.102 Y86.883 E.02039
G1 X66.711 Y86.171 E.02421
G1 X66.41 Y85.07 E.03398
G1 X66.391 Y84.159 E.02715
G1 X66.683 Y83.044 E.03432
G1 X70.945 Y75.647 E.25429
G1 X71.847 Y74.769 E.03749
G1 X72.766 Y74.307 E.03063
G1 X73.725 Y74.075 E.02939
G1 X74.532 Y74.067 E.02403
G1 X75.182 Y74.214 E.01985
G1 X75.321 Y73.977 E.0082
G1 X74.796 Y73.388 E.02349
G1 X74.385 Y72.559 E.02758
G1 X74.144 Y71.571 E.03029
G1 X74.263 Y70.061 E.04512
G1 X74.495 Y69.499 E.0181
G1 X78.794 Y62.116 E.25449
G1 X79.12 Y62.305 F9000
G1 F1200
G1 X79.797 Y61.667 E.02772
G1 X80.582 Y61.261 E.02633
G1 X81.483 Y61.034 E.02767
G1 X82.387 Y61.04 E.02692
G1 X83.337 Y61.324 E.02954
G1 X85.841 Y62.77 E.08613
G1 X86.548 Y62.609 E.0216
G1 X115.421 Y62.685 E.86003
G1 X116.065 Y62.914 E.02035
G1 X116.66 Y63.249 E.02034
G1 X117.471 Y64.041 E.03376
G1 X120.341 Y68.986 E.17031
G1 X122.075 Y67.997 E.05947
G1 X122.768 Y67.778 E.02166
G1 X123.686 Y67.728 E.02738
G1 X124.728 Y67.965 E.03183
G1 X125.483 Y68.344 E.02516
G1 X126.326 Y69.16 E.03496
G1 X130.544 Y76.465 E.25126
G1 X130.821 Y77.582 E.03427
G1 X130.767 Y78.462 E.02627
G1 X130.517 Y79.328 E.02684
G1 X130.143 Y79.99 E.02265
G1 X129.543 Y80.627 E.02607
G1 X127.691 Y81.717 E.06401
G1 X128.095 Y82.417 E.02407
