; generated by PrusaSlicer 2.4.0+win64 on 2022-05-05 at 10:45:40 UTC

; 

; external perimeters extrusion width = 0.45mm
; perimeters extrusion width = 0.45mm
; infill extrusion width = 0.45mm
; solid infill extrusion width = 0.45mm
; top infill extrusion width = 0.45mm
; first layer extrusion width = 0.42mm

M201 X500 Y500 Z100 E5000 ; sets maximum accelerations, mm/sec^2
M203 X500 Y500 Z10 E60 ; sets maximum feedrates, mm/sec
M204 P500 R1000 T500 ; sets acceleration (P, T) and retract acceleration (R), mm/sec^2
M205 X8.00 Y8.00 Z0.40 E5.00 ; sets the jerk limits, mm/sec
M205 S0 T0 ; sets the minimum extruding and travel feed rate, mm/sec
M107
;TYPE:Custom
G90 ; use absolute coordinates
M83 ; extruder relative mode
M140 S80 ; set final bed temp
M104 S150 ; set temporary nozzle temp to prevent oozing during homing
G4 S10 ; allow partial nozzle warmup
G28 ; home all axis
G1 Z50 F240
G1 X2 Y10 F3000
M104 S235 ; set final nozzle temp
M190 S80 ; wait for bed temp to stabilize
M109 S235 ; wait for nozzle temp to stabilize
G1 Z0.28 F240
G92 E0
G1 Y140 E10 F1500 ; prime the nozzle
G1 X2.3 F5000
G92 E0
G1 Y10 E10 F1200 ; prime the nozzle
G92 E0
G21 ; set units to millimeters
G90 ; use absolute coordinates
M83 ; use relative distances for extrusion
; Filament gcode
M107
;LAYER_CHANGE
;Z:0.2
;HEIGHT:0.2
;BEFORE_LAYER_CHANGE
G92 E0
;0.2


G1 E-5 F3600
G1 Z.1 F9000
;AFTER_LAYER_CHANGE
;0.2
G1 X73.727 Y65.349
G1 E5 F2400
M204 S500
;TYPE:Skirt/Brim
;WIDTH:0.42
G1 F1200
G1 X74.837 Y64.189 E.04782
G1 X82.037 Y59.606 E.2542
G1 X84.357 Y58.267 E.07981
G1 X85.858 Y57.819 E.04664
G1 X120.612 Y55.884 E1.03681
G1 X121.674 Y55.994 E.0318
G1 X125.675 Y57.066 E.12338
G1 X127.592 Y58.426 E.07002
G1 X177.092 Y131.093 E2.61897
G1 X177.61 Y132.317 E.03958
G1 X178.371 Y136.036 E.11306
G1 X177.987 Y138.401 E.07139
G1 X163.91 Y162.784 E.83864
G1 X162.053 Y164.3 E.07139
G1 X158.452 Y165.5 E.11306
G1 X157.109 Y165.662 E.04029
G1 X77.175 Y159.127 E2.3889
G1 X75.891 Y158.756 E.03981
G1 X68.322 Y154.812 E.2542
G1 X66.002 Y153.473 E.07981
G1 X64.864 Y152.397 E.04664
G1 X45.811 Y123.267 E1.03681
G1 X45.375 Y122.292 E.0318
G1 X44.303 Y118.291 E.12338
G1 X44.274 Y116.66 E.0486
G1 X44.64 Y115.728 E.02981
G1 X73.697 Y65.4 E1.73101
G1 E-3.5 F3600
;WIPE_START
G1 F7200
G1 X74.837 Y64.189 E-.7903
G1 X75.965 Y63.471 E-.6347
;WIPE_END
G1 E-.075 F3600
G1 X76.593 Y68.029 F9000
G1 E5 F2400
G1 F1200
G1 X76.904 Y67.686 E.01378
G1 X78.093 Y66.968 E.04137
G1 X79.407 Y66.621 E.0405
G1 X80.811 Y66.662 E.04183
G1 X81.547 Y66.889 E.02293
G1 X83.699 Y63.237 E.12627
G1 X84.708 Y62.293 E.04113
G1 X85.518 Y61.851 E.0275
G1 X86.362 Y61.569 E.02653
G1 X117.529 Y61.479 E.92834
G1 X119.86 Y60.178 E.07953
G1 X120.943 Y59.908 E.03324
G1 X122.08 Y59.916 E.03387
G1 X123.7 Y60.409 E.05042
G1 X124.462 Y60.911 E.02719
G1 X125.304 Y61.784 E.03613
G1 X129.573 Y69.17 E.25409
G1 X129.862 Y69.892 E.02317
G1 X130 Y71.588 E.05068
G1 X129.55 Y73.324 E.05342
G1 X129.944 Y73.354 E.01177
G1 X130.94 Y73.616 E.03067
G1 X132.087 Y74.231 E.03875
G1 X133.021 Y75.163 E.03932
G1 X137.389 Y82.718 E.25994
G1 X137.764 Y84.236 E.04658
G1 X137.703 Y85.316 E.03222
G1 X137.307 Y86.692 E.04265
G1 X138.736 Y87.054 E.04391
G1 X139.838 Y87.653 E.03737
G1 X140.739 Y88.544 E.03774
G1 X145.083 Y96.03 E.25779
G1 X145.449 Y97.163 E.03548
G1 X145.502 Y98.378 E.03621
G1 X145.045 Y100.161 E.05484
G1 X145.439 Y100.192 E.01176
G1 X146.435 Y100.454 E.03067
G1 X147.582 Y101.069 E.03877
G1 X148.486 Y101.963 E.03787
G1 X152.829 Y109.447 E.25776
G1 X153.204 Y110.627 E.03686
G1 X153.244 Y111.844 E.03628
G1 X152.85 Y113.348 E.04631
G1 X152.139 Y114.489 E.04004
G1 X151.577 Y115.023 E.02311
G1 X152.892 Y117.302 E.07835
G1 X155.041 Y118.913 E.08001
G1 X155.186 Y119.048 E.00591
G1 X155.346 Y119.141 E.00552
G1 X173.038 Y132.406 E.65865
G1 X173.982 Y133.694 E.04758
G1 X174.228 Y134.201 E.01678
G1 X174.516 Y135.793 E.04819
G1 X174.521 Y136.033 E.00715
G1 X174.129 Y137.757 E.05266
G1 X161.419 Y159.772 E.7572
G1 X160.235 Y160.878 E.04827
G1 X159.401 Y161.325 E.02817
G1 X157.81 Y161.687 E.04862
G1 X156.232 Y161.492 E.04734
G1 X137.465 Y153.472 E.60792
G1 X136.495 Y154.469 E.04144
G1 X135.55 Y155.068 E.03334
G1 X134.368 Y155.431 E.03684
G1 X125.067 Y155.411 E.27703
G1 X124.073 Y155.098 E.03105
G1 X123.206 Y154.583 E.03003
G1 X122.245 Y153.642 E.04007
G1 X122.063 Y153.381 E.00947
G1 X120.851 Y154.587 E.05093
G1 X119.874 Y155.148 E.03357
G1 X118.755 Y155.448 E.0345
G1 X109.829 Y155.45 E.26587
G1 X108.662 Y155.133 E.03602
G1 X107.65 Y154.536 E.03499
G1 X106.818 Y153.724 E.03465
G1 X106.564 Y153.359 E.01325
G1 X105.577 Y154.41 E.04295
G1 X104.582 Y155.058 E.03536
G1 X103.136 Y155.467 E.04476
G1 X94.414 Y155.463 E.2598
G1 X93.207 Y155.148 E.03716
G1 X92.161 Y154.541 E.03601
G1 X91.323 Y153.724 E.03486
G1 X91.044 Y153.323 E.01455
G1 X90.843 Y153.63 E.01094
G1 X89.735 Y154.681 E.04548
G1 X88.521 Y155.283 E.04035
G1 X87.569 Y155.468 E.0289
G1 X79.074 Y155.474 E.25303
G1 X77.86 Y155.208 E.03701
G1 X76.691 Y154.564 E.03977
G1 X75.752 Y153.637 E.03931
G1 X75.048 Y152.349 E.04372
G1 X74.874 Y151.596 E.02303
G1 X70.636 Y151.558 E.12625
G1 X69.318 Y151.158 E.04102
G1 X68.534 Y150.682 E.02733
G1 X67.865 Y150.093 E.02654
G1 X52.198 Y123.14 E.92862
G1 X49.868 Y121.744 E.0809
G1 X49.08 Y120.899 E.03441
G1 X48.526 Y119.861 E.03505
G1 X48.186 Y118.333 E.04663
G1 X48.24 Y117.42 E.02724
G1 X48.556 Y116.297 E.03475
G1 X52.836 Y108.863 E.2555
G1 X53.359 Y108.212 E.0249
G1 X54.659 Y107.311 E.0471
G1 X56.444 Y106.805 E.05528
G1 X56.275 Y106.449 E.01172
G1 X56.003 Y105.456 E.03067
G1 X55.963 Y104.156 E.03875
G1 X56.303 Y102.88 E.03932
G1 X60.66 Y95.322 E.25986
G1 X61.737 Y94.274 E.04476
G1 X62.752 Y93.75 E.03402
G1 X64.199 Y93.4 E.04435
G1 X64.022 Y93.03 E.0122
G1 X63.751 Y92.037 E.03067
G1 X63.71 Y90.737 E.03875
G1 X64.05 Y89.461 E.03932
G1 X68.409 Y81.901 E.25994
G1 X69.537 Y80.818 E.04657
G1 X70.502 Y80.33 E.03222
G1 X71.892 Y79.985 E.04265
G1 X71.49 Y78.567 E.04391
G1 X71.458 Y77.314 E.03735
G1 X71.798 Y76.043 E.03919
G1 X76.091 Y68.582 E.25639
G1 X76.552 Y68.073 E.02046
G1 X76.829 Y68.326 F9000
G1 F1200
G1 X77.163 Y67.962 E.01472
G1 X78.262 Y67.306 E.03811
G1 X79.474 Y66.993 E.0373
G1 X80.77 Y67.038 E.03863
G1 X81.719 Y67.341 E.02966
G1 X83.978 Y63.492 E.13294
G1 X84.911 Y62.612 E.03821
G1 X85.654 Y62.203 E.02525
G1 X86.453 Y61.936 E.02511
G1 X117.628 Y61.856 E.9286
G1 X119.978 Y60.537 E.08027
G1 X120.966 Y60.285 E.03035
G1 X122.05 Y60.293 E.03232
G1 X123.516 Y60.74 E.04565
G1 X124.207 Y61.19 E.02455
G1 X124.99 Y61.994 E.03342
G1 X129.24 Y69.346 E.25296
G1 X129.501 Y70.004 E.02109
G1 X129.622 Y71.584 E.04721
G1 X129.272 Y72.92 E.04112
G1 X128.814 Y73.663 E.026
G1 X129.868 Y73.724 E.03145
G1 X130.822 Y73.975 E.02937
G1 X131.883 Y74.549 E.03593
G1 X132.707 Y75.374 E.03472
G1 X137.03 Y82.836 E.25689
G1 X137.386 Y84.246 E.0433
G1 X137.335 Y85.233 E.02945
G1 X137.01 Y86.359 E.03491
G1 X136.525 Y87.152 E.02768
G1 X137.457 Y87.119 E.02776
G1 X138.62 Y87.413 E.03573
G1 X139.632 Y87.97 E.03441
G1 X140.454 Y88.793 E.03465
G1 X144.746 Y96.201 E.25501
G1 X145.082 Y97.253 E.03289
G1 X145.124 Y98.364 E.03314
G1 X144.766 Y99.758 E.04288
G1 X144.316 Y100.501 E.02585
G1 X145.363 Y100.562 E.03123
G1 X146.317 Y100.813 E.02937
G1 X147.378 Y101.387 E.03593
G1 X148.202 Y102.211 E.03472
G1 X152.493 Y109.619 E.255
G1 X152.828 Y110.668 E.03281
G1 X152.872 Y111.778 E.03309
G1 X152.514 Y113.174 E.0429
G1 X151.833 Y114.268 E.0384
G1 X151.099 Y114.951 E.02985
G1 X152.604 Y117.557 E.08963
G1 X154.806 Y119.207 E.08196
G1 X154.959 Y119.354 E.00632
G1 X155.13 Y119.451 E.00585
G1 X172.789 Y132.69 E.65741
G1 X173.667 Y133.901 E.04454
G1 X173.877 Y134.34 E.0145
G1 X174.142 Y135.842 E.04544
G1 X174.144 Y136.015 E.00514
G1 X173.788 Y137.593 E.04819
G1 X161.107 Y159.558 E.75548
G1 X159.997 Y160.585 E.04504
G1 X159.29 Y160.964 E.02387
G1 X157.82 Y161.309 E.04497
G1 X156.355 Y161.134 E.04395
G1 X137.286 Y152.985 E.6177
G1 X137.089 Y153.318 E.01153
G1 X136.241 Y154.19 E.03622
G1 X135.371 Y154.736 E.0306
G1 X134.339 Y155.054 E.03215
G1 X125.151 Y155.043 E.2737
G1 X124.246 Y154.763 E.02822
G1 X123.419 Y154.271 E.02866
G1 X122.528 Y153.392 E.03728
G1 X122.003 Y152.566 E.02913
G1 X121.585 Y153.33 E.02593
G1 X120.64 Y154.274 E.03978
G1 X119.749 Y154.791 E.03069
G1 X118.729 Y155.071 E.03152
G1 X109.902 Y155.08 E.26293
G1 X108.831 Y154.795 E.03299
G1 X107.862 Y154.224 E.03351
G1 X107.097 Y153.47 E.03198
G1 X106.494 Y152.572 E.03222
G1 X106.146 Y153.253 E.02279
G1 X105.318 Y154.135 E.03602
G1 X104.402 Y154.725 E.03246
G1 X103.11 Y155.09 E.03998
G1 X94.483 Y155.091 E.25695
G1 X93.373 Y154.809 E.03413
G1 X92.372 Y154.227 E.0345
G1 X91.603 Y153.47 E.03213
G1 X91 Y152.572 E.03222
G1 X90.555 Y153.384 E.02756
G1 X89.541 Y154.356 E.04185
G1 X88.377 Y154.933 E.03868
G1 X87.517 Y155.094 E.02607
G1 X79.094 Y155.097 E.2509
G1 X78.016 Y154.864 E.03284
G1 X76.937 Y154.276 E.0366
G1 X76.038 Y153.388 E.03765
G1 X75.393 Y152.195 E.04041
G1 X75.18 Y151.221 E.0297
G1 X70.717 Y151.189 E.13293
G1 X69.492 Y150.823 E.03811
G1 X68.77 Y150.387 E.02509
G1 X68.138 Y149.83 E.02512
G1 X52.475 Y122.865 E.92885
G1 X50.125 Y121.467 E.08145
G1 X49.373 Y120.661 E.03284
G1 X48.872 Y119.708 E.03207
G1 X48.564 Y118.327 E.04215
G1 X48.609 Y117.5 E.02467
G1 X48.895 Y116.464 E.03201
G1 X53.155 Y109.065 E.25433
G1 X53.635 Y108.47 E.02275
G1 X54.846 Y107.639 E.04375
G1 X56.235 Y107.249 E.04297
G1 X57.107 Y107.274 E.02598
G1 X56.633 Y106.33 E.03145
G1 X56.373 Y105.379 E.02937
G1 X56.34 Y104.173 E.03593
G1 X56.642 Y103.047 E.03472
G1 X60.943 Y95.572 E.25688
G1 X61.937 Y94.595 E.04152
G1 X62.863 Y94.111 E.03113
G1 X64.059 Y93.822 E.03665
G1 X64.847 Y93.841 E.02348
G1 X64.381 Y92.911 E.03098
G1 X64.121 Y91.96 E.02937
G1 X64.088 Y90.754 E.03593
G1 X64.389 Y89.628 E.03472
G1 X68.691 Y82.153 E.25689
G1 X69.734 Y81.14 E.0433
G1 X70.614 Y80.691 E.02945
G1 X71.752 Y80.409 E.03491
G1 X72.681 Y80.432 E.02768
G1 X72.186 Y79.642 E.02776
G1 X71.86 Y78.488 E.03573
G1 X71.835 Y77.333 E.03442
G1 X72.137 Y76.209 E.03465
G1 X76.407 Y68.788 E.25504
G1 X76.789 Y68.371 E.01685
G1 X77.064 Y68.625 F9000
G1 F1200
G1 X77.42 Y68.238 E.01565
G1 X78.429 Y67.646 E.03484
G1 X79.539 Y67.365 E.03411
G1 X80.727 Y67.414 E.03543
G1 X81.511 Y67.671 E.02458
G1 X81.854 Y67.858 E.01161
G1 X84.258 Y63.746 E.14187
G1 X85.115 Y62.929 E.03529
G1 X85.79 Y62.555 E.02297
G1 X86.544 Y62.303 E.02368
G1 X117.728 Y62.233 E.92886
G1 X120.097 Y60.895 E.08105
G1 X120.988 Y60.663 E.02742
G1 X122.021 Y60.669 E.03075
G1 X123.334 Y61.071 E.04092
G1 X123.954 Y61.47 E.02194
G1 X124.675 Y62.204 E.03065
G1 X128.906 Y69.523 E.25181
G1 X129.14 Y70.116 E.019
G1 X129.249 Y71.519 E.04193
G1 X128.915 Y72.794 E.03926
G1 X128.268 Y73.809 E.03585
G1 X128.127 Y73.957 E.00607
G1 X128.26 Y74.199 E.00821
G1 X129.013 Y74.053 E.02285
G1 X129.794 Y74.094 E.02329
G1 X130.666 Y74.319 E.02682
G1 X131.636 Y74.836 E.03276
G1 X132.423 Y75.623 E.03314
G1 X136.69 Y83.002 E.2539
G1 X137.013 Y84.307 E.04006
G1 X136.96 Y85.188 E.02629
G1 X136.656 Y86.227 E.03223
G1 X136.061 Y87.175 E.03333
G1 X135.679 Y87.575 E.01649
G1 X137.394 Y87.492 E.05116
G1 X138.462 Y87.757 E.03277
G1 X139.385 Y88.256 E.03126
G1 X140.17 Y89.042 E.03308
G1 X144.409 Y96.371 E.2522
G1 X144.714 Y97.34 E.03027
G1 X144.747 Y98.348 E.03003
G1 X144.409 Y99.633 E.03958
G1 X143.81 Y100.591 E.03365
G1 X143.607 Y100.793 E.00853
G1 X143.738 Y101.04 E.00832
G1 X144.507 Y100.89 E.02335
G1 X145.288 Y100.932 E.02329
G1 X146.16 Y101.156 E.02682
G1 X147.131 Y101.674 E.03276
G1 X147.918 Y102.46 E.03314
G1 X152.157 Y109.79 E.25222
G1 X152.453 Y110.711 E.02882
G1 X152.499 Y111.715 E.02992
G1 X152.178 Y113 E.03945
G1 X151.527 Y114.046 E.03671
G1 X150.98 Y114.547 E.02208
G1 X150.574 Y114.795 E.01418
G1 X152.316 Y117.812 E.10377
G1 X154.569 Y119.502 E.08389
G1 X154.733 Y119.66 E.00677
G1 X154.915 Y119.761 E.00619
G1 X172.539 Y132.974 E.65613
G1 X173.35 Y134.106 E.04145
G1 X173.525 Y134.477 E.01223
G1 X173.767 Y135.888 E.04267
G1 X173.767 Y135.993 E.00312
G1 X173.447 Y137.43 E.04384
G1 X160.795 Y159.344 E.75374
G1 X159.76 Y160.291 E.04177
G1 X159.178 Y160.603 E.01969
G1 X157.829 Y160.93 E.04134
G1 X156.478 Y160.777 E.0405
G1 X137.119 Y152.503 E.6271
G1 X136.798 Y153.076 E.01953
G1 X136.019 Y153.884 E.03345
G1 X135.233 Y154.384 E.02777
G1 X134.31 Y154.677 E.02883
G1 X125.233 Y154.674 E.27036
G1 X124.419 Y154.427 E.02536
G1 X123.632 Y153.959 E.02726
G1 X122.81 Y153.14 E.03455
G1 X122.411 Y152.502 E.02243
G1 X122.172 Y151.82 E.02153
G1 X121.894 Y151.83 E.00828
G1 X121.824 Y152.091 E.00805
G1 X121.296 Y153.085 E.03353
G1 X120.427 Y153.962 E.03677
G1 X119.623 Y154.435 E.0278
G1 X118.702 Y154.694 E.0285
G1 X109.975 Y154.709 E.25995
G1 X108.954 Y154.437 E.03145
G1 X108.076 Y153.913 E.03047
G1 X107.377 Y153.217 E.02937
G1 X106.952 Y152.577 E.02289
G1 X106.592 Y151.503 E.03374
G1 X105.849 Y153.018 E.05026
G1 X105.091 Y153.833 E.03314
G1 X104.269 Y154.371 E.02928
G1 X103.083 Y154.713 E.03678
G1 X94.553 Y154.72 E.25406
G1 X93.492 Y154.45 E.03261
G1 X92.584 Y153.915 E.0314
G1 X91.883 Y153.217 E.02947
G1 X91.457 Y152.577 E.02289
G1 X91.197 Y151.8 E.0244
G1 X90.918 Y151.808 E.00832
G1 X90.859 Y152.023 E.00665
G1 X90.27 Y153.135 E.03748
G1 X89.346 Y154.032 E.03833
G1 X88.235 Y154.583 E.03697
G1 X87.468 Y154.72 E.02319
G1 X79.113 Y154.72 E.24886
G1 X78.172 Y154.52 E.02866
G1 X77.142 Y153.958 E.03496
G1 X76.325 Y153.142 E.0344
G1 X75.738 Y152.042 E.03712
G1 X75.569 Y151.235 E.02456
G1 X75.56 Y150.845 E.01161
G1 X70.798 Y150.819 E.14186
G1 X69.665 Y150.487 E.03516
G1 X68.98 Y150.074 E.02383
G1 X68.411 Y149.568 E.02268
G1 X52.752 Y122.591 E.92913
G1 X50.381 Y121.188 E.08205
G1 X49.693 Y120.46 E.02983
G1 X49.233 Y119.599 E.02908
G1 X48.942 Y118.319 E.03911
G1 X48.978 Y117.58 E.02203
G1 X49.252 Y116.588 E.03066
G1 X53.475 Y109.264 E.25181
G1 X53.872 Y108.765 E.019
G1 X55.033 Y107.969 E.04193
G1 X56.304 Y107.621 E.03926
G1 X57.507 Y107.673 E.03585
G1 X57.705 Y107.721 E.00607
G1 X57.848 Y107.486 E.00821
G1 X57.345 Y106.907 E.02285
G1 X56.991 Y106.21 E.02329
G1 X56.749 Y105.342 E.02682
G1 X56.712 Y104.243 E.03276
G1 X57 Y103.169 E.03314
G1 X61.257 Y95.784 E.2539
G1 X62.179 Y94.885 E.03835
G1 X63.014 Y94.458 E.02795
G1 X64.12 Y94.195 E.03386
G1 X65.132 Y94.233 E.03017
G1 X65.465 Y94.325 E.01029
G1 X65.614 Y94.088 E.00834
G1 X65.093 Y93.488 E.02368
G1 X64.738 Y92.791 E.02329
G1 X64.497 Y91.924 E.02682
G1 X64.459 Y90.824 E.03276
G1 X64.747 Y89.75 E.03314
G1 X69.004 Y82.365 E.2539
G1 X69.974 Y81.433 E.04006
G1 X70.763 Y81.038 E.02629
G1 X71.814 Y80.781 E.03224
G1 X72.933 Y80.823 E.03333
G1 X73.47 Y80.954 E.01649
G1 X72.541 Y79.51 E.05116
G1 X72.236 Y78.453 E.03277
G1 X72.207 Y77.404 E.03126
G1 X72.495 Y76.331 E.03308
G1 X76.723 Y68.995 E.25222
G1 X77.024 Y68.669 E.01321
G1 X77.298 Y68.924 F9000
G1 F1200
G1 X77.677 Y68.515 E.0166
G1 X78.549 Y68.004 E.03011
G1 X79.554 Y67.743 E.03093
G1 X80.636 Y67.78 E.03223
G1 X81.374 Y68.023 E.02316
G1 X81.99 Y68.373 E.0211
G1 X84.538 Y63.999 E.15076
G1 X85.32 Y63.247 E.03233
G1 X85.957 Y62.893 E.02169
G1 X86.633 Y62.671 E.0212
G1 X117.828 Y62.609 E.92919
G1 X120.219 Y61.253 E.08189
G1 X121.012 Y61.04 E.02445
G1 X121.991 Y61.046 E.02915
G1 X123.154 Y61.403 E.03625
G1 X123.7 Y61.75 E.01928
G1 X124.39 Y62.451 E.02928
G1 X128.562 Y69.678 E.24858
G1 X128.767 Y70.178 E.0161
G1 X128.876 Y71.458 E.03826
G1 X128.58 Y72.617 E.03564
G1 X127.969 Y73.577 E.03388
G1 X127.428 Y74.05 E.02142
G1 X126.82 Y74.406 E.02099
G1 X127.221 Y75.101 E.02389
G1 X128.109 Y74.615 E.03015
G1 X129.017 Y74.431 E.0276
G1 X129.754 Y74.47 E.02197
G1 X130.548 Y74.678 E.02444
G1 X131.432 Y75.154 E.02991
G1 X132.137 Y75.87 E.02993
G1 X136.35 Y83.166 E.25096
G1 X136.639 Y84.366 E.03677
G1 X136.585 Y85.142 E.02315
G1 X136.323 Y86.049 E.02814
G1 X135.758 Y86.947 E.03159
G1 X135.246 Y87.417 E.02071
G1 X134.566 Y87.822 E.02357
G1 X134.958 Y88.501 E.02336
G1 X135.563 Y88.156 E.02075
G1 X136.234 Y87.924 E.02114
G1 X137.383 Y87.87 E.03427
G1 X138.345 Y88.116 E.02956
G1 X139.179 Y88.573 E.02833
G1 X139.884 Y89.289 E.02993
G1 X144.072 Y96.542 E.24948
G1 X144.338 Y97.381 E.02623
G1 X144.374 Y98.282 E.02686
