; generated by PrusaSlicer 2.4.0+win64 on 2022-04-25 at 10:51:13 UTC

; 

; external perimeters extrusion width = 0.45mm
; perimeters extrusion width = 0.45mm
; infill extrusion width = 0.45mm
; solid infill extrusion width = 0.45mm
; top infill extrusion width = 0.45mm
; first layer extrusion width = 0.42mm

M201 X500 Y500 Z100 E5000 ; sets maximum accelerations, mm/sec^2
M203 X500 Y500 Z10 E60 ; sets maximum feedrates, mm/sec
M204 P500 R1000 T500 ; sets acceleration (P, T) and retract acceleration (R), mm/sec^2
M205 X8.00 Y8.00 Z0.40 E5.00 ; sets the jerk limits, mm/sec
M205 S0 T0 ; sets the minimum extruding and travel feed rate, mm/sec
M107
;TYPE:Custom
G90 ; use absolute coordinates
M83 ; extruder relative mode
M140 S80 ; set final bed temp
M104 S150 ; set temporary nozzle temp to prevent oozing during homing
G4 S10 ; allow partial nozzle warmup
G28 ; home all axis
G1 Z50 F240
G1 X2 Y10 F3000
M104 S235 ; set final nozzle temp
M190 S80 ; wait for bed temp to stabilize
M109 S235 ; wait for nozzle temp to stabilize
G1 Z0.28 F240
G92 E0
G1 Y140 E10 F1500 ; prime the nozzle
G1 X2.3 F5000
G92 E0
G1 Y10 E10 F1200 ; prime the nozzle
G92 E0
G21 ; set units to millimeters
G90 ; use absolute coordinates
M83 ; use relative distances for extrusion
; Filament gcode
M107
;LAYER_CHANGE
;Z:0.2
;HEIGHT:0.2
;BEFORE_LAYER_CHANGE
G92 E0
;0.2


G1 E-5 F3600
G1 Z.1 F9000
;AFTER_LAYER_CHANGE
;0.2
G1 X49.695 Y82.696
G1 E5 F2400
M204 S500
;TYPE:Skirt/Brim
;WIDTH:0.42
G1 F1200
G1 X52.657 Y81.218 E.0986
G1 X57.454 Y79.431 E.15249
G1 X59.215 Y78.93 E.05453
G1 X60.427 Y78.788 E.03634
G1 X127.623 Y78.793 E2.00155
G1 X172.443 Y81.146 E1.33686
G1 X174.003 Y81.623 E.0486
G1 X174.654 Y82.131 E.02458
G1 X177.583 Y85.06 E.12338
G1 X178.424 Y86.458 E.0486
G1 X178.572 Y87.448 E.02981
G1 X178.572 Y114.707 E.81196
G1 X178.178 Y116.29 E.0486
G1 X177.583 Y117.095 E.02981
G1 X174.654 Y120.024 E.12338
G1 X173.891 Y120.596 E.0284
G1 X141.388 Y138.442 E1.10447
G1 X139.94 Y138.854 E.04485
G1 X95.12 Y141.207 E1.33688
G1 X91.219 Y141.212 E.1162
G1 X90.007 Y141.07 E.03634
G1 X88.341 Y140.602 E.05157
G1 X84.026 Y139.028 E.13681
G1 X80.807 Y137.483 E.10636
G1 X79.732 Y136.801 E.03793
G1 X77.862 Y135.308 E.07124
G1 X77.383 Y134.841 E.01994
G1 X46.486 Y98.049 E1.43108
G1 X45.731 Y97.054 E.0372
G1 X45.312 Y96.33 E.02493
G1 X44.327 Y94 E.07535
G1 X44.06 Y92.684 E.03999
G1 X44.06 Y90.656 E.06041
G1 X44.327 Y89.34 E.03999
G1 X45.312 Y87.01 E.07535
G1 X45.731 Y86.286 E.02493
G1 X46.486 Y85.291 E.0372
G1 X47.07 Y84.692 E.02493
G1 X48.939 Y83.199 E.07124
G1 X49.645 Y82.73 E.02526
G1 E-3.5 F3600
;WIPE_START
G1 F7200
G1 X52.327 Y81.384 E-1.425
;WIPE_END
G1 E-.075 F3600
G1 X82.213 Y122.601 F9000
G1 E5 F2400
G1 F1200
G1 X85.292 Y121.07 E.10242
G1 X89.551 Y119.515 E.13507
G1 X90.998 Y119.149 E.04445
G1 X93.611 Y119.144 E.07784
G1 X94.633 Y119.418 E.03152
G1 X95.555 Y119.917 E.03123
G1 X96.704 Y121.043 E.04792
G1 X96.954 Y121.468 E.01467
G1 X138.617 Y121.534 E1.24101
G1 X138.846 Y121.567 E.0069
G1 X139.871 Y121.96 E.0327
G1 X140.77 Y122.587 E.03264
G1 X141.679 Y123.6 E.04055
G1 X142.043 Y124.276 E.02286
G1 X142.294 Y124.978 E.02221
G1 X142.294 Y131.682 E.19972
G1 X142.043 Y132.384 E.02221
G1 X141.679 Y133.06 E.02286
G1 X140.757 Y134.087 E.0411
G1 X139.577 Y134.838 E.04167
G1 X138.202 Y135.195 E.04231
G1 X96.936 Y135.195 E1.22916
G1 X96.587 Y135.773 E.02013
G1 X95.588 Y136.72 E.041
G1 X94.714 Y137.206 E.02979
G1 X93.383 Y137.548 E.04094
G1 X91.296 Y137.548 E.06216
G1 X89.618 Y137.165 E.05125
G1 X85.118 Y135.515 E.14278
G1 X82.244 Y134.078 E.09572
G1 X80.364 Y132.605 E.07113
G1 X79.633 Y131.738 E.03379
G1 X78.673 Y129.569 E.07065
G1 X78.515 Y128.413 E.03477
G1 X78.738 Y126.848 E.04708
G1 X79.331 Y125.447 E.0453
G1 X80.062 Y124.364 E.03895
G1 X82.167 Y122.639 E.08104
G1 X82.4 Y122.929 F9000
G1 F1200
G1 X85.431 Y121.421 E.10084
G1 X89.672 Y119.873 E.13446
G1 X91.068 Y119.52 E.0429
G1 X93.539 Y119.514 E.07361
G1 X94.474 Y119.761 E.02879
G1 X95.352 Y120.235 E.02973
G1 X96.418 Y121.291 E.04471
G1 X96.731 Y121.845 E.01893
G1 X138.602 Y121.911 E1.24718
G1 X138.768 Y121.936 E.00502
G1 X139.713 Y122.303 E.03019
G1 X140.505 Y122.856 E.02876
G1 X141.359 Y123.8 E.03792
G1 X141.693 Y124.416 E.02089
G1 X141.928 Y125.074 E.02081
G1 X141.928 Y131.586 E.19397
G1 X141.693 Y132.244 E.02081
G1 X141.359 Y132.86 E.02089
G1 X140.496 Y133.814 E.03832
G1 X139.402 Y134.503 E.03851
G1 X138.179 Y134.818 E.03762
G1 X96.719 Y134.818 E1.23493
G1 X96.307 Y135.52 E.02426
G1 X95.381 Y136.404 E.03811
G1 X94.594 Y136.848 E.02693
G1 X93.358 Y137.171 E.03805
G1 X91.318 Y137.171 E.06078
G1 X89.715 Y136.8 E.04899
G1 X85.258 Y135.165 E.14142
G1 X82.429 Y133.749 E.09421
G1 X80.638 Y132.345 E.06779
G1 X79.966 Y131.56 E.03079
G1 X79.029 Y129.442 E.06898
G1 X78.892 Y128.39 E.0316
G1 X79.095 Y126.972 E.04265
G1 X79.671 Y125.61 E.04405
G1 X80.323 Y124.637 E.0349
G1 X82.354 Y122.967 E.0783
G1 X82.588 Y123.257 F9000
G1 F1200
G1 X85.57 Y121.771 E.09925
G1 X89.792 Y120.23 E.13386
G1 X91.138 Y119.891 E.04134
G1 X93.469 Y119.886 E.06944
G1 X94.315 Y120.104 E.02603
G1 X95.148 Y120.554 E.0282
G1 X96.132 Y121.538 E.04144
G1 X96.506 Y122.221 E.02321
G1 X138.585 Y122.288 E1.25339
G1 X138.687 Y122.305 E.00309
G1 X139.518 Y122.626 E.02652
G1 X140.241 Y123.126 E.0262
G1 X141.039 Y124.001 E.03526
G1 X141.343 Y124.558 E.0189
G1 X141.562 Y125.171 E.01939
G1 X141.562 Y131.489 E.18821
G1 X141.343 Y132.102 E.01939
G1 X141.039 Y132.659 E.0189
G1 X140.235 Y133.541 E.03556
G1 X139.277 Y134.146 E.03372
G1 X138.154 Y134.441 E.0346
G1 X96.499 Y134.441 E1.24074
G1 X96.025 Y135.268 E.02841
G1 X95.173 Y136.089 E.03524
G1 X94.472 Y136.49 E.02406
G1 X93.333 Y136.794 E.03511
G1 X91.34 Y136.794 E.05937
G1 X89.813 Y136.436 E.04671
G1 X85.398 Y134.815 E.1401
G1 X82.615 Y133.421 E.0927
G1 X80.91 Y132.084 E.06453
G1 X80.299 Y131.381 E.02775
G1 X79.386 Y129.315 E.06727
G1 X79.269 Y128.369 E.02838
G1 X79.452 Y127.097 E.03829
G1 X80.012 Y125.773 E.04282
G1 X80.585 Y124.91 E.03088
G1 X82.542 Y123.295 E.07555
G1 X82.776 Y123.585 F9000
G1 F1200
G1 X85.71 Y122.122 E.09765
G1 X89.912 Y120.588 E.13325
G1 X91.207 Y120.263 E.03977
G1 X93.444 Y120.263 E.06663
G1 X94.195 Y120.462 E.02317
G1 X94.942 Y120.871 E.02535
G1 X95.843 Y121.782 E.03818
G1 X96.278 Y122.598 E.02753
G1 X138.565 Y122.665 E1.25959
G1 X139.359 Y122.969 E.02535
G1 X139.979 Y123.397 E.02241
G1 X140.72 Y124.203 E.03262
G1 X140.993 Y124.699 E.01687
G1 X141.196 Y125.267 E.01797
G1 X141.196 Y131.393 E.18246
G1 X140.993 Y131.961 E.01797
G1 X140.72 Y132.457 E.01687
G1 X139.975 Y133.267 E.03277
G1 X139.103 Y133.81 E.03061
G1 X138.13 Y134.064 E.02994
G1 X96.278 Y134.064 E1.24664
G1 X95.742 Y135.017 E.03259
G1 X94.962 Y135.775 E.03239
G1 X94.348 Y136.133 E.02118
G1 X93.307 Y136.417 E.03212
G1 X91.362 Y136.417 E.05794
G1 X89.911 Y136.071 E.04442
G1 X85.538 Y134.464 E.13879
G1 X82.801 Y133.092 E.09119
G1 X81.181 Y131.82 E.06136
G1 X80.632 Y131.201 E.02466
G1 X79.742 Y129.19 E.0655
G1 X79.647 Y128.351 E.02513
G1 X79.808 Y127.221 E.03401
G1 X80.352 Y125.935 E.04159
G1 X80.848 Y125.182 E.02686
G1 X82.73 Y123.623 E.07278
G1 X82.964 Y123.912 F9000
G1 F1200
G1 X85.849 Y122.473 E.09605
G1 X90.032 Y120.946 E.13263
G1 X91.276 Y120.634 E.0382
G1 X93.373 Y120.634 E.06247
G1 X94.039 Y120.805 E.02047
G1 X94.694 Y121.157 E.02216
G1 X95.554 Y122.026 E.03643
G1 X95.91 Y122.711 E.023
G1 X95.99 Y122.975 E.00819
G1 X138.512 Y123.042 E1.2666
G1 X139.166 Y123.294 E.02087
G1 X139.717 Y123.67 E.01988
G1 X140.402 Y124.407 E.02996
G1 X140.643 Y124.841 E.01481
G1 X140.831 Y125.364 E.01653
G1 X140.831 Y131.296 E.17671
G1 X140.643 Y131.819 E.01653
G1 X140.402 Y132.253 E.01481
G1 X139.716 Y132.992 E.03002
G1 X138.978 Y133.454 E.02594
G1 X138.105 Y133.686 E.02691
G1 X95.985 Y133.686 E1.25461
G1 X95.909 Y133.949 E.00813
G1 X95.458 Y134.767 E.02783
G1 X94.716 Y135.489 E.03085
G1 X94.222 Y135.777 E.01701
G1 X93.281 Y136.04 E.02912
G1 X91.385 Y136.04 E.05648
G1 X90.011 Y135.708 E.0421
G1 X85.678 Y134.114 E.13752
G1 X82.987 Y132.764 E.08968
G1 X81.449 Y131.555 E.05828
G1 X80.964 Y131.019 E.02151
G1 X80.099 Y129.065 E.06366
G1 X80.024 Y128.336 E.02182
G1 X80.165 Y127.346 E.02981
G1 X80.693 Y126.097 E.04039
G1 X81.111 Y125.453 E.02287
G1 X82.918 Y123.951 E.06998
G1 X83.152 Y124.24 F9000
G1 F1200
G1 X85.988 Y122.823 E.09443
G1 X90.152 Y121.303 E.13202
G1 X91.344 Y121.005 E.03661
G1 X93.348 Y121.011 E.05969
G1 X93.884 Y121.15 E.0165
G1 X94.448 Y121.443 E.01892
G1 X95.265 Y122.27 E.03462
G1 X95.564 Y122.862 E.01975
G1 X95.699 Y123.351 E.01513
G1 X138.411 Y123.407 E1.27227
G1 X138.975 Y123.619 E.01793
G1 X139.458 Y123.944 E.01734
G1 X140.085 Y124.612 E.02729
G1 X140.294 Y124.984 E.0127
G1 X140.465 Y125.46 E.01508
G1 X140.465 Y131.2 E.17096
G1 X140.294 Y131.676 E.01508
G1 X140.085 Y132.048 E.0127
G1 X139.458 Y132.716 E.02729
G1 X138.851 Y133.098 E.02137
G1 X138.079 Y133.309 E.02383
G1 X95.683 Y133.309 E1.26284
G1 X95.564 Y133.795 E.01489
G1 X95.174 Y134.517 E.02444
G1 X94.47 Y135.201 E.02923
G1 X94.056 Y135.438 E.01421
G1 X93.255 Y135.663 E.02479
G1 X91.408 Y135.663 E.05502
G1 X90.131 Y135.35 E.03914
G1 X85.837 Y133.772 E.13627
G1 X83.205 Y132.455 E.08766
G1 X81.695 Y131.269 E.05721
G1 X81.265 Y130.791 E.01915
G1 X80.457 Y128.942 E.06009
G1 X80.4 Y128.365 E.01726
G1 X80.522 Y127.469 E.02695
G1 X81.035 Y126.258 E.03918
G1 X81.376 Y125.723 E.01889
G1 X83.106 Y124.278 E.06714
G1 X83.347 Y124.568 F9000
G1 F1200
G1 X86.128 Y123.174 E.09267
G1 X90.272 Y121.661 E.13143
G1 X91.367 Y121.383 E.03365
G1 X93.323 Y121.388 E.05825
G1 X93.733 Y121.496 E.01264
G1 X94.204 Y121.733 E.01572
G1 X94.942 Y122.468 E.03101
G1 X95.218 Y123.013 E.01821
G1 X95.3 Y123.324 E.00957
G1 X95.316 Y123.728 E.01205
G1 X138.313 Y123.772 E1.28075
G1 X138.786 Y123.947 E.01502
G1 X139.2 Y124.22 E.01478
G1 X139.769 Y124.819 E.02462
G1 X139.945 Y125.127 E.01054
G1 X140.099 Y125.557 E.0136
G1 X140.099 Y131.103 E.1652
G1 X139.945 Y131.533 E.0136
G1 X139.769 Y131.841 E.01054
G1 X139.201 Y132.439 E.02459
G1 X138.721 Y132.743 E.01692
G1 X138.052 Y132.932 E.0207
G1 X95.324 Y132.932 E1.27273
G1 X95.313 Y133.221 E.00861
G1 X95.218 Y133.644 E.0129
G1 X94.889 Y134.268 E.02102
G1 X94.226 Y134.913 E.02754
G1 X93.893 Y135.098 E.01135
G1 X93.229 Y135.286 E.02057
G1 X91.431 Y135.286 E.05355
G1 X90.252 Y134.993 E.03619
G1 X85.996 Y133.43 E.13505
G1 X83.423 Y132.147 E.08564
G1 X81.941 Y130.983 E.05613
G1 X81.567 Y130.562 E.01677
G1 X80.829 Y128.873 E.05492
G1 X80.777 Y128.39 E.01446
G1 X80.88 Y127.592 E.02398
G1 X81.376 Y126.42 E.03789
G1 X81.677 Y125.952 E.01657
G1 X83.3 Y124.607 E.06281
G1 X83.54 Y124.897 F9000
G1 F1200
G1 X83.598 Y124.849 E.00226
G1 X86.267 Y123.524 E.08874
G1 X90.394 Y122.018 E.13086
G1 X91.391 Y121.76 E.03069
G1 X93.297 Y121.765 E.05677
G1 X93.58 Y121.841 E.00874
G1 X94.006 Y122.056 E.01422
G1 X94.652 Y122.71 E.02736
G1 X94.858 Y123.127 E.01386
G1 X94.929 Y123.396 E.00829
G1 X94.941 Y124.105 E.02112
G1 X138.217 Y124.138 E1.28907
G1 X138.601 Y124.276 E.01214
G1 X138.945 Y124.498 E.01219
G1 X139.455 Y125.029 E.02196
G1 X139.596 Y125.271 E.00832
G1 X139.733 Y125.653 E.0121
G1 X139.733 Y131.007 E.15945
G1 X139.596 Y131.389 E.0121
G1 X139.455 Y131.631 E.00832
G1 X138.945 Y132.162 E.02194
G1 X138.588 Y132.389 E.01262
G1 X138.024 Y132.555 E.0175
G1 X94.943 Y132.555 E1.28324
G1 X94.94 Y133.167 E.01821
G1 X94.871 Y133.493 E.00992
G1 X94.57 Y134.066 E.01928
G1 X94.019 Y134.597 E.02281
G1 X93.764 Y134.743 E.00874
G1 X93.201 Y134.909 E.01748
G1 X91.455 Y134.909 E.052
G1 X90.373 Y134.636 E.03323
G1 X86.154 Y133.088 E.13385
G1 X83.641 Y131.838 E.08361
G1 X82.188 Y130.697 E.05502
G1 X81.869 Y130.336 E.01436
G1 X81.2 Y128.801 E.04988
G1 X81.154 Y128.411 E.01168
G1 X81.238 Y127.713 E.02094
G1 X81.716 Y126.583 E.03657
G1 X81.977 Y126.183 E.01421
G1 X83.493 Y124.936 E.05849
G1 X83.731 Y125.227 F9000
G1 F1200
G1 X83.82 Y125.155 E.0034
G1 X86.405 Y123.875 E.08594
G1 X90.515 Y122.375 E.13032
G1 X91.416 Y122.137 E.02776
G1 X93.228 Y122.136 E.05397
G1 X93.43 Y122.187 E.0062
G1 X93.807 Y122.378 E.01259
G1 X94.357 Y122.947 E.02357
G1 X94.508 Y123.268 E.01057
G1 X94.557 Y123.464 E.00602
G1 X94.564 Y124.482 E.03032
G1 X138.121 Y124.504 E1.2974
G1 X138.453 Y124.623 E.01052
G1 X138.69 Y124.777 E.0084
G1 X139.144 Y125.243 E.01939
G1 X139.247 Y125.416 E.00602
G1 X139.367 Y125.75 E.01056
G1 X139.367 Y130.91 E.1537
G1 X139.247 Y131.244 E.01056
G1 X139.144 Y131.417 E.00602
G1 X138.69 Y131.883 E.01938
G1 X138.45 Y132.037 E.00849
G1 X137.994 Y132.178 E.01421
G1 X94.564 Y132.178 E1.29366
G1 X94.566 Y133.117 E.02796
G1 X94.522 Y133.349 E.00704
G1 X94.283 Y133.819 E.01571
G1 X93.806 Y134.286 E.01988
G1 X93.629 Y134.39 E.00612
G1 X93.171 Y134.532 E.01427
G1 X91.479 Y134.532 E.0504
G1 X90.494 Y134.278 E.03028
G1 X86.312 Y132.745 E.13267
G1 X83.858 Y131.53 E.08158
G1 X82.436 Y130.412 E.05389
G1 X82.173 Y130.11 E.01191
G1 X81.57 Y128.725 E.04501
G1 X81.532 Y128.428 E.00893
G1 X81.596 Y127.834 E.01779
G1 X82.057 Y126.746 E.03518
G1 X82.275 Y126.415 E.01181
G1 X83.685 Y125.265 E.05419
G1 X83.921 Y125.558 F9000
G1 F1200
G1 X84.04 Y125.462 E.00455
G1 X86.544 Y124.226 E.08318
G1 X90.637 Y122.732 E.12979
G1 X91.443 Y122.514 E.02486
G1 X93.166 Y122.508 E.05134
G1 X93.282 Y122.535 E.00354
G1 X93.609 Y122.7 E.01091
G1 X94.029 Y123.135 E.01801
G1 X94.158 Y123.409 E.00901
G1 X94.185 Y123.526 E.00359
G1 X94.186 Y124.859 E.03969
G1 X138.024 Y124.87 E1.30578
G1 X138.305 Y124.971 E.00888
G1 X138.436 Y125.056 E.00466
G1 X138.836 Y125.461 E.01695
G1 X138.899 Y125.564 E.0036
G1 X139.001 Y125.847 E.00895
G1 X139.001 Y130.813 E.14795
G1 X138.899 Y131.096 E.00895
G1 X138.836 Y131.199 E.0036
G1 X138.436 Y131.604 E.01695
G1 X138.307 Y131.688 E.00458
G1 X137.963 Y131.801 E.01079
G1 X94.186 Y131.801 E1.30397
G1 X94.189 Y133.103 E.03878
G1 X94.17 Y133.211 E.00328
G1 X93.993 Y133.576 E.01206
G1 X93.587 Y133.978 E.01704
G1 X93.486 Y134.041 E.00353
G1 X93.139 Y134.155 E.01088
G1 X91.504 Y134.155 E.04872
G1 X90.616 Y133.921 E.02733
G1 X86.47 Y132.403 E.13152
G1 X84.076 Y131.221 E.07953
G1 X82.684 Y130.127 E.05273
G1 X82.478 Y129.887 E.00942
G1 X81.939 Y128.645 E.04034
G1 X81.909 Y128.438 E.00622
G1 X81.955 Y127.953 E.01452
G1 X82.397 Y126.91 E.03373
G1 X82.571 Y126.649 E.00935
G1 X83.875 Y125.596 E.04992
G1 X84.11 Y125.889 F9000
G1 F1200
G1 X84.259 Y125.769 E.00571
G1 X86.683 Y124.577 E.08045
G1 X90.76 Y123.088 E.12929
G1 X91.471 Y122.891 E.02197
G1 X93.148 Y122.888 E.04996
G1 X93.369 Y122.992 E.00726
G1 X93.702 Y123.327 E.01408
G1 X93.812 Y123.577 E.00814
G1 X93.808 Y125.236 E.04941
G1 X137.928 Y125.236 E1.31418
G1 X138.182 Y125.336 E.00814
G1 X138.535 Y125.689 E.01488
G1 X138.635 Y125.943 E.00814
G1 X138.635 Y130.717 E.14219
G1 X138.535 Y130.971 E.00814
G1 X138.182 Y131.325 E.01488
G1 X137.928 Y131.424 E.00814
G1 X93.808 Y131.424 E1.31418
G1 X93.811 Y133.083 E.04941
G1 X93.702 Y133.334 E.00815
G1 X93.359 Y133.678 E.01448
G1 X93.104 Y133.778 E.00815
G1 X91.529 Y133.778 E.04692
G1 X90.739 Y133.565 E.02439
G1 X86.627 Y132.06 E.13041
G1 X84.293 Y130.912 E.07748
G1 X82.933 Y129.844 E.05152
G1 X82.785 Y129.667 E.00685
G1 X82.306 Y128.559 E.03597
G1 X82.287 Y128.441 E.00356
G1 X82.315 Y128.07 E.01107
G1 X82.736 Y127.076 E.03217
G1 X82.866 Y126.887 E.00682
G1 X84.063 Y125.926 E.04572
G1 X84.297 Y126.221 F9000
G1 F1200
G1 X84.478 Y126.077 E.00688
G1 X86.822 Y124.927 E.07776
G1 X90.872 Y123.448 E.12844
G1 X91.5 Y123.268 E.01946
G1 X93.062 Y123.259 E.04652
G1 X93.131 Y123.288 E.00225
G1 X93.406 Y123.563 E.01157
G1 X93.434 Y123.633 E.00224
G1 X93.43 Y125.613 E.05899
G1 X137.886 Y125.613 E1.32419
G1 X137.955 Y125.642 E.00223
G1 X138.229 Y125.916 E.01154
G1 X138.258 Y125.985 E.00223
G1 X138.258 Y130.675 E.1397
G1 X138.229 Y130.744 E.00223
G1 X137.955 Y131.018 E.01154
G1 X137.886 Y131.047 E.00223
G1 X93.43 Y131.047 E1.32419
G1 X93.434 Y133.028 E.059
G1 X93.406 Y133.097 E.00224
G1 X93.132 Y133.372 E.01156
G1 X93.062 Y133.4 E.00224
G1 X91.555 Y133.4 E.04488
G1 X90.862 Y133.208 E.02144
G1 X86.785 Y131.717 E.12931
G1 X84.477 Y130.583 E.07658
G1 X83.184 Y129.562 E.04907
G1 X83.096 Y129.452 E.00421
G1 X82.671 Y128.462 E.03209
G1 X82.676 Y128.184 E.00828
